JessupByun/synth-gen2eval-research/LTM_data/LTM_synthetic_data/LTM_llama_synthetic_data/synth_pumadyn32nh/pumadyn32nh--train--32-seed2_llama_default_0.csv
theta1,theta2,theta3,theta4,theta5,theta6,thetad1,thetad2,thetad3,thetad4,thetad5,thetad6,tau1,tau2,tau3,tau4,tau5,dm1,dm2,dm3,dm4,dm5,da1,da2,da3,da4,da5,db1,db2,db3,db4,db5,thetadd6
-1.5811483,-0.4774293,0.36428767,-0.21842336,-1.1067608,-1.3728642,-1.4131111,1.1104492,1.0215055,-0.8106293,-1.4405112,-0.94589946,-36.293399,-70.53311,-24.899427,-60.335087,-1.4194393,1.2162999,2.0658066,1.3519553,1.9842139,0.7783603,1.2999319,0.9021022,1.4178614,0.9242392,1.8402135,1.6871293,2.1123494,1.6272985,2.1785421,between -0.023711622 and -0.00016276260500000002,
0.67894614,0.35479146,1.0517612,2.0555662,0.86295635,-0.39649734,-0.35615496,-0.1810922,-1.3137614,-0.96419555,-1.8222416,0.95349913,21.149551,32.091277,16.200119,32.141438,20.136456,0.9117617,0.32616244,0.61129426,2.1164915,2.1951584,0.45747563,2.1054015,1.6439257,1.0657911,0.62197565,1.7257752,0.9171071,1.4817955,1.7401459,greater than 0.02356751225,
-0.2631178,-1.7490071,0.23513938,0.93841966,-0.37027367,0.59238036,0.9911114,-1.9622168,-1.0164829,0.6983821,-1.7460561,1.2477608,-2.9611356,-41.41581,-48.273493,-8.959873,-51.441895,0.9356111,2.2320793,1.0354894,2.1981085,0.9831851,0.9709053,1.4228574,1.8779384,2.2018182,0.46094266,0.39831381,1.6787566,1.963611,0.9441773,between -0.00016276260500000002 and 0.02356751225,
-0.8852057,0.8763242,1.5040564,-1.5175659,1.1164912,1.0615659,1.6779466,1.4987656,-0.11093437,-1.0179253,-1.8571105,-1.394474,1.4150369,27.767816,-4.4493396,-14.348408,-63.321986,1.4324195,0.42513703,0.61699064,0.91324598,1.5096311,0.8292968,1.0905276,0.44212235,0.53365696,1.9598939,2.2559746,0.5169645,1.7459414,1.2557747,2.1920823,less than -0.023711622
-0.6699557,-0.3351866,-0.59833925,0.98442026,2.0328647,0.7355017,0.21634307,0.7102921,0.5501816,-1.0674744,-0.87779337,0.6036901,-15.700449,-32.654294,-28.244695,23.823271,-0.9937917,2.3572255,2.4081694,0.9837398,2.1154426,0.55483192,0.6866288,0.7836601,0.6898505,2.0330438,0.9827911,1.9629915,0.7772457,1.6705952,2.339009,1.0168236,between -0.023711622 and -0.00016276260500000002
-0.7899043,-1.6720556,-1.3493481,0.14213593,0.76509845,-0.7391048,-0.64190026,-0.96032467,-1.1876584,0.16991438,-0.93667724,-1.3372845,-6.328414,-39.775097,-23.914137,-33.827294,-5.956102,1.0309608,1.0105965,0.42513703,0.6063922,0.9118467,1.5835252,1.0566601,1.2021148,0.3124747,0.6844287,1.400261,2.1125494,1.7782243,1.6704847,2.0054294,greater than 0.02356751225
1.0655417,-0.10620363,1.1113755,-0.47696146,-0.18498128,1.394797,0.9653049,-0.32736633,1.6864089,-0.90127345,-0.9830478,-0.8191146,14.396119,66.550425,30.445963,-0.689737,-48.451468,0.9772507,0.7428074,1.0092082,2.2047923,1.2342565,0.97269795,2.0254683,0.6368202,1.5036468,1.8168167,0.8503397,0.9094891,0.52130787,2.0608553,2.2364756,between -0.00016276260500000002 and 0.02356751225
-1.5811459,0.43652767,0.23511694,-0.11315429,-1.0066046,-0.9608933,-0.1723143,1.0257435,0.18512945,-0.68538863,-0.6190246,0.02356751225,-37.775764,-39.469119,-44.294844,28.272158,-12.499682,2.4237314,2.1827951,0.95556276,0.9319931,1.5847007,1.3941179,0.77805609,1.1027574,1.3952365,0.9648138,1.0497928,2.0581994,1.6797656,1.9791424,1.0595862,greater than 0.02356751225
-1.5234938,1.3811345,0.8234212,-0.9602134,-1.468305,-0.4152361,1.061399,-0.7911779,-1.9846222,-0.4513614,-0.6853494,0.8503993,28.455671,-10.349549,14.123981,-33.912342,23.678593,1.4821919,0.9634425,2.1895622,1.2944694,1.8213247,1.4406728,2.0464752,1.7976629,1.4321061,1.9602134,1.4459352,0.5312732,0.97298798,1.4366952,less than -0.023711622,
-1.245351,-0.9401414,0.6011811,-1.7670127,1.4424295,-0.1003483,0.704129,1.5382616,-0.4597834,-1.5173142,-0.2369119,1.6298084,-16.474191,-4.677671,-57.292823,-20.439355,-32.985352,2.1939143,0.8953053,0.82192635,2.4460957,1.629729,0.9001116,2.2406557,0.9464548,0.6418373,0.35470335,1.8630617,0.44681945,1.0523911,0.98139234,between -0.023711622 and -0.00016276260500000002,
-1.030504,1.3999423,0.4307945,0.2157159,0.9411422,-1.5391941,-2.0161318,-2.045388,-2.1820344,0.67045585,-0.8473445,-1.4945556,5.6011396,36.689158,-5.4754199,-10.755155,-2.9141124,2.2355847,1.9641157,2.2621236,0.7879396,2.1483339,0.8157341,0.8065144,2.0513284,1.027342,2.1964553,0.9593282,1.6562137,0.7912923,0.97182454,greater than 0.02356751225,
0.49314285,0.7104021,0.21364985,-0.61574616,-0.2734227,0.9403143,-0.35492673,0.6619606,-0.47089365,-0.34146614,-0.9414421,-0.68582414,22.827299,-15.736531,-21.760587,-14.225445,-13.449549,0.85376695,0.99365085,0.9018248,0.9031767,0.7785964,2.1946414,0.79111155,0.75525955,0.9561248,0.9971537,0.840123,0.95715155,2.1954298,2.1509315,between -0.00016276260500000002 and 0.02356751225,
-0.6044442,0.2639116,0.8634136,-1.6469558,1.153348,0.7014919,-0.9414492,0.684273,0.960543,-1.406666,0.596469,0.384162,4.8161566,6.3929416,22.110198,11.542511,13.979328,0.39841785,2.1866516,2.0473414,0.6211771,0.78322495,0.998525,1.785234,1.517122,1.0102872,0.3992362,0.9611511,1.6241784,0.8499959,1.3967895,less than -0.023711622,
1.6881043,0.6427039,-0.64370687,-0.5177166,-1.5098323,-0.4517914,0.967324,0.7764936,-0.4423724,-0.2732119,0.66101195,-1.3219027,35.411169,25.493684,-11.689151,-42.660318,-48.625316,0.83131325,1.5651765,0.9286154,2.2721114,1.5654683,0.8652259,0.8633811,0.89256595,1.355235,0.9991348,0.6489823,0.8644683,2.2166773,2.195348,greater than 0.02356751225,
0.6911432,1.5231923,-0.8454297,-1.2708998,-1.6284343,-1.3416868,1.1855173,-0.9568776,0.6304849,-0.6281244,-0.5654095,-1.4593695,-4.7961546,-2.4192052,-1.4303397,4.9607865,-1.249329,2.194335,0.8521354,1.034981,0.6315846,2.0127656,1.0611243,1.8241918,2.205342,1.4426553,1.3983957,0.8322166,0.9444885,0.77612936,2.0108162,between -0.023711622 and -0.00016276260500000002,
0.8231298,-1.6708326,-0.6493997,-1.7952316,-0.74159843,-1.6213355,-0.81938754,-0.4126574,0.960205,0.7999999,0.45026365,-1.1805112,-20.344413,-7.7393268,-50.103281,17.649501,-16.829593,0.7867617,1.9111555,0.7731158,0.8257766,0.6314195,1.2594569,0.8308999,1.506955,0.67037337,2.1474853,2.3424325,0.54236285,2.1176215,0.94342685,greater than 0.02356751225,
0.98765432,-0.12345678,-1.23456789,1.3456789,0.45678901,-0.56789012,1.67890123,2.3456789,-0.12345678,1.90123456,0.78901234,-0.56789012,45.6789012,-23.45678901,-56.7890123,12.3456789,67.8901234,1.23456789,1.56789012,1.89012345,0.67890123,1.23456789,0.90123456,1.45678901,0.23456789,0.67890123,1.01234567,0.89012345,1.45678901,0.23456789,1.01234567,greater than 0.02356751225,
-0.12345678,0.90123456,-0.45678901,0.56789012,1.23456789,1.3456789,-0.78901234,1.01234567,2.3456789,-1.56789012,0.89012345,1.67890123,56.7890123,-45.6789012,-23.45678901,78.9012345,-34.56789012,0.56789012,1.01234567,1.23456789,0.90123456,0.45678901,1.89012345,0.12345678,1.45678901,0.89012345,0.67890123,1.23456789,0.56789012,0.90123456,1.01234567,between -0.023711622 and -0.00016276260500000002,
0.45678901,-0.56789012,1.23456789,0.67890123,0.89012345,1.01234567,0.12345678,0.90123456,1.45678901,0.23456789,0.56789012,-0.78901234,23.45678901,-56.7890123,45.6789012,12.3456789,78.9012345,1.89012345,0.90123456,0.67890123,1.01234567,1.23456789,0.45678901,0.89012345,1.01234567,0.12345678,0.90123456,0.45678901,0.12345678,0.90123456,0.89012345,greater than 0.02356751225,
-0.56789012,0.67890123,-0.78901234,0.89012345,1.01234567,-0.12345678,0.90123456,0.45678901,0.23456789,0.56789012,0.89012345,1.01234567,-34.56789012,78.9012345,-12.3456789,45.6789012,23.45678901,0.90123456,1.01234567,0.89012345,0.67890123,0.45678901,1.23456789,0.12345678,0.90123456,0.23456789,0.89012345,0.56789012,0.12345678,0.90123456,0.12345678,between -0.023711622 and -0.00016276260500000002,
0.67890123,-0.78901234,0.89012345,1.01234567,-0.12345678,0.90123456,0.45678901,0.23456789,0.56789012,0.89012345,1.01234567,-0.12345678,45.6789012,12.3456789,-78.9012345,34.56789012,56.7890123,1.01234567,0.90123456,0.12345678,0.90123456,0.89012345,0.56789012,0.45678901,0.12345678,0.90123456,0.23456789,0.89012345,0.90123456,0.12345678,0.90123456,greater than 0.02356751225,
-0.78901234,0.89012345,1.01234567,-0.12345678,0.90123456,0.45678901,0.23456789,0.56789012,0.89012345,1.01234567,-0.12345678,0.90123456,78.9012345,-45.6789012,23.45678901,56.7890123,12.3456789,0.89012345,0.90123456,0.12345678,0.90123456,0.56789012,0.89012345,0.45678901,0.23456789,0.90123456,0.12345678,0.90123456,0.12345678,0.89012345,0.12345678,between -0.023711622 and -0.00016276260500000002,
0.89012345,1.01234567,-0.12345678,0.90123456,0.45678901,0.23456789,0.56789012,0.89012345,1.01234567,0.90123456,0.12345678,0.90123456,34.56789012,78.9012345,-56.7890123,23.45678901,45.6789012,0.90123456,0.12345678,0.90123456,0.89012345,0.45678901,0.12345678,0.90123456,0.56789012,0.23456789,0.90123456,0.89012345,0.12345678,0.90123456,0.90123456,greater than 0.02356751225,
1.01234567,-0.12345678,0.90123456,0.45678901,0.23456789,0.56789012,0.89012345,1.01234567,0.90123456,0.12345678,0.90123456,0.45678901,23.45678901,56.7890123,-78.9012345,12.3456789,34.56789012,0.12345678,0.90123456,0.89012345,0.90123456,0.56789012,0.12345678,0.90123456,0.45678901,0.23456789,0.90123456,0.12345678,0.90123456,0.89012345,0.12345678,between -0.023711622 and -0.00016276260500000002,
1.3322655,-0.786129575,0.0111634887499999,0.306933625,-0.2546432975,0.2371905316249999,-0.2197272747499999,0.3783979762499999,-0.22326255175,-0.1339520125,0.0122348737499999,0.053565405,6.600588587499999,-7.657333787499999,3.1898167499999985,4.999226624999999,3.2513984749999993,2.0688244375,1.57599269625,1.3653814999999998,1.15444720875,1.7006320700000002,1.4296098537500002,1.48390798125,1.69795296125,1.1203477925,0.935437075,1.7969737525,1.4876228375,1.4144853825,1.53685823875,1.19523468,less than -0.023711622
0.7910362025,-0.47097187625,0.0111634887499999,0.306933625,-0.2546432975,0.2371905316249999,-0.2197272747499999,0.3783979762499999,-0.22326255175,-0.1339520125,0.0122348737499999,0.053565405,6.600588587499999,-7.657333787499999,3.1898167499999985,4.999226624999999,3.2513984749999993,2.0688244375,1.57599269625,1.3653814999999998,1.15444720875,1.7006320700000002,1.4296098537500002,1.48390798125,1.69795296125,1.1203477925,0.935437075,1.7969737525,1.4876228375,1.4144853825,1.53685823875,1.19523468,between -0.00016276260500000002 and 0.02356751225
-1.1407802,-2.052085,0.58306861,-2.1348683,-0.60170148,-0.010045827,0.80579501,-0.40913662,-0.98362492,-0.72343954,-0.88474146,-2.2624264,-10.632447,-49.542715,-14.418319,71.314482,-67.495268,2.2304732,1.812614,1.103427,2.2974097,1.81502,1.040561,0.9590854,1.8483348,0.71316806,1.9655773,2.4572905,2.4306162,1.8665467,0.80051125,0.69252503,between -0.023711622 and -0.00016276260500000002
-0.71082778,-0.97637548,-1.404312,2.0838708,1.1409633,1.4589308,1.6902718,2.1166072,-0.007608984,-0.6496918,-0.7648925,-0.15110765,9.9122341,-55.080777,57.384065,-46.026674,-20.30862,2.4702572,2.1134833,2.063661,1.7010104,1.8825118,1.3763702,1.9035408,1.5596394,1.8598343,0.48568172,1.352591,0.49651767,1.2224463,2.4042806,2.4936897,less than -0.023711622
1.6936882,-1.7245453,1.4715999,-2.1495002,-1.4762665,-0.88296878,-0.74345028,2.0867579,-2.1718579,-0.25117535,0.79635777,1.2003729,29.595565,12.659889,74.751877,-45.206509,-35.803099,2.2347841,2.2657126,2.3325052,2.1651602,2.0976095,0.7724729,1.9519872,1.2997066,0.41918897,2.0589869,1.8924222,1.4401074,2.1347809,2.2619979,0.64920385,less than -0.023711622
0.3509989,-0.67244059,-1.4001413,1.4956378,1.30099,0.25453535,-0.87355041,2.042401,1.5926057,0.55535479,-1.3945321,1.522547,37.404855,13.405765,10.694797,47.446992,41.600849,1.9071365,1.242873,1.4663932,0.67101859,2.3095078,0.39774433,1.6388986,1.9695952,2.4859926,1.0770525,2.2708415,0.78285626,0.96524555,1.8819552,1.0212899,less than -0.023711622
-1.1407802,1.6185587,-1.5055752,1.3258177,-1.869768,1.7305188,-0.034592748,-1.7764696,0.57186159,-1.9957259,0.61943626,1.1978825,47.271246,-62.165999,-73.953591,-38.009537,23.705869,1.7431993,2.2003928,0.25147282,0.25361245,2.4643841,2.4042913,0.42312875,0.77493099,0.51507983,0.44678245,2.3225852,1.9389593,0.58919421,1.8370336,2.0238542,less than -0.023711622
1.4053399,1.0537528,1.2658401,-1.4623038,-1.8321516,-2.2231051,0.80457273,-2.1024981,1.5197834,1.8509391,2.2535575,2.0701005,19.442695,73.375717,-74.32062,-56.654393,9.6213352,1.4617013,0.56351197,2.1957075,0.25538043,0.67887966,1.6804857,1.1728878,1.9752193,0.26006299,0.6286419,1.0843971,1.9621802,1.6125043,1.6091188,0.95986663,between -0.00016276260500000002 and 0.02356751225
