JessupByun/synth-gen2eval-research/LTM_data/LTM_synthetic_data/LTM_llama_synthetic_data/synth_pumadyn32nh/pumadyn32nh--train--128-seed2_llama_default_0.csv
theta1,theta2,theta3,theta4,theta5,theta6,thetad1,thetad2,thetad3,thetad4,thetad5,thetad6,tau1,tau2,tau3,tau4,tau5,dm1,dm2,dm3,dm4,dm5,da1,da2,da3,da4,da5,db1,db2,db3,db4,db5,thetadd6
-0.11234849,0.59852157,1.0467379,0.83211827,-0.73464111,-1.5093356,1.2427692,0.3849426,-0.67681414,1.4356255,-0.20267113,-0.46640064,14.235358,-31.384071,-13.935982,68.218987,-8.395395,1.9167836,1.4398369,0.94564939,2.0611061,1.6493239,2.1990568,1.0514468,1.7421696,1.4666405,0.62985785,1.8901732,0.77515154,0.72542194,1.9413529,less than -0.023711622,
0.91023682,1.4598159,0.45078188,-0.14291651,2.0783983,0.10420119,-0.29491164,-1.4366873,-1.0594975,-0.23163267,1.8571226,-0.89094146,30.401821,-17.819148,11.624396,4.5711633,28.392221,2.0116799,2.0861292,0.97796414,0.35437521,0.69920847,0.42313345,0.91541964,2.3831538,2.2164027,2.4255173,2.0104257,1.6606954,0.56115314,1.3316412,greater than 0.02356751225,
-1.164399,0.10393413,-1.6196705,-0.39785243,0.58881966,-2.1668708,-0.64768544,-1.9648275,-0.32854256,0.77301158,-0.55411065,1.9450984,-0.24615357,-48.517549,-16.559039,25.380162,-14.349319,2.3208144,0.9112991,1.3519821,2.201809,0.43657087,0.99343085,1.9871795,0.26245508,1.7913268,0.72392434,2.2929826,1.852113,1.4444156,0.69544418,between -0.00016276260500000002 and 0.02356751225,
-0.77051734,-0.37856454,-0.30949295,-1.5735123,0.82719216,-0.29500059,0.9412195,-0.76563146,-0.44530585,0.58766025,1.4450816,-2.1887564,13.89559,-7.2521583,-4.6885967,-52.64618,18.273395,0.83711438,0.69187717,0.80971585,0.93545961,1.6047911,1.3664576,0.536462,0.94576585,0.98341957,0.8607912,0.9565112,1.546736,1.0750641,2.3716703,greater than 0.02356751225,
-0.19512296,0.84545434,-0.225814,-0.77311588,-0.68461764,-1.0446904,-0.17730494,0.81605067,2.0935256,0.9178551,0.68894064,-1.0717344,35.941531,23.375689,51.349551,-31.430517,-3.987163,2.1993915,0.79925795,0.65189908,1.9404696,2.0121588,0.93741155,1.7556041,2.3822532,0.99544514,1.962183,2.4297857,0.81584047,1.6049606,0.6473564,less than -0.023711622,
-0.15660349,-1.8241595,-0.50912733,-1.2304678,0.53337321,0.75744526,0.3279054,0.45964985,0.73428185,1.2827069,-1.0224838,-0.2928519,48.588206,-6.1621516,-1.3441592,60.555615,-49.470587,2.1485252,2.100628,0.95346973,0.26021524,0.92645614,2.1456294,1.4196936,1.6861623,1.821926,0.70512212,0.90334815,0.68415746,1.4223739,2.2320599,less than -0.023711622,
0.17768539,0.33501194,-0.4443839,-1.7974919,-2.0024305,1.7559254,-0.76079134,-1.5649998,0.60905019,0.37542877,-0.32215695,-0.69528246,24.655986,-2.4503607,-44.245531,19.442409,-55.770356,0.88773438,0.82540933,0.45875626,0.69176263,2.0163282,2.2464198,1.4297956,0.71232536,0.98761511,0.7764792,0.85310175,1.4201119,2.3887363,1.1167603,greater than 0.02356751225,
1.2888456,-1.3704453,-0.23164164,2.0803818,-0.21059694,1.4303486,-1.0501126,2.0621192,1.6891543,-0.15632366,-0.77814243,-1.4559615,44.818058,-41.630771,68.49156,-21.382278,-8.686866,0.80512424,0.96370157,1.7454283,0.79121058,0.53682153,1.9609415,2.3913732,1.7069288,0.6893029,0.95512644,1.448934,0.93916245,1.8641765,0.67258695,between -0.00016276260500000002 and 0.02356751225,
-0.44590036,1.2494696,-0.41147422,0.19756854,-1.6285825,-0.6402256,0.35112412,-0.78965665,0.8062112,2.043123,-0.44961217,0.13643262,17.203654,-59.425251,-18.684289,-38.449236,-41.695721,2.1801344,1.8571292,0.61987977,1.9384146,0.9001698,1.5649514,1.0347104,1.9375316,0.69912322,1.6314297,0.93953645,0.82411394,1.9814114,1.7618992,between -0.023711622 and -0.00016276260500000002,
-1.9870625,0.84021555,-0.459238,0.48979146,1.734061,-1.3374291,1.657758,-0.29646942,2.0339655,1.5013735,1.6544456,0.5409931,51.351955,-26.197817,-5.234234,-16.436209,-64.101729,0.91684024,2.4003526,1.1163991,0.47516482,0.831129,0.35645553,0.7399871,1.630349,1.9249376,1.646211,0.5551958,1.9910115,1.4505553,0.5871368,greater than 0.02356751225,
0.38939573,0.62100915,-0.6765844,1.107311,-0.4574279,-0.42537317,0.4807831,-1.7616563,0.42816926,1.9248249,-0.3228571,-1.7842526,-45.38334,-3.409619,-65.32849,-6.7355866,8.254643,0.96535434,2.272395,0.98134435,2.3145866,2.1806617,1.9022459,0.53011136,0.93498575,1.2461112,0.35623776,1.6951918,1.4516551,1.7254081,0.62192696,less than -0.023711622,
-0.06531074,-1.3266352,-0.4147644,-1.0465846,-0.9614395,-0.76721175,-0.4151588,-1.426061,2.1231949,0.62726525,-1.695737,-0.68591413,-10.814209,-61.261411,-27.651646,-51.320985,53.194729,0.8105969,1.4345651,1.6964766,0.73792461,2.1623364,0.79516137,0.41969589,0.6244559,0.76512442,1.8248431,0.44212447,0.9381703,1.5709563,2.1845845,0.90073771,between -0.023711622 and -0.00016276260500000002
1.3501118,0.21337314,-1.533605,0.63058397,-1.2590127,-0.98444962,1.0138196,1.4482022,-0.17819153,0.76185773,-1.4554915,-2.1245544,30.737411,-33.609795,-51.460419,29.474631,-63.387173,1.5317832,2.2015865,1.6335174,1.7659683,0.4976112,0.81340634,2.2939565,0.68914235,0.82335557,1.4573735,2.1844266,0.27369585,2.4004293,1.8223759,1.6957022,less than -0.023711622
0.6787531,-0.14229155,-0.2391312,-1.0628955,-1.6564994,-0.5407644,0.6293998,1.624635,-0.64379143,1.7767436,0.6781352,0.44532443,46.985449,28.430765,-44.444819,-22.249411,-54.395339,1.1444936,2.0435096,0.80632641,0.85489592,0.9853214,0.63045681,0.78340964,1.6893411,0.79621172,0.9212409,0.9891357,0.81665827,1.6842136,1.6234254,0.96998785,between -0.023711622 and -0.00016276260500000002
-1.4496746,1.4080447,-0.44201127,-0.45030528,1.6326958,1.8211977,-0.44929944,0.7394756,0.92136286,2.0803496,-0.69049384,-0.25919445,-18.406586,6.179795,-23.760135,-13.480139,-58.690256,1.9354612,1.7362242,1.0791233,2.2369879,0.8631822,0.3792172,1.695209,2.1356702,2.186428,0.41159648,0.95546973,0.9373023,2.1499465,0.82916233,greater than 0.02356751225,
1.6247398,0.62769892,0.48911472,-1.4199824,0.69037517,-0.6230296,0.7892429,-0.76084934,-0.39926136,2.1810616,0.9931703,0.98115815,29.341995,25.177199,22.794804,8.2271165,-14.442815,0.9756258,1.8546312,0.9697839,0.44212224,1.759421,0.9692365,1.129341,0.45515486,0.87096135,1.9826556,0.73615625,1.4293364,1.9609935,0.9693871,1.4201035,less than -0.023711622
-0.71082778,-0.10336121,-0.404312,0.0838708,0.1409633,1.4589308,1.6902718,0.1166072,-0.007608984,-0.6496918,-0.7648925,-0.15110765,9.9122341,-1.080777,7.384065,-6.026674,-0.30862,2.4702572,0.1134833,1.063661,1.7010104,1.8825118,0.3763702,1.9035408,0.5596394,0.8598343,0.48568172,0.352591,0.49651767,1.2224463,0.4042806,1.4936897,between -0.023711622 and -0.00016276260500000002
0.014835669,-0.41352495,0.65985051,0.8562692,2.3019007,-0.66809187,1.0029614,0.55730427,-1.616488,-1.390842,2.2806636,0.54037798,43.261829,51.553806,4.817437,-43.332607,-21.133445,0.47773526,0.54643503,0.93351342,0.8100562,0.8639085,0.9601536,0.3014976,0.2703678,0.3213334,0.1510389,0.5114512,0.9602383,0.47459568,0.7796526,0.62058812,between -0.00016276260500000002 and 0.02356751225
1.7123886,0.5548989,-0.7227925,-1.0558432,-0.3203104,0.1824901,-0.65405869,0.2390199,0.16101614,0.2870564,1.6910993,0.8872631,14.4747849,37.710428,19.162485,13.8893991,-10.869239,1.8353813,1.2538514,0.480959,1.4783131,0.25833513,0.83846049,1.7553758,1.1002775,0.61359491,1.4397357,1.1372818,1.5455058,1.1035553,0.56679381,greater than 0.02356751225,
-1.40444,-0.066838705,-1.8095368,0.87288019,0.83052883,0.6018112,1.8540169,0.145723,-0.74587413,-0.95177252,0.1198907,-0.3706172,-47.476507,-7.6504553,-21.202432,-9.269994,-0.783932,0.891913,0.8816204,1.1442458,0.5899382,1.34068962,0.2205165,0.4707459,0.8262541,0.85259596,0.83027156,0.3740861,1.764636,0.4880764,0.3508845,less than -0.023711622,
2.1067408,-0.89773289,0.87288979,0.99173522,0.37407074,0.67998791,1.0134615,-1.0389785,-0.61906164,0.38581387,0.12640244,-0.84157047,53.746768,1.934675,36.074353,1.6452469,41.665133,1.1634357,0.61322225,1.67634322,0.8004265,0.8175878,0.8474413,0.4464414,1.59052885,0.7683099,0.2344026,0.85446248,1.70087181,0.3025939,1.1953022,0.69351798,between -0.023711622 and -0.00016276260500000002
0.40036739,-0.31671321,0.0006844,-2.1042994,-0.48063598,-1.0141612,-0.29715566,0.83713599,-1.4488791,0.3149971,-1.0403906,-0.78986284,-3.527678,30.321034,-14.379372,45.900815,-64.994011,0.7599649,0.48007983,0.7016271,0.99590239,0.8814156,1.95269584,0.4589401,1.90641956,0.94346728,0.35449255,0.4563164,1.3089122,0.6371215,1.3510004,0.76363405,between -0.00016276260500000002 and 0.02356751225
1.3867086,-0.0638326,-1.029984,-2.3360257,1.0414843,0.32244635,0.10844643,-0.0354239,0.48364331,-0.27788188,-0.38335034,-0.1334544,50.658864,13.519965,-9.951536,54.53302,16.466072,1.3539588,0.48628366,1.4695566,1.5869968,0.40462404,0.26620245,0.31465411,1.3916586,1.8556483,1.1317738,0.521933,1.4429038,0.4429038,1.8839792,1.2884845,greater than 0.02356751225
-0.16658019,-0.91739354,-1.48393213,-2.14141553,0.95232997,0.62135538,-0.38638142,1.45841673,-0.92162537,1.50741108,0.24167293,-0.72521198,20.546351,7.03839243,50.11108775,-22.510924,43.129227,1.6108326,1.75035638,2.0466748,1.48214465,1.80283392,0.89782835,1.49413798,1.6108326,1.89230713,1.3199265,1.64345235,1.05853318,1.8034896,1.26910798,2.00070553,less than -0.023711622
-0.44754112,1.2198428,-1.0493822,-0.64983194,-0.8706477,-2.0338995,0.86076018,-0.6893944,-0.45996085,-0.12314377,-0.8825634,0.9562375,-7.3333335,8.344104,17.289279,6.159493,-5.685464,1.3830618,1.6244821,0.94359435,1.2454742,1.965021,1.1106655,1.6272018,0.6931826,0.29631575,1.4809374,2.138049,1.7041978,0.6783741,1.986762,less than -0.023711622,
1.6852197,-1.2961476,1.4604672,-0.91923226,-0.5414066,-0.6852471,-0.31923055,-1.175315,-1.3826892,1.1426237,0.65467695,0.31442664,-4.511184,14.191159,-18.522141,-25.375102,-1.685964,0.9212822,1.9567654,1.7436334,0.45537277,0.98749095,0.30042557,1.1414204,0.9643617,2.0602133,0.6954062,0.9761438,0.6461946,1.372549,0.9063267,greater than 0.02356751225,
0.12483576,-0.6423174,-0.5090455,0.5557349,-1.0615813,-1.676417,0.7041969,0.8621998,-0.64339664,-1.609171,-0.885366,1.7674931,-4.511184,24.758202,69.542949,-27.829491,-0.684205,2.067279,1.3641817,0.448281,1.1295679,0.7891422,0.98749095,2.2893244,1.194129,2.3424549,2.240292,0.37812696,1.2102433,0.9245393,0.8245175,less than -0.023711622,
-0.10507815,0.9021574,0.5557349,-1.0622439,-0.24626369,0.31442664,0.9654918,1.0545641,1.0516314,0.50880605,-0.64373162,-0.31923055,-10.438298,10.609812,-9.194773,22.46379,21.370664,2.1438076,1.1671355,1.6233394,0.55064439,0.8405407,1.2021584,1.1233135,1.791665,1.3054682,1.3598995,1.879214,0.79814118,1.3674197,1.110469,less than -0.023711622,
1.1566615,1.6880617,-0.185445,-0.7502639,-0.38574783,-0.11548361,-0.6845643,0.940716,0.2996771,0.11514225,-0.6996575,-2.1395525,51.033949,27.5758,-33.525706,-66.532414,39.722484,0.86178383,2.2508608,2.4666836,0.55064439,1.9302327,2.4209544,1.4810635,1.9838049,0.55902013,0.95135411,2.4085543,2.3222734,1.1991444,2.2706145,1.4678828,between -0.023711622 and -0.00016276260500000002
0.9852193,-1.194129,-0.5090455,-0.18555598,0.17677636,0.94132699,-1.2526844,0.37005901,1.0516314,-1.609171,-0.64373162,-1.6026821,4.0258322,12.161472,-52.14298,-67.058357,50.185896,1.7403351,1.312716,0.81755838,1.4537688,2.2426871,2.3424549,0.63942341,2.2893244,0.92501136,0.66586578,1.2060968,2.1186852,1.7415585,1.6243216,between -0.023711622 and -0.00016276260500000002,
-1.7604935,-0.64863183,2.0147932,1.0907791,1.5307823,-1.7851761,-0.31923055,-0.6893944,0.2996771,-0.12314377,-0.64373162,0.31442664,-3.8472575,-10.856473,-64.748703,18.546973,18.967433,1.9096356,0.49630417,2.1342634,0.31416832,0.97700429,1.5110349,1.7140335,0.26136978,2.3418974,0.26944565,0.82303462,1.2428105,0.41578533,1.1041071,2.478859,less than -0.023711622
0.42959381,-0.087402246,1.822252325,2.000488575,-0.91997682,1.476121575,-1.335127575,-1.374225125,1.7722566,1.58527715,-0.43206098,0.24582648925,12.52114705,-54.288026,50.11082125,27.87515675,6.8290164075,1.260641675,0.8301813,0.8489640225,0.6327669725,0.66541505,1.364597925,0.81364972,0.9084357925,1.2400400625,0.786161865,1.0389204175,1.0139602925,1.2284199225,1.0755069425,greater than 0.02356751225,
-0.36199204975,1.1376347225,-1.00502324,-0.914407975,-1.44940515,1.476121575,-1.335127575,0.53070137775,1.7722566,1.58527715,-0.43206098,0.24582648925,59.3531925,44.7140195,-30.90039525,27.87515675,33.975609999999996,1.953897275,1.792026375,2.104750625,2.022477475,1.3806315,2.1459390000000003,1.5439523,1.439923325,2.2034770999999997,1.417861125,2.133254825,1.845323625,1.9045,1.73670495,between -0.00016276260500000002 and 0.02356751225,
-2.1224946,-2.223846,-2.2224513,-2.3433411,1.6136064,0.084545981,-2.17717,0.0041586903,-0.79072756,-0.82121421,0.44012692,-1.2375171,48.860393,-53.375463,68.588026,8.9487557,-48.263355,1.9418627,2.1364461,0.99958159,0.71783113,1.5877531,1.866888,2.0368388,0.89992232,1.9945025,0.35382742,1.5274377,0.64518667,2.402407,0.25457862,0.70282857,between -0.023711622 and -0.00016276260500000002
-0.36199204975,0.017033658,-1.1710346,2.0704686,2.085081,-2.0804297,0.14378183,-0.91427975,0.80071223,-1.0123961,1.0959829,-0.54466082,65.487176,-57.025715,68.814616,67.250646,31.601764,1.0876685,0.69365298,2.4756427,0.3775745,2.3946996,1.215745,2.2757049,1.5229223,1.2550636,1.6040567,1.3813356,2.1076286,0.41428757,0.68112849,1.2265194,between -0.00016276260500000002 and 0.02356751225
1.6759533,1.797536,0.061801793,1.9771619,-1.607286,-2.2424428,0.95038663,-1.8505921,-1.1346342,1.2415728,0.65542231,-1.8826596,58.336877,67.884699,38.132501,-57.063063,41.097148,0.92140928,0.87569074,1.9843163,2.4033245,2.1745766,0.6083711,2.3931164,1.6070423,2.0607439,2.1724072,2.3971774,2.3612665,1.806101,1.8901814,2.0287146,greater than 0.02356751225
-1.7423356,-0.64980283,2.0814338,-2.118373,-1.3967782,1.4705947,-0.19486159,0.071651237,-2.1292336,-0.14749019,-0.15094404,-1.6511473,13.541816,47.307494,-52.951242,-1.5254027,12.557043,1.3182994,2.4085629,2.4660536,1.2127349,1.1848899,1.1941189,1.0561032,1.1770964,0.70957678,2.3570249,0.26719047,1.170165,1.2138512,1.9474558,1.6393684,between -0.023711622 and -0.00016276260500000002
0.7501713,-2.223846,-2.2224513,-2.3433411,1.6136064,0.084545981,-2.17717,0.0041586903,-0.79072756,-0.82121421,0.44012692,-1.2375171,48.860393,-53.375463,68.588026,8.9487557,-48.263355,1.9418627,2.1364461,0.99958159,0.71783113,1.5877531,1.866888,2.0368388,0.89992232,1.9945025,0.35382742,1.5274377,0.64518667,2.402407,0.25457862,0.70282857,between -0.00016276260500000002 and 0.02356751225
0.42959381,-0.087402246,1.822252325,2.000488575,-0.91997682,1.476121575,-1.335127575,-1.374225125,1.7722566,1.58527715,-0.43206098,0.24582648925,12.52114705,-54.288026,50.11082125,27.87515675,6.8290164075,1.260641675,0.8301813,0.8489640225,0.6327669725,0.66541505,1.364597925,0.81364972,0.9084357925,1.2400400625,0.786161865,1.0389204175,1.0139602925,1.2284199225,1.0755069425,greater than 0.02356751225,
-1.2314214,-0.9821739,-1.4509122,-0.9217107,-2.0241098,-0.9117652,-1.6547215,-0.8701294,-0.985231,-1.4509122,-1.2136852,0.8701294,-21.899505,15.40353,44.126805,44.721521,50.85717,0.33445604,2.4459375,0.62200012,2.1911101,0.7870903,0.38522711,2.4862604,1.0778213,0.49873974,2.3674821,0.49873974,0.31873772,1.3273152,less than -0.023711622,,
-0.418479,-0.2565434,-2.2306862,-0.1074702,-0.1238635,-0.3496102,1.4478152,-0.0235675,-1.3968407,0.41963669,-1.6123997,-0.60570108,-51.319328,-44.516747,-10.215722,-26.139112,-45.260789,-0.59043529,2.4459375,1.5543895,2.1914457,1.8514027,1.0160585,0.51205455,1.9418426,0.36893872,2.025722,1.6214171,1.4782394,0.5227655,between -0.023711622 and -0.00016276260500000002,,
0.3485468,-0.1376637,-0.5202897,0.6710398,0.7808445,0.3843544,-2.1302996,-0.985231,-1.346111,0.16983767,1.3752402,-0.88723251,-51.319328,-10.215722,-40.036602,49.380633,48.458037,1.9631737,0.31071071,1.3571152,0.86312809,0.52545469,1.6289812,0.93368425,1.3508082,1.0209804,1.7673468,0.94276309,2.4746416,1.5505558,2.1154564,greater than 0.02356751225,
0.8672778,-1.9794856,-0.6887352,-0.1963855,-0.1963855,0.2521842,0.4504971,-1.3040592,-0.0020909,-0.81442939,1.4478152,0.32290473,-10.215722,-4.8313713,4.8313713,-49.380633,66.691297,1.1819182,2.2027461,0.62200012,1.3746371,0.6643355,2.0700462,0.5254547,2.3674821,0.8841966,1.4288384,1.4782394,1.6437436,2.0330438,less than -0.023711622,,
-1.8404792,-1.8404792,-1.8404792,1.7003242,1.7003242,-0.057514,0.4504971,-0.985231,-2.1416543,-2.1416543,-0.0235675,-0.605701,30.1622502,8.6491313,-74.596708,-44.721521,-44.721521,0.334456,0.334456,0.6220001,1.9559962,2.1914457,2.3438787,0.385227,0.498739,1.077821,2.367482,0.318737,0.318737,1.3273152,0.9364849,between -0.023711622 and -0.00016276260500000002,
-0.3490293,-0.1376637,-0.5202897,-0.418479,-1.8404792,-0.057514,0.4504971,0.7860271,-2.1416543,-1.0199803,0.8615515,-0.605701,2.9191774,8.6491313,-10.215722,-45.260789,48.458037,0.5904353,0.6279657,0.96933499,1.3746371,0.8941681,2.0700462,1.0160585,0.9336843,0.8841966,1.4782394,1.4782394,0.5227655,1.5505558,less than -0.023711622,,
0.3485468,-0.5980941,-1.7395857,-1.5550698,0.7808445,0.3843544,-2.1302996,-0.985231,-1.3968407,1.3353396,1.4478152,-0.8872325,54.685905,53.560578,-49.380633,49.380633,-10.215722,1.1819182,0.3107107,1.5543895,0.7417296,1.8514027,2.4862604,1.0778213,0.3689387,2.367482,1.4983409,0.4146783,2.4746416,1.5505558,between -0.023711622 and -0.00016276260500000002,,
1.7003242,-0.8123717,-0.6421546,-0.1963855,0.7808445,-2.1191767,0.4504971,2.1025125,-0.0020909,-1.0199803,-2.0557118,0.3229047,-20.21744,-58.631796,38.098641,-45.260789,29.946119,0.334456,0.5610152,1.3571152,0.8631281,0.5254547,0.3852271,2.4862604,2.2892347,1.869951,0.4987397,1.1143889,2.3986452,0.4987397,less than -0.023711622,,
1.0247353,-0.21653187,0.7049385,-0.3801454,-0.012101,-0.563412,1.0465032,-0.02185085,1.4688174,0.9349823,0.658498,-0.725981,29.171177,-26.444729,-11.475158,12.956301,16.217623,1.983152,2.048388,2.202224,2.041195,0.9854923,2.135177,2.349876,2.197365,0.628934,1.373191,1.065989,0.531393,2.349202,0.982631,less than -0.023711622,
0.9413955,-0.11348328,0.550341,-0.406209,0.945842,-1.024523,0.670375,0.197273,1.060805,-0.255987,0.364124,-1.354721,-29.12045,-19.313341,-3.995201,-42.65413,9.859143,0.499139,1.420661,0.659942,1.045941,0.946377,0.945142,2.295641,1.411865,0.946377,2.022135,0.827734,2.175714,2.220341,0.961865,between -0.023711622 and -0.00016276260500000002,
0.726814,-0.337165,1.383265,-0.116273,1.054911,-0.380882,-0.759833,-1.024584,0.725737,-0.813427,-1.485245,-0.676812,13.154442,22.235165,-39.737213,-26.49729,-3.794201,0.648822,2.147662,0.944707,0.936523,1.448103,1.823381,0.695411,0.926234,2.129151,1.753542,0.690111,2.190684,2.245493,0.678411,greater than 0.02356751225,
-1.357517,0.350921,-0.565688,-0.411355,-1.011355,-0.981461,-0.236432,-0.804483,-0.299722,-1.574979,-0.530902,-0.195936,-5.016478,-65.245,-0.445209,-23.061201,-26.686772,2.351123,1.483982,0.940116,2.126845,1.429442,0.650428,2.446621,2.184631,0.986685,0.863399,0.268795,0.827491,2.142598,1.015427,between -0.00016276260500000002 and 0.02356751225,
1.012829,-0.061705,-0.442194,-1.197351,-0.230549,0.729911,-1.420419,-0.729685,1.030303,-0.542964,-0.341542,-0.984721,-52.385192,-60.11587,-32.38569,-40.37029,14.517103,2.194735,2.182298,1.987304,1.394926,0.688191,2.186722,0.942865,1.989751,2.276468,2.138377,1.565799,0.860581,2.170536,0.654111,less than -0.023711622,
-1.399623,1.769395,-0.299722,-0.409135,-0.759599,-0.504912,-0.517209,0.596491,-0.840964,-0.216621,-1.554318,-0.690123,-40.82714,-41.98489,-33.21312,-35.45067,-0.434101,0.805905,2.161261,0.523356,0.968899,0.588739,2.149799,0.936237,2.351751,0.983282,1.448158,0.997481,1.956193,0.799342,1.425544,greater than 0.02356751225,
0.359395,0.349685,2.144611,1.045111,-1.037832,-1.044619,-0.399381,-0.156904,-0.609548,-0.325173,-1.825863,-0.680169,-39.26164,-41.23465,-14.65446,-44.14581,-24.39455,0.964091,1.987304,1.865169,1.149542,0.640419,0.988491,1.464956,0.761565,0.792542,2.294764,0.309191,1.677153,2.210651,0.402189,between -0.023711622 and -0.00016276260500000002,
-0.240705,-0.216531,-0.116873,1.366051,-0.112162,-1.060175,0.784556,0.217161,0.815145,0.225655,-0.867419,-1.726145,5.551971,-9.485,-10.25978,-1.517011,45.11247,2.418577,2.357225,0.709566,1.426346,2.187641,1.041659,0.890545,0.969637,1.853929,0.904191,0.681942,0.388857,2.483818,0.297265,less than -0.023711622,
-1.3955892,0.94049852,-0.8052413,0.45123481,1.8230232,-0.9871119,-0.67849395,-1.9262849,0.8127414,-0.23581377,0.97561582,-0.81617926,-3.2342345,18.759108,20.300142,-15.369987,14.082461,1.0173972,0.96751761,0.95784695,1.4320121,1.439816,1.3941172,0.7103567,1.6305874,0.9791359,2.1085493,2.1633167,1.6893418,0.75832145,1.2124606,between -0.00016276260500000002 and 0.02356751225,
0.9826319,0.27568167,-0.36968584,-0.7781132,1.0558926,0.35120145,-0.32521915,-1.3839016,1.3532197,0.8593042,-0.14236147,0.42881934,36.419773,-1.3702363,-22.100755,34.187333,48.259899,1.5441916,1.9411772,0.46310727,0.73382917,2.1945491,1.0497359,1.7431188,1.8139472,1.4483233,1.734364,0.95065534,2.0462965,0.80851265,0.99392333,0.45548973,greater than 0.02356751225
1.4946228,-0.6288178,-0.79588287,-2.0473654,0.6541216,-1.5064288,0.18495635,-0.38083785,-1.7605091,-0.40017318,0.7807056,1.1164635,-19.785421,15.795373,57.110971,-49.024213,13.675467,0.87516355,2.1341822,0.88738231,0.87063514,0.64668811,0.4028471,1.3844914,1.9267908,1.6312995,0.7728952,0.36667554,1.1445083,1.1998653,0.99444595,0.27219857,between -0.023711622 and -0.00016276260500000002
-0.4906626,0.016662351,0.79588287,1.6211114,-1.2128918,-0.71729745,-0.14512583,-0.81912996,1.399299,1.194196,-0.19306164,0.65516759,48.036142,12.626476,58.378194,-1.1019386,-2.3046884,0.40001089,1.6541719,2.0987778,0.61162019,1.1239663,2.1168018,0.82964557,2.2861326,0.98445062,0.63020194,0.9951956,1.2599644,0.81631478,0.52319775,0.52382433,greater than 0.02356751225
-0.35318267,1.7647077,-2.0473654,-0.90193573,1.3209642,-1.194196,0.65516759,-2.2341927,-0.98062818,-0.35318267,-0.38021946,0.15037475,-11.299111,3.4448233,-49.533349,-18.511731,-14.082461,1.6810345,0.43720205,0.80199787,0.84669038,0.51003464,1.1171696,1.6738644,0.35584465,0.42340971,0.80636852,0.7738246,2.1686516,0.50919647,1.2463551,1.518736,less than -0.023711622
-1.7605091,-0.18851764,-1.0677059,0.85643059,0.24677707,0.35120145,0.14960669,-0.98765432,-0.4033701,-0.44944683,-0.48783666,-0.7260455,-23.123102,-13.412523,46.350676,-5.7689255,28.286286,0.510791,1.3999433,1.7098173,2.2639772,2.2526842,2.1349287,1.0543733,0.35584465,1.0464767,1.0468768,0.51619506,2.2644196,2.3699147,0.75824528,1.3813614,between -0.023711622 and -0.00016276260500000002
1.7598245,-0.81071314,0.53092482,-0.43149401,1.8070227,0.35120145,0.42881934,-0.19507825,-0.14444743,0.29641111,-0.22881631,-2.2512858,16.408911,6.1153538,-55.677479,-20.130157,-47.861178,2.4399089,1.5734776,0.72514447,0.549601,2.1349287,0.90017648,0.99929661,1.2810553,0.5264267,1.8313583,2.4302305,0.9951956,0.44728597,2.0811678,0.27219857,greater than 0.02356751225
0.36942942,-1.20092399,-2.1382621,0.7896198,0.9391918,-0.95030773,-0.60016276,-1.82711885,0.53092482,-1.7605091,0.57220557,0.65516759,-43.928476,-0.90710895,23.049691,-39.150866,-20.723056,0.30407261,1.2007917,2.393963,1.8728859,2.1073552,1.2354148,1.7233957,0.6665994,2.4209298,2.1691596,2.0612568,2.4637674,0.31619545,2.4302305,1.4658015,between -0.00016276260500000002 and 0.02356751225
0.2780119,0.4592196,1.445191,-0.981637,0.9814921,-0.4061556,-0.3351112,0.9260574,1.449372,-1.011981,-1.656061,-0.9112134,13.45082,-1.419158,32.14271,51.39961,12.41985,1.45098,1.849981,0.9821139,0.3501394,1.180555,0.9813213,1.449372,0.9816374,1.321982,0.9821139,1.45098,2.151698,1.321982,0.9813213,less than -0.023711622,
-0.981637,-0.4061556,0.4592196,-0.3351112,0.9260574,1.449372,1.656061,-1.011981,-1.419158,32.14271,51.39961,12.41985,0.9821139,1.45098,1.849981,0.9813213,1.321982,0.9816374,1.322982,0.9821139,1.45098,0.9813213,1.321982,0.9816374,1.322982,1.45098,2.151698,1.321982,0.9813213,1.321982,1.45098,greater than 0.02356751225,
0.9260574,1.449372,-1.011981,-1.419158,32.14271,51.39961,12.41985,0.9821139,1.45098,1.849981,0.9813213,1.321982,0.9816374,1.322982,0.9821139,1.45098,0.9813213,1.321982,0.9816374,1.322982,1.45098,2.151698,1.321982,0.9813213,1.321982,1.45098,0.9813213,2.151698,0.9816374,0.9821139,1.45098,less than -0.023711622,
-1.419158,32.14271,51.39961,12.41985,0.9821139,1.45098,1.849981,0.9813213,1.321982,0.9816374,1.322982,0.9821139,1.45098,0.9813213,1.321982,0.9816374,1.322982,1.45098,2.151698,1.321982,0.9813213,1.321982,1.45098,0.9813213,1.322982,0.9821139,1.45098,0.9813213,1.321982,0.9816374,1.322982,between -0.023711622 and -0.00016276260500000002,
0.9821139,1.45098,1.849981,0.9813213,1.321982,0.9816374,1.322982,0.9821139,1.45098,0.9813213,1.321982,0.9816374,1.322982,1.45098,2.151698,1.321982,0.9813213,1.321982,1.45098,0.9813213,1.322982,0.9821139,1.45098,0.9813213,1.321982,1.45098,0.9813213,1.321982,0.9816374,0.9821139,1.45098,greater than 0.02356751225,
1.45098,0.9813213,1.321982,0.9816374,1.322982,0.9821139,1.45098,0.9813213,1.321982,0.9816374,1.322982,1.45098,2.151698,1.321982,0.9813213,1.321982,1.45098,0.9813213,1.322982,0.9821139,1.45098,0.9813213,1.321982,1.45098,0.9813213,1.322982,1.45098,0.9813213,1.321982,0.9816374,1.322982,less than -0.023711622,
0.9813213,1.321982,0.9816374,1.322982,0.9821139,1.45098,0.9813213,1.321982,0.9816374,1.322982,1.45098,2.151698,1.321982,0.9813213,1.321982,1.45098,0.9813213,1.322982,0.9821139,1.45098,0.9813213,1.321982,1.45098,0.9813213,1.322982,1.45098,0.9813213,1.321982,0.9816374,0.9821139,1.45098,between -0.023711622 and -0.00016276260500000002,
1.321982,0.9816374,1.322982,0.9821139,1.45098,0.9813213,1.321982,0.9816374,1.322982,1.45098,2.151698,1.321982,0.9813213,1.321982,1.45098,0.9813213,1.322982,0.9821139,1.45098,0.9813213,1.321982,1.45098,0.9813213,1.322982,1.45098,0.9813213,1.321982,0.9816374,0.9821139,1.45098,1.321982,greater than 0.02356751225,
-0.259,1.942,-1.99,-2.137,-2.25,-1.16,-1.01,-1.96,0.15,-1.59,1.63,-1.85,66.33,-59.59,-9.69,-12.74,-52.4,1.33,2.13,2.24,1.55,1.17,1.58,1.44,2.31,0.6,1.41,0.52,1.06,0.44,2.05,0.72,greater than 0.02356751225
1.367,1.942,-1.99,-2.137,-2.25,-1.16,-1.01,-1.96,0.15,-1.59,1.63,-1.85,-4.37,24.72,-67.19,15.68,-12.03,0.32,2.02,0.45,1.53,1.62,2.06,1.67,2.02,0.67,1.93,1.4,0.39,1.95,2.46,2.26,less than -0.023711622
-2.196,1.263,-0.32,1.302,-0.84,1.75,1.87,-2.31,0.46,-2.25,-1.9,0.35,-12.83,-55.13,-61.8,64.53,36.02,0.29,0.91,1.63,0.88,0.43,0.78,1.29,1.33,0.31,1.76,1.7,1.71,1.84,1.75,1.01,between -0.023711622 and -0.00016276260500000002
-1.26,1.807,1.13,-0.63,-2.14,-2.29,-0.13,1.03,-0.04,0.35,-0.73,1.95,-6.51,5.45,63.71,74.86,5.76,2.43,1.38,1.03,0.92,0.85,1.91,1.33,1.7,0.73,0.51,2.41,2.44,0.55,1.2,1.33,greater than 0.02356751225
0.448,-2.125,-0.45,-1.76,1.07,0.9,-2.17,1.17,0.63,-1.54,2.02,-0.28,-10.84,67.9,-46.85,-47.06,-48.3,0.88,0.99,1.78,1.39,1.78,0.36,1.37,1.81,1.49,2.44,0.43,2.07,2.48,1.23,1.98,between -0.00016276260500000002 and 0.02356751225
-1.88,-1.476,2.01,2.01,1.97,-2.15,-0.53,-2.04,-0.01,0.92,-0.06,2.24,-29.81,24.74,-13.87,-62.14,21.3,2.31,2.23,2.11,0.41,0.37,0.64,2.21,0.67,0.74,0.8,0.92,2.1,2.05,1.21,1.89,less than -0.023711622
1.415,-0.9,-1.19,1.93,0.84,0.77,-1.56,-0.18,-1.41,1.35,-0.34,-0.91,-6.51,5.45,63.71,74.86,5.76,2.43,1.38,1.03,0.92,0.85,1.91,1.33,1.7,0.73,0.51,2.41,2.44,0.55,1.2,1.33,greater than 0.02356751225
-2.0,-0.899,-0.53,1.09,-0.81,1.36,-1.94,0.58,1.74,-0.66,-2.28,0.07,-19.57,25.76,21.35,-27.03,-41.89,1.08,0.54,0.7,2.43,2.19,2.43,0.49,2.43,1.02,1.23,1.9,1.24,0.33,0.57,1.49,between -0.00016276260500000002 and 0.02356751225
-0.194569,1.731987,-0.823189,0.406122,0.991138,-0.647821,-0.842115,-0.359191,1.401429,-0.701292,-1.508351,-0.138492,-13.63689,-20.81786,31.49799,-46.38031,-51.83145,1.839671,1.463855,1.682791,2.193455,1.701852,1.244831,2.071941,0.916599,1.688399,0.994542,2.225169,1.355764,2.073131,0.737449,greater than 0.02356751225,
0.821131,0.604935,1.105471,-1.955668,-0.189762,1.356822,-1.021391,1.829448,0.689198,1.455631,-0.683391,0.270455,23.41988,-36.42139,11.93401,51.39585,44.65419,1.023748,2.299855,0.924583,0.753194,0.995461,0.448601,0.686396,1.859375,2.270812,1.659429,0.960191,1.827139,0.685985,2.116399,less than -0.023711622,
-1.956619,-0.372431,0.399812,-0.177216,0.618329,-0.961138,-0.450869,-0.100483,0.641699,-0.829293,-2.149688,0.791398,-19.68541,-28.47953,-8.231946,-24.96135,-33.82788,0.699855,1.731136,0.429191,2.018721,2.333879,1.862621,1.398431,1.829166,0.627635,0.924688,1.420357,1.940699,0.906737,1.945154,greater than 0.02356751225,
0.329751,-0.820583,-2.03215,1.630916,0.224815,-0.751692,-1.644361,-0.573893,1.746688,0.937447,-0.463319,-0.372819,14.75982,40.73617,-44.96165,-20.53945,-59.92477,1.876729,0.991836,1.505914,0.829425,2.024476,0.640388,0.771132,1.914899,1.273529,0.791138,2.399995,0.638931,2.046729,1.760895,less than -0.023711622,
1.401997,-2.04529,0.501885,-0.350601,-0.198927,-1.024299,-0.865695,2.054489,0.846631,1.143399,-0.743112,1.081845,67.47759,-24.33542,-3.882482,38.62725,-19.82453,1.201172,0.522208,2.253139,0.660342,0.685715,2.154447,1.590556,0.668815,0.606823,1.135176,2.495252,1.159941,0.851574,0.966487,greater than 0.02356751225,
-0.493831,0.194431,-0.105377,-0.517391,0.686628,0.439769,-0.612394,-0.151325,0.270586,-0.430579,-1.116431,2.189437,-26.80035,-4.687061,-60.91935,-50.37432,-41.27291,0.918819,2.383006,1.044409,2.381141,0.690474,1.639706,0.542419,0.690474,0.799214,0.966487,1.533111,1.523419,0.693056,0.754411,less than -0.023711622,
0.061111,2.168435,-0.156294,0.984458,1.370074,0.439769,-0.678593,-0.123721,-0.135475,0.993354,-0.270463,0.615911,-14.23035,8.556395,1.497231,14.11342,-57.82217,2.481751,0.641667,0.429191,2.107019,0.438269,0.435911,2.411772,2.026433,2.413067,0.987124,1.364526,0.851574,2.130907,0.811016,greater than 0.02356751225,
0.39712677,-0.17634707,0.85421264,-1.3706435,0.6293945,-0.84949325,-1.3419603,-0.38261742,-1.2306972,-0.18513525,0.99827075,-0.6623725,14.319761,-16.439335,-31.011401,-8.465741,-33.659783,1.5319454,2.0173554,1.6275638,1.7860327,0.9142093,1.4596547,2.1621311,1.5491638,1.0354137,1.8515115,1.701369,2.1156453,1.6304469,1.9651088,between -0.00016276260500000002 and 0.02356751225,
-1.0214938,0.9579678,-1.4004274,-0.31359314,1.4518775,1.3722843,-2.1024688,-0.68021917,-0.88135564,-1.0169216,-0.44979164,2.0129412,46.467772,-4.685758,-56.416327,-35.674124,28.729461,0.8214419,1.6846848,2.1657372,0.37977547,1.6349315,0.6882812,2.1164764,0.97189967,2.1303035,0.9247059,2.2457916,1.4796832,1.7127612,0.7948274,less than -0.023711622,
-0.20610646,-0.53917594,0.24569756,1.5740615,1.0509616,-1.6471295,0.9483961,1.049355,1.392819,0.76567553,0.6907917,-0.45919155,-17.341542,-13.484569,-25.982121,44.799997,13.430628,2.0246957,0.6491548,1.427137,2.1939892,1.0476549,2.0152254,1.7454593,0.6803744,1.9261668,0.7904398,2.1517231,0.6904197,2.2279434,2.0952484,greater than 0.02356751225,
0.81764165,-0.2922565,0.6541045,0.2162997,-1.3871703,-1.054455,-1.7015353,-1.1330873,0.60910627,1.5745176,-0.022141123,-0.7071954,21.449173,-45.924236,-47.206796,10.451141,29.899349,0.6773354,1.8169855,2.196469,0.7064853,2.0449556,0.54629665,0.7914456,0.72152517,1.0344752,2.2002664,0.6949601,0.7903366,2.366776,1.6211698,between -0.023711622 and -0.00016276260500000002,
-0.33528173,-1.7594396,0.6908761,-0.66205565,-0.10052027,2.0555277,0.76823214,0.8545316,-1.2738272,-0.68985976,-0.3757343,1.7841943,-3.430101,-50.846501,-20.517,16.678499,-12.935955,1.7251097,2.2307616,1.4089771,0.7224421,2.1067748,0.4453724,2.3104756,0.62553995,1.9413555,0.7953496,0.6213869,0.9069878,2.148493,2.0308654,between -0.023711622 and -0.00016276260500000002,
0.49112996,0.6562992,-1.1920474,1.0204443,1.6174284,0.38070643,0.926115,-0.37327364,0.4507553,-0.33581364,0.94221317,-0.91773934,29.444825,8.630326,-40.408555,22.411484,-43.816204,1.5331587,0.7898405,0.98334316,1.4496212,1.7676124,0.9172964,1.408824,2.0473546,0.8505259,1.6243148,0.6703551,1.7455173,1.5184445,1.9475656,greater than 0.02356751225,
-1.6841394,-1.4274937,0.6456258,-0.27048564,0.6707394,0.75384014,-0.9243558,0.6309453,0.9257379,-0.35045009,-0.44816477,-0.75637047,-11.845189,31.499955,-33.485987,-9.676335,-14.824531,2.0117762,0.68422555,2.134982,1.0376955,2.1106514,0.49992683,0.6247495,0.6971457,0.7894408,1.9114492,2.0124214,0.7863264,1.937412,0.9589646,between -0.023711622 and -0.00016276260500000002,
1.3694276,1.1213822,0.7671167,0.44917825,-0.3994113,-0.86530426,-0.13975517,-0.37295533,-0.69558673,-0.9609436,-0.020450651,0.9457913,-44.38219,-58.159058,-37.373177,35.654349,-22.444921,0.5040629,1.8599877,2.1763486,0.39944994,1.6541776,2.1597955,0.7225314,1.050449,1.9257552,2.1361626,0.8119561,2.2453397,0.7767465,2.3246884,less than -0.023711622,
1.2136713,-0.4692318,1.1940573,-0.6893826,0.9562196,-1.384615,-0.8821562,-0.6276897,0.9432135,1.4503815,-1.701911,0.9456891,-44.90191,-14.631195,-60.45191,-48.631395,23.45102,1.9562191,1.4210521,1.982355,1.4678215,1.9567835,0.9563721,1.2134215,2.4214212,1.421421,1.421421,0.421421,2.421421,1.421421,less than -0.023711622,,
-0.9562196,0.6893826,-1.1940573,1.384615,-0.9432135,1.701911,0.8821562,0.6276897,-0.9456891,-1.4503815,0.9432135,-1.982355,14.631195,44.90191,48.631395,-23.45102,-60.45191,0.421421,2.421421,0.421421,1.421421,1.9562191,0.421421,0.421421,0.421421,0.421421,1.9562191,2.421421,1.421421,0.421421,less than -0.023711622,,
1.421421,-1.421421,0.421421,-0.421421,1.982355,-1.9562191,-1.421421,1.421421,0.421421,-1.421421,-0.421421,-0.9456891,-23.45102,-48.631395,44.90191,14.631195,60.45191,0.421421,0.421421,0.421421,1.421421,1.421421,0.421421,2.421421,1.421421,0.421421,2.421421,0.421421,0.421421,1.421421,less than -0.023711622,,
-1.421421,1.421421,-0.421421,1.421421,-0.421421,0.421421,0.421421,-0.421421,1.421421,1.421421,0.421421,-1.421421,-48.631395,-14.631195,-23.45102,48.631395,-44.90191,1.421421,0.421421,2.421421,1.421421,0.421421,1.421421,0.421421,0.421421,0.421421,2.421421,2.421421,0.421421,0.421421,less than -0.023711622,,
0.421421,-0.421421,-1.421421,-0.421421,0.421421,1.421421,-0.421421,-1.421421,-0.421421,0.421421,1.421421,0.421421,48.631395,-60.45191,14.631195,23.45102,44.90191,2.421421,2.421421,0.421421,1.421421,0.421421,0.421421,1.421421,1.421421,1.421421,2.421421,0.421421,0.421421,0.421421,less than -0.023711622,,
1.982355,-0.421421,-0.421421,-0.9456891,1.982355,-0.421421,1.982355,1.982355,-0.421421,-0.421421,0.421421,-0.9456891,-60.45191,48.631395,-44.90191,14.631195,23.45102,0.421421,0.421421,1.421421,2.421421,1.421421,1.421421,0.421421,2.421421,0.421421,1.421421,1.421421,0.421421,0.421421,less than -0.023711622,,
-0.421421,-1.982355,-0.421421,-0.421421,-1.982355,-1.982355,1.982355,1.982355,-0.421421,-0.421421,0.421421,0.9456891,44.90191,-14.631195,48.631395,-23.45102,44.90191,1.421421,2.421421,0.421421,0.421421,2.421421,0.421421,0.421421,2.421421,0.421421,0.421421,0.421421,0.421421,0.421421,greater than 0.02356751225,,
-0.9456891,0.421421,-0.421421,0.421421,0.421421,-0.9456891,0.9456891,-0.9456891,-0.421421,-1.982355,-0.421421,0.9456891,23.45102,-60.45191,-48.631395,60.45191,-48.631395,2.421421,1.421421,0.421421,2.421421,1.421421,1.421421,0.421421,0.421421,1.421421,0.421421,1.421421,2.421421,1.421421,greater than 0.02356751225,,
-1.4862319,-1.3244634,-0.21821361,0.8231882,-0.68924516,-0.45915624,0.9436545,-0.58467167,-1.817789,2.1310443,0.43191714,-0.7651949,2.499687,-5.3912485,55.317475,3.460586,-28.35056,1.9411214,0.70315623,0.81111456,0.9428821,1.753387,0.47595642,0.99838035,2.2345446,1.6114914,0.8619563,1.4591415,0.53128719,1.9449322,1.2891458,greater than 0.02356751225,
-0.30498755,-0.8101664,1.3948491,-1.5569462,0.93441144,0.6691622,-1.3746864,0.68715644,1.6278665,0.61937033,-0.9454552,0.7929416,14.934829,-24.740621,-46.94593,-22.288423,-54.16224,2.3906243,1.8230537,1.4508715,0.27516938,0.8708793,1.216101,0.44670235,1.9411763,1.9341593,1.135492,0.81972964,2.005501,1.4261335,0.69665727,between -0.023711622 and -0.00016276260500000002,
1.0178243,0.19259188,0.89332162,1.9409284,1.4217608,-1.0719556,0.27075337,0.9406953,0.8602118,-0.27239541,0.8608766,0.63258644,34.934911,27.261326,16.456221,58.431202,-38.29948,0.95164965,1.3845873,0.9391642,0.9331622,1.9353984,0.62411633,0.93665672,0.82415493,0.4998497,0.67849916,0.73932537,0.6428548,0.96510222,1.439677,less than -0.023711622,
-0.8401548,-0.20668166,-1.864987,-0.708706,-0.8544317,1.0493484,-0.9878941,-1.0623485,-0.62410735,-0.05491554,-0.9617362,0.10494125,-18.654654,46.693201,-30.108475,-7.426061,-60.82361,2.145197,1.0551023,0.9244424,0.7613999,2.051324,1.7379563,0.55768425,1.9621699,1.4118653,1.8231966,1.5945055,0.99750434,0.9831933,1.6708147,greater than 0.02356751225,
-2.1973998,-1.4255655,0.64538854,-0.395107,-0.22534135,-1.2344939,-0.666666,1.7312734,-1.0347907,-0.41193737,0.6866428,-0.78076675,-32.55087,20.444394,46.444911,-13.865987,23.10599,0.61515806,0.5231959,1.5861611,0.70554274,0.99356555,1.2307573,0.6494425,1.3625421,1.9261157,0.99547455,0.9353592,0.64837434,0.8579819,0.41415756,0.8858339,between -0.00016276260500000002 and 0.02356751225
-0.7398299,0.90181485,-0.38381459,-1.4553248,-0.690339,0.4193286,-1.1840622,-0.37012324,-2.185628,1.9429562,0.35424574,-0.9623323,-26.68875,15.350671,-27.475361,-22.493499,-20.37581,2.3952644,1.5063043,1.1458276,0.29650424,0.64978081,1.1060776,0.96915875,1.9624199,1.0109558,0.81942075,1.5726312,0.80932678,1.9791118,2.1571915,less than -0.023711622,
-1.4453243,-1.0959835,1.234118,-0.62515435,-1.4256547,-1.3045116,-0.44537246,-0.62312927,-0.6687837,0.95582466,-0.859456,1.2561295,-3.7970594,25.328823,-33.924202,50.445429,-9.549755,1.4525312,1.092715,0.98365647,0.68868442,1.7346542,1.689628,0.82159689,1.7961427,0.73943513,1.299331,1.9821163,1.5651945,0.6443877,0.79118162,greater than 0.02356751225,
0.6238434,-0.79747474,1.0717036,-1.7434275,0.94183268,0.44398755,0.8586044,0.94017854,-0.33598127,-0.29275552,-0.9243273,0.7398141,51.924304,-39.474774,-2.6506346,-53.94619,-17.364142,0.86041218,0.36747341,0.62817285,0.62339075,0.46324586,1.1157346,0.7425354,0.98262545,1.178071,0.54962535,0.8021415,0.75736145,0.8407952,0.5501952,0.6784946,between -0.023711622 and -0.00016276260500000002
-1.3829116,-0.9917904,0.9822175,1.641349,-0.2164635,-0.7594152,1.1959413,2.1969113,-2.097176,-0.4851574,1.4447733,0.7736285,-51.917202,-12.270734,62.783621,4.9644273,-41.96201,2.197326,1.8236113,0.8201072,2.0679114,0.2998833,0.9934278,0.6401115,1.8453992,1.6795235,2.192289,1.0910557,0.623939,0.9129357,1.5043993,between -0.00016276260500000002 and 0.02356751225,
-0.37329971,0.9914014,-0.4757348,-0.4061105,1.712819,-2.1781114,1.7351194,-0.6499811,-1.008455,-1.399744,0.8898705,-1.999586,-2.491961,-39.35429,48.366361,-23.630171,-21.610202,0.7446579,0.9937598,0.9433953,0.6331852,1.827745,0.5401092,2.2948476,1.3528135,1.7594085,0.6838243,0.529247,2.1983518,2.0719843,1.3821213,less than -0.023711622,
-1.0511356,-0.684194,-2.0561115,-0.3754426,-0.3322116,0.4266602,1.0779416,0.6270547,-0.3728455,-0.3958298,-0.7656716,-0.660657,-17.160129,-46.397484,-58.123282,12.631159,-16.505295,0.6379077,1.695427,2.1427043,1.0950566,0.8591112,2.0054035,1.690456,0.5946579,2.0464296,1.8231514,0.9726542,1.5312993,1.7433557,1.2179818,greater than 0.02356751225,
0.8005406,-0.8826107,2.0437372,-0.6891913,0.9011974,-1.5807658,-0.3922374,0.9694094,-0.995765,1.1859413,0.9566554,1.419196,40.442488,-6.533361,-33.84501,21.671401,-20.911549,0.9051028,1.1175516,1.025403,2.1246514,0.9444286,1.699879,1.9117618,0.4571374,0.32079655,1.8857367,0.542179,2.4529361,1.5306954,1.9568162,between -0.00016276260500000002 and 0.02356751225,
0.944565,-2.196256,-0.3742636,-2.0085965,0.7715498,0.6865405,0.9954444,-0.5967357,1.5080922,-2.1851645,-1.3065692,0.4458994,-1.480645,-34.71078,-47.941115,-36.993157,21.114478,0.7469762,2.368557,1.2551112,0.6514494,1.395191,0.8207459,0.6544395,0.7504749,0.57148542,1.7951343,2.1107054,1.8804593,2.106776,0.8258244,between -0.023711622 and -0.00016276260500000002,
-0.3269405,0.406642,-0.1292998,0.7781627,1.1149116,1.5173339,-0.2614598,2.083791,1.6554297,-0.5175426,-0.5502596,-0.8291567,14.385293,-11.320414,31.670941,-28.281411,-48.133137,2.407098,0.71697814,0.6717555,1.4341766,0.697351,2.229166,1.350411,1.6707893,0.32456919,0.6319079,0.66668728,2.0116393,1.6614425,0.6661367,greater than 0.02356751225,
0.3754083,0.180445,0.8605937,-0.9341553,-0.9861763,-2.0559267,0.3822357,-0.1291896,-1.2497376,0.4921826,1.4444999,1.3506041,28.296219,26.370191,-12.540401,19.799111,49.767107,1.103669,0.67766002,0.9311376,2.263531,0.5722022,0.525773,2.0064973,1.3751622,2.4116945,0.7375651,0.653398,2.0206558,1.5063825,0.8247344,less than -0.023711622,
-0.5968404,0.5253953,-2.1457928,1.144646,0.9629825,-0.6122193,2.1832596,-0.396475,1.8708626,0.6894497,-0.1013359,1.0093953,-36.79549,50.123241,18.649895,-3.9855176,27.399767,0.9609467,0.76120829,2.0249618,1.1838242,0.9334116,1.4924119,0.7912591,0.6711158,0.54011085,0.5861103,0.98437382,0.67766002,0.9877603,1.2703052,between -0.00016276260500000002 and 0.02356751225,
-1.434,1.685,-0.934,0.982,-0.355,1.446,-0.239,-0.485,-1.398,-0.765,-0.312,0.945,-41.326,-18.476,21.899,-35.156,-23.981,1.986,2.001,1.351,1.893,2.172,1.396,1.651,0.962,1.528,1.755,0.892,2.185,1.451,greater than 0.02356751225,,
1.761,0.827,-0.516,-1.299,-0.849,0.347,0.662,-0.948,0.278,0.437,-1.117,1.849,10.155,-25.638,-37.489,60.823,-4.216,0.703,2.192,1.984,0.632,0.991,1.818,0.419,1.054,0.824,1.399,1.901,0.564,1.984,less than -0.023711622,,
0.468,-0.231,0.619,-1.937,-0.179,2.199,-1.846,-0.334,-1.799,-1.061,0.487,0.129,28.395,-40.586,-22.827,51.193,30.284,2.355,1.494,1.062,0.926,0.489,2.324,1.976,0.578,0.997,0.631,2.024,0.811,1.426,between -0.023711622 and -0.00016276260500000002,,
-0.193,-1.921,1.499,0.161,1.934,-1.053,0.461,2.011,0.699,1.065,-0.985,-0.815,-13.449,34.678,-47.157,46.213,-29.817,0.833,0.605,1.628,0.741,2.354,0.277,0.713,2.295,1.821,0.869,1.474,0.917,0.594,greater than 0.02356751225,,
-0.982,-0.326,0.179,-0.474,0.598,-2.247,1.121,-0.296,-0.531,-0.737,0.937,1.641,44.587,-16.489,68.425,-27.814,40.499,1.849,2.391,1.523,0.939,2.106,1.991,2.248,2.171,0.389,0.586,2.036,0.758,0.986,between -0.00016276260500000002 and 0.02356751225,,
0.957,2.032,-0.822,-0.695,-0.491,1.574,1.462,-1.059,1.215,1.936,-0.628,-0.351,-22.919,50.928,-20.496,62.985,13.686,1.289,1.612,1.945,1.436,0.855,0.587,0.468,2.176,0.937,1.824,0.755,0.683,0.954,less than -0.023711622,,
2.015,0.426,-0.168,-1.517,0.616,-0.294,-0.116,-0.712,0.425,1.362,1.455,2.192,67.159,-31.194,10.419,-59.181,-53.859,0.881,1.819,0.587,0.985,2.339,0.734,0.882,0.649,1.765,0.531,0.827,1.819,0.611,2.394,between -0.023711622 and -0.00016276260500000002,
1.051,1.688,2.119,-0.612,-0.355,0.982,0.778,-0.551,0.618,-0.982,-1.854,-0.175,-46.285,-1.866,65.176,-10.468,28.367,0.624,0.978,2.278,1.997,1.822,0.939,2.403,0.625,2.202,2.186,1.661,0.858,1.753,0.649,greater than 0.02356751225,
0.19918821,-0.81333467,-0.8233812,-0.10528829,0.6597976,0.94448043,-0.50997985,-0.26791441,-0.02938849,1.5418996,0.16676075,-1.4190564,18.359107,-22.932531,-14.161871,30.940209,-8.162009,1.9663522,1.3740353,2.2396772,0.63512716,1.8913796,1.7539351,0.96215331,1.247597,0.61701285,0.44914442,2.186334,1.7605084,1.5294674,2.3991369,between -0.00016276260500000002 and 0.02356751225,
1.6044297,0.43073736,1.9456862,-1.4446313,-0.64351837,1.6859261,-0.29454933,1.0131019,-0.77666036,-0.43044525,0.90485167,1.8062312,-26.194882,25.391348,-46.830964,-6.400884,11.771111,1.4557028,2.1913945,0.69547963,1.8299465,0.79229628,1.0844447,1.8084114,2.2154065,0.69611112,1.9065558,1.0107349,1.6117563,1.849349,0.57468642,greater than 0.02356751225,
