JessupByun/synth-gen2eval-research/LTM_data/LTM_synthetic_data/LTM_llama_synthetic_data/synth_pumadyn32nh/pumadyn32nh--train--128-seed2_llama_default_0.csv
theta1,theta2,theta3,theta4,theta5,theta6,thetad1,thetad2,thetad3,thetad4,thetad5,thetad6,tau1,tau2,tau3,tau4,tau5,dm1,dm2,dm3,dm4,dm5,da1,da2,da3,da4,da5,db1,db2,db3,db4,db5,thetadd6
-0.531464,0.982142,-0.713494,-0.299166,-0.824941,-1.336161,-0.110934,0.618392,0.799291,0.133156,-0.656157,-1.943055,-32.10881,-25.6223,-51.31413,-20.66016,55.41564,1.739956,1.419109,0.943511,2.032122,1.624943,1.353145,0.427721,0.984511,1.649832,0.692121,0.511161,2.202661,0.721891,greater than 0.02356751225,,
-1.797768,-0.647789,-0.374291,-2.063578,0.734703,1.012439,-0.935688,-0.443739,-0.195235,0.612305,-0.724792,0.550948,-27.93567,14.64858,33.21035,22.19173,-38.44518,1.612378,1.366549,1.528398,0.450194,0.937671,2.270201,2.215501,2.194491,0.294419,1.871911,0.984419,0.642661,2.116349,1.436646,between -0.023711622 and -0.00016276260500000002,
-0.940955,1.116815,-1.661171,0.960663,-0.845355,-0.596199,-0.629355,-0.179895,0.857492,-0.320299,-2.061419,-0.281474,-60.46725,45.10363,-28.14239,-6.391395,-33.76514,1.964926,0.525235,0.651299,0.937899,1.444681,2.142587,0.671396,1.346799,0.751399,1.399589,1.740399,2.394461,1.822475,0.660061,less than -0.023711622,
-0.686361,-0.431159,0.875216,0.710299,0.325999,-2.102494,0.861239,-0.776157,-1.11659,-0.270166,-0.911646,-1.876743,-18.24988,-11.4472,-24.33555,50.43145,26.46345,0.831138,2.365221,0.981486,2.186326,2.215265,1.509218,0.459898,2.010549,2.267981,1.925201,0.964655,0.685155,2.012211,1.364319,greater than 0.02356751225,
0.940196,-1.459695,-1.300687,-0.436934,1.753123,-0.860203,-0.676297,0.795386,0.900836,-0.499517,0.133509,0.926157,-44.95641,-69.94126,-21.44475,-59.44281,-37.96088,1.550107,0.859551,1.934127,1.015517,1.611789,0.965215,2.195599,0.685419,1.533751,1.865539,1.467331,0.993517,0.962129,2.195619,between -0.00016276260500000002 and 0.02356751225,
-0.565619,-1.047531,1.468554,-0.509265,1.627832,-1.412931,0.263549,2.246986,-0.612352,-0.382549,-0.962792,-0.659493,-1.270911,-45.4853,24.19363,-54.4518,-64.34988,2.450349,2.395194,1.234123,1.861201,2.130542,2.004795,2.234695,0.650695,1.993341,0.671461,2.365839,1.854819,1.454299,0.636987,greater than 0.02356751225,
1.422855,-0.225955,-0.449781,-1.062194,-0.870165,0.945581,-1.576278,-1.66142,1.859488,-0.767198,-0.902523,-2.199419,-21.79938,-31.4394,-32.44489,44.38411,-52.62211,0.642187,2.185531,0.795187,0.627173,0.843911,0.344517,0.596289,0.721149,2.349127,0.816631,0.688951,0.686189,2.394471,1.511661,less than -0.023711622,
-1.210318,-1.555123,-0.789487,-2.24567,-0.840963,-1.017799,-0.354758,-0.399205,0.619011,0.939055,0.555341,-0.445281,10.35615,-40.11056,22.06253,-10.51734,-50.25383,2.058849,0.951321,0.935882,1.877741,2.130151,2.385991,0.688135,0.998352,1.679961,0.808795,0.829819,0.930427,2.144091,0.985395,between -0.023711622 and -0.00016276260500000002,
-0.960739,0.679157,-1.499241,-1.734735,-2.158304,1.375227,1.067899,1.240419,-0.429439,-0.676793,-1.046996,-0.690593,13.65432,-29.38236,13.62473,-28.34886,-3.654221,1.450111,1.565156,1.822999,0.689561,1.509341,2.111982,1.816619,0.741011,0.690441,2.324158,1.683419,2.220631,0.783395,1.517611,greater than 0.02356751225,
1.686955,-1.789362,-0.300821,-0.707803,-0.940764,-1.111499,0.684415,-1.113399,1.372926,2.047335,2.120631,-0.625455,-42.88571,-10.14374,66.46935,30.34186,-29.79956,0.796814,0.475411,1.979241,1.017411,0.899319,2.298281,0.697041,0.442961,2.211189,1.684919,0.995517,0.945819,0.745911,0.685609,less than -0.023711622,
0.795418,-0.934475,-0.961641,-0.656331,0.940373,1.641319,-1.425631,-0.300654,2.224951,-0.135191,-0.902729,0.409189,25.45721,-25.4458,58.45032,19.24929,-1.882411,0.864661,1.429349,0.698591,1.686131,2.208409,1.531609,0.475449,2.420819,2.020151,1.986331,2.011639,0.645381,2.324881,2.185279,greater than 0.02356751225,
0.509421,-0.444734,-1.813139,-0.940275,-0.398361,-1.399551,1.016681,-0.517981,-0.627161,-0.760339,0.845461,-1.941051,-14.88492,-60.41685,30.82431,-36.49784,-35.84542,0.977681,1.349493,0.667475,2.158699,0.962999,2.354621,1.661241,2.194499,2.144401,0.970881,1.846881,0.939111,2.195721,0.999629,between -0.00016276260500000002 and 0.02356751225,
1.029153,0.627491,-0.881955,0.645586,0.821659,2.198115,-0.612925,-0.380751,-0.648739,-0.756671,-1.370931,0.609517,-53.14425,-3.245972,-54.68439,-38.63219,-40.67037,1.633982,1.756211,1.555113,1.753481,2.184981,2.298651,0.979761,0.911761,1.604941,2.235139,0.746991,0.786601,0.928991,0.955981,less than -0.023711622,
1.383581,-0.685194,2.195761,1.399352,-0.270381,2.245091,-0.398439,-0.612429,0.695951,-0.145281,0.824981,-1.979381,3.155951,-62.107281,-56.321781,-17.419361,-31.355531,0.947191,0.962111,2.161401,1.914151,1.859461,0.661251,0.937111,0.945891,2.157281,1.716761,0.853921,0.985991,1.624021,1.419041,greater than 0.02356751225,
-0.642188,-0.642188,0.942632,0.942632,-0.642188,-0.642188,-0.642188,-0.642188,-0.642188,-0.642188,-0.642188,-0.642188,-0.642188,-0.642188,-0.642188,-0.642188,-0.642188,0.642188,0.642188,0.642188,0.642188,0.642188,0.642188,0.642188,0.642188,0.642188,0.642188,0.642188,0.642188,0.642188,0.642188,between -0.023711622 and -0.00016276260500000002,
-0.77154742,-0.24506517,1.4487371,-0.93803446,1.299982,0.4157604,-1.4446316,-0.7013598,0.9401941,-0.5179264,-1.0653144,-0.3701693,-19.355764,-31.439764,-24.814111,17.399395,-3.911145,0.9621424,1.6519825,1.8241316,1.4478295,0.8113597,1.9446547,1.3514682,0.9813992,1.6788191,0.6274555,1.9341114,1.4291355,0.5331799,1.822011,0.9371734,between -0.023711622 and -0.00016276260500000002
0.63039965,1.4997951,-0.9408168,1.4445945,-0.37276434,-2.1997253,0.9621423,-0.7013599,-1.4446316,0.5179264,1.0653143,0.37016924,-3.6243438,-45.509902,66.364795,13.759421,-22.776241,1.8241316,1.4478296,2.1342634,2.2849828,1.9446547,1.3514682,0.62745555,0.9813992,1.6788191,2.1996278,0.89525256,0.53317989,1.4291355,2.2597854,1.7555832,less than -0.023711622
1.4487371,-0.9408168,-0.24506517,-1.4445945,0.41576044,1.299982,0.94019406,-0.5179265,-0.7013598,1.0653143,-0.3701693,0.81135965,18.544668,-19.773095,73.591068,-54.924587,-17.535464,1.8467905,1.7574194,0.448281,0.50880605,0.75323641,0.39437378,1.240192,1.4074086,1.5658616,0.68657867,0.57770509,2.2395039,0.59159225,1.6410059,0.8817261,between -0.023711622 and -0.00016276260500000002
-1.4446316,0.9401941,-0.7013598,-0.5179264,1.0653144,-0.3701693,0.51792641,1.0653144,0.3701693,-0.7013598,-0.5179264,-0.9408168,-8.3385894,-46.672824,69.844483,-23.773833,33.190092,1.0130747,2.4964638,1.567223,1.0662061,2.2264073,0.97742214,1.7838826,1.9647747,2.468543,0.30275146,0.34374357,0.79814118,1.3588452,2.1104699,0.91690113,less than -0.023711622
-0.24506517,-1.4446316,-0.9408168,-0.7013598,-0.5179264,1.0653144,0.37016924,-0.7013599,-1.4446316,0.5179264,1.0653143,0.37016924,-13.527678,40.321034,-24.379372,55.900815,-74.994011,1.7599649,0.48007983,1.7016271,0.99590239,1.8814156,0.95269584,2.4589401,0.90641956,0.94346728,0.35449255,1.4563164,2.3089122,1.6371215,1.3510004,0.76363405,between -0.023711622 and -0.00016276260500000002
0.81135965,0.39437378,1.240192,1.4074086,1.5658616,0.68657867,0.57770509,2.2395039,0.59159225,1.6410059,0.8817261,1.5658616,49.890662,12.347954,-67.942709,36.884635,-29.932222,1.8121244,1.8742345,1.7593108,0.73689155,2.4363475,1.4419636,1.8326864,0.96055701,1.8317317,0.66544543,0.8913213,1.4371284,1.567773,1.3100483,0.98105001,greater than 0.02356751225
0.68657867,0.57770509,2.2395039,0.59159225,1.6410059,0.8817261,2.468543,0.30275146,0.34374357,0.79814118,1.3588452,2.1104699,51.033949,27.5758,-33.525706,-66.532414,39.722484,0.86178383,2.2508608,2.4666836,0.55064439,1.9302327,2.4209544,1.4810635,1.9838049,0.55902013,0.95135411,2.4085543,2.3222734,1.1991444,2.2706145,1.4678828,between -0.023711622 and -0.00016276260500000002
-0.5179264,1.0653144,0.3701693,-0.7013598,-0.5179264,-0.9408168,1.0653143,0.37016924,-0.7013599,-1.4446316,0.5179264,1.0653143,9.9122341,-55.080777,57.384065,-46.026674,-20.30862,2.4702572,2.1134833,2.063661,1.7010104,1.8825118,1.3763702,1.9035408,1.5596394,1.8598343,0.48568172,1.352591,0.49651767,1.2224463,2.4042806,2.4936897,between -0.023711622 and -0.00016276260500000002
1.0653144,0.3701693,-0.7013598,-0.5179264,-0.9408168,0.51792641,1.0653144,0.3701693,-0.7013599,-1.4446316,0.5179264,1.0653143,4.4747849,57.710428,39.162485,3.8893991,-30.869239,1.8353813,1.2538514,1.480959,2.4783131,0.25833513,0.83846049,1.7553758,2.1002775,0.61359491,2.4397357,2.1372818,1.5455058,0.56679381,1.1035553,2.2041125,between -0.00016276260500000002 and 0.02356751225
0.3701693,-0.7013598,-0.5179264,-0.9408168,0.51792641,1.0653144,0.37016924,-0.7013599,-1.4446316,0.5179264,1.0653143,0.37016924,-49.460662,14.658773,70.002291,-71.496337,11.060151,1.9442468,1.7066017,1.3543712,1.1675882,0.65567428,0.91761763,2.3995475,1.6953162,0.67889799,1.9885785,2.0394558,2.1343328,1.4811563,1.2937099,0.8817261,less than -0.023711622
-0.7013598,-0.5179264,-0.9408168,0.51792641,1.0653144,0.3701693,-0.7013599,-1.4446316,0.5179264,1.0653143,0.37016924,-0.7013598,70.658864,13.519965,-19.951536,74.53302,26.466072,2.3539588,0.48628366,2.4695566,1.5869968,0.40462404,0.26620245,0.31465411,2.3916586,1.8556483,2.1317738,1.221933,0.52718765,1.4429038,1.8839792,1.2884845,between -0.023711622 and -0.00016276260500000002
0.5179264,1.0653144,0.3701693,-0.7013598,-0.5179264,-0.9408168,1.0653143,0.37016924,-0.7013599,-1.4446316,0.5179264,1.0653143,43.261829,51.553806,64.817437,-63.332607,-31.133445,0.47773526,0.54643503,0.93351342,1.8100562,0.8639085,1.9601536,1.3014976,1.2703678,2.3213334,1.1510389,1.5114512,1.9602383,0.47459568,1.7796526,0.62058812,less than -0.023711622
-0.9408168,0.51792641,1.0653144,0.3701693,-0.7013598,-0.5179264,-0.9408168,0.51792641,1.0653144,0.3701693,-0.7013599,-0.5179264,-57.476507,-7.6504553,-31.202432,-19.269994,-20.783932,1.891913,1.8816204,2.1442458,1.5899382,0.34068962,1.2205165,1.4707459,1.8262541,0.85259596,0.83027156,1.3740861,1.764636,2.4880764,2.3508845,0.5657877,greater than 0.02356751225
1.0653143,0.37016924,-0.7013599,-0.5179264,-0.9408168,0.51792641,1.0653144,0.3701693,-0.7013599,-1.4446316,0.5179264,1.0653143,18.544668,-19.773095,73.591068,-54.924587,-17.535464,1.8467905,1.7574194,0.448281,0.50880605,0.75323641,0.39437378,1.240192,1.4074086,1.5658616,0.68657867,0.57770509,2.2395039,0.59159225,1.6410059,0.8817261,less than -0.023711622
0.37016924,-0.7013599,-0.5179264,-0.9408168,0.51792641,1.0653144,0.3701693,-0.7013599,-1.4446316,0.5179264,1.0653143,0.37016924,51.033949,27.5758,-33.525706,-66.532414,39.722484,0.86178383,2.2508608,2.4666836,0.55064439,1.9302327,2.4209544,1.4810635,1.9838049,0.55902013,0.95135411,2.4085543,2.3222734,1.1991444,2.2706145,1.4678828,between -0.023711622 and -0.00016276260500000002
-0.5179264,-0.9408168,0.51792641,1.0653144,0.3701693,-0.7013599,-0.9408168,0.51792641,1.0653144,0.3701693,-0.7013599,-0.5179264,4.4747849,57.710428,39.162485,3.8893991,-30.869239,1.8353813,1.2538514,1.480959,2.4783131,0.25833513,0.83846049,1.7553758,2.1002775,0.61359491,2.4397357,2.1372818,1.5455058,0.56679381,1.1035553,2.2041125,between -0.00016276260500000002 and 0.02356751225
0.5179264,1.0653144,0.3701693,-0.7013598,-0.5179264,-0.9408168,1.0653143,0.37016924,-0.7013599,-1.4446316,0.5179264,1.0653143,49.890662,12.347954,-67.942709,36.884635,-29.932222,1.8121244,1.8742345,1.7593108,0.73689155,2.4363475,1.4419636,1.8326864,0.96055701,1.8317317,0.66544543,0.8913213,1.4371284,1.567773,1.3100483,0.98105001,between -0.023711622 and -0.00016276260500000002
-0.467415,-0.246341,1.411171,-1.647061,-0.477813,-0.689201,-0.957157,-0.321651,-0.177347,-0.861442,0.468392,-0.627323,-21.45517,-36.47644,-43.78441,11.21967,50.13648,1.854131,2.401219,0.610138,1.926171,1.450861,0.964217,0.737432,2.349122,1.294351,2.046189,2.202586,2.066408,0.401964,0.632159,less than -0.023711622,
-0.737898,-2.223846,-2.222451,-2.343341,-0.964297,-0.847265,-0.661139,-0.914279,0.114351,-1.012396,-0.119672,0.040239,-14.35441,-30.88961,26.63086,-23.52555,-8.445871,2.187153,0.986893,0.822739,1.450123,1.635781,2.174126,1.170395,0.369422,1.467061,0.760456,0.387893,0.784212,2.198156,0.935425,between -0.00016276260500000002 and 0.02356751225,
1.175644,-0.191838,0.989743,-0.513086,0.615386,0.110917,-0.194861,0.071651,0.634123,-0.880211,1.095983,0.810793,42.19511,-45.46045,-36.41213,-14.50517,29.19449,0.589665,2.278693,0.349604,0.417421,0.861795,1.420977,1.943911,2.275704,1.444351,2.002987,0.986854,0.757118,1.950201,1.398139,greater than 0.02356751225,
-0.571925,-2.17717,-1.171034,-1.322404,-1.780342,-2.242442,-0.766465,1.644556,2.171377,1.580137,-2.023769,0.322904,-10.12036,22.48574,40.54275,-32.06178,62.19081,0.414113,0.819586,2.052299,0.621921,0.965586,0.520455,1.369352,0.931829,0.821191,0.784212,1.140456,0.697604,0.387893,0.996325,less than -0.023711622,
1.113151,-0.649802,1.895999,0.890949,0.230368,1.118319,1.023804,0.004158,0.800712,0.169837,0.440126,0.057504,31.39613,-12.61453,46.83226,26.63086,44.1268,0.776611,0.620317,1.985059,1.299982,0.861795,1.136395,0.756103,0.741151,2.349122,1.155226,0.785679,0.414693,0.760844,0.887744,greater than 0.02356751225,
0.750171,-0.812371,0.061801,0.623655,-1.607286,-0.689201,-1.700599,1.907851,1.930697,-0.821214,0.357771,0.887232,19.95235,-20.63796,53.07735,-46.8786,41.09715,1.440883,2.401219,1.663995,1.955996,2.3947,2.060166,1.255063,2.060743,1.024382,0.398314,0.521308,1.136395,0.745773,2.086663,between -0.00016276260500000002 and 0.02356751225,
-2.122494,-1.979485,1.797669,2.311426,2.085081,0.601432,-0.913092,0.071651,2.25521,0.804727,-0.150944,-0.54466,5.941166,-18.77584,-43.95074,-26.13911,31.60176,2.478794,2.102295,2.449813,0.334002,0.374864,0.455138,2.337404,2.394699,1.750808,1.189198,0.915444,0.570175,0.760456,0.744327,between -0.023711622 and -0.00016276260500000002,
-0.124122,-0.919278,1.616703,-0.513086,0.230368,-1.774052,-0.194861,-0.914279,0.114351,-0.14749,1.447815,0.810793,35.94117,-36.41213,-34.42857,-1.525403,9.698202,2.440184,0.693652,0.621921,1.390249,0.80941,0.723734,0.388318,0.367765,0.522765,1.689198,0.398314,2.174576,1.881966,0.760844,less than -0.023711622,
-0.196385,0.236041,-0.409259,-2.153483,-2.028217,0.084545,0.143781,1.644556,1.897147,0.169837,-0.150944,0.322904,14.21907,-52.95124,29.01605,43.25064,29.94612,1.943863,2.445937,0.78709,0.792424,0.509145,0.369422,0.455138,0.608371,2.060743,1.989669,0.744327,2.474641,1.444351,1.57487,greater than 0.02356751225,
0.143816,-0.598094,0.252184,-2.118373,-1.396778,1.455246,0.450497,0.071651,-1.845806,0.804727,0.357771,0.810793,49.49213,19.79978,7.029846,-49.38063,13.38754,0.567899,0.567899,2.110833,0.417421,1.450861,0.964217,0.312172,1.380808,2.289234,1.050695,0.760844,1.751864,0.496411,1.621417,less than -0.023711622,
0.715371,0.017033,1.797669,2.070468,1.42586,-2.242442,0.950386,1.644556,2.25521,0.169837,-1.227411,-0.605701,40.0366,-10.21572,-42.64029,-32.06178,66.6913,1.631857,2.393116,0.776611,1.136395,1.176942,1.478239,0.388318,0.455138,1.02098,1.689198,0.522765,0.677118,0.760456,0.887744,greater than 0.02356751225,
-1.742335,1.422247,-0.409259,-1.322404,0.230368,-0.34961,0.143781,1.644556,1.930697,0.169837,0.357771,0.322904,15.94117,-45.37546,50.85717,-52.88498,13.38754,1.099806,1.984316,1.299982,0.945684,0.509145,1.029936,0.455138,2.249143,0.409352,0.758112,0.570175,1.589419,1.444351,0.632159,less than -0.023711622,
-0.057514,0.010748,0.252184,-1.337211,-1.038989,-1.519426,-0.561773,1.644556,0.114351,-0.861442,-2.023769,0.810793,18.60015,-21.8995,-36.41213,22.74999,41.09715,2.478794,1.690651,0.570175,0.792424,1.218546,0.520455,0.608371,0.388318,1.989669,0.398314,0.760456,1.950201,0.496411,1.981366,greater than 0.02356751225,
1.675953,-0.191838,-1.148569,0.890949,0.384558,-0.847265,0.450497,-0.914279,-1.230686,0.169837,-0.119672,0.810793,39.61519,26.63086,-55.95124,-25.39539,-0.328413,0.643652,1.215745,2.446045,2.394699,0.509145,0.520455,0.409352,0.455138,2.049123,0.522765,0.570175,2.005012,0.760844,2.191373,between -0.00016276260500000002 and 0.02356751225,
1.092705,1.464623,-0.409259,0.890949,0.230368,-0.689201,-0.661139,1.644556,1.930697,-1.012396,-2.023769,-0.605701,60.33153,28.44244,-41.09715,26.63086,-48.26336,1.440883,1.450861,1.299982,1.985059,2.025722,1.136395,0.455138,0.455138,0.388318,2.102683,0.760844,0.760844,0.760844,2.005012,2.314674,less than -0.023711622
0.098122,-0.598094,-1.148569,-0.513086,-0.524654,-0.34961,0.143781,2.102512,0.800712,1.682877,-0.119672,0.322904,51.80536,-67.8847,-55.30078,-30.50517,42.59849,0.567899,0.993335,0.621921,0.334002,0.509145,0.455138,0.455138,1.989669,0.455138,0.760844,0.760844,0.760844,2.025101,2.367482,greater than 0.02356751225,
-0.124122,0.017033,-0.688735,-2.343341,0.230368,-0.689201,-0.194861,-0.914279,0.634123,0.804727,0.357771,0.810793,56.46259,-44.72152,-49.38063,-23.52555,-8.445871,0.414113,2.278693,0.621921,1.299982,0.861795,0.455138,0.455138,0.455138,1.467061,0.455138,0.455138,0.455138,2.391037,0.887744,between -0.00016276260500000002 and 0.02356751225,
-0.196385,0.236041,0.061801,1.977161,0.230368,-1.774052,1.023804,2.102512,0.800712,1.682877,-0.150944,0.810793,13.54182,-55.95124,62.38877,-46.8786,-0.328413,0.776611,1.690651,1.450861,0.621921,2.187153,0.455138,0.455138,0.455138,0.455138,0.455138,0.455138,0.455138,0.760456,0.760456,0.760456,between -0.023711622 and -0.00016276260500000002
0.715371,-1.979485,-1.148569,2.311426,2.085081,-0.689201,-0.194861,2.102512,0.634123,0.804727,0.357771,-0.54466,60.33153,-20.23003,68.58803,-25.39539,-48.26336,2.478794,2.393116,0.621921,1.299982,2.394699,0.455138,0.455138,0.455138,0.455138,0.455138,0.455138,0.455138,0.887744,0.760456,0.760456,less than -0.023711622
-1.2449614,-0.6714038,-1.395549,1.4269342,-0.8211787,-0.3414674,-0.7374606,-1.098282,-1.643415,-1.501821,1.0121385,-1.7730547,-13.418501,-71.928414,-24.632409,-41.857141,14.924406,2.1429395,0.9172965,0.9636153,0.6218574,1.9586153,2.3206748,0.8088311,0.9674014,2.2043615,0.4161248,0.9863478,2.4011685,2.0110553,0.9331893,greater than 0.02356751225,
-0.870961,-1.4290563,1.0651796,0.2508721,0.8532197,0.6345697,0.2175862,-2.047197,-0.1066959,-0.8225843,-0.745355,-1.440755,4.7954196,13.654695,-36.941305,-22.760985,28.64581,1.364142,0.6563876,1.8622456,2.0307216,2.197822,0.6897631,2.3659556,1.9848593,0.8573416,0.9110624,0.3927619,0.43720205,2.1235975,1.8534925,between -0.00016276260500000002 and 0.02356751225,
0.9560596,1.059461,0.8715954,-0.6864446,-0.4112894,-0.9449451,0.990332,0.8403217,-0.480399,1.5641715,-1.533172,-0.3977841,19.610555,-16.625136,-0.737398,-13.689963,-36.743187,2.3842614,0.6704491,1.9530712,0.4112364,0.6006573,2.1151797,1.7018216,0.8064861,2.2459853,1.6548296,2.3574493,0.30919149,0.7291363,1.1154195,less than -0.023711622,
-0.4479554,-0.993151,-0.2728629,-0.1235429,1.5059268,-1.392128,1.7670587,-1.449322,0.8146568,-0.242555,-2.104191,-0.4758406,-56.321305,3.9953392,-29.430619,-48.381461,-8.499167,0.6542333,1.6547394,1.0466665,1.5552948,0.9726519,2.2941356,0.443116,2.3573173,0.9823214,2.0242198,0.5424291,0.4355317,2.1765915,0.9116973,greater than 0.02356751225,
-1.017935,-1.655061,-1.463418,-0.3047379,-0.7347557,0.4295512,-0.9482071,1.292912,-0.629436,0.707813,-0.445593,-2.166654,-62.391337,67.485419,6.1957585,-9.195369,-17.773531,1.9107475,2.1039934,1.0402419,1.448981,2.2941156,2.199565,0.9861088,1.3645654,1.5566118,0.7612059,2.1768456,0.4940613,2.1457583,1.4606211,between -0.023711622 and -0.00016276260500000002,
-0.3494542,0.8383247,1.565766,-0.7607659,0.6903483,-0.9561457,-1.546061,-0.6561237,-0.823792,0.9696888,-1.158956,-0.6302395,51.835154,16.375517,-29.414304,-25.444333,-3.986134,1.0341963,1.9424085,2.2821112,2.3731572,0.6445018,2.3988222,0.9454426,2.2691315,0.8194112,0.5559637,1.939237,0.29726536,0.9812736,0.8507669,greater than 0.02356751225,
0.8351478,0.2921919,-0.436151,-0.4494327,-1.759281,-1.021804,-0.6761582,-2.030101,-2.213421,-0.849349,-1.427455,1.1794137,20.420619,-18.45551,-15.251501,-20.676177,40.135294,0.7788547,2.453142,1.7013957,1.8657951,0.9329853,0.9627372,1.767116,0.6689286,0.3957958,0.4215866,0.434142,0.348555,0.4271569,2.244177,less than -0.023711622,
-0.736219,-2.267124,1.6309491,-2.152736,0.3809247,0.9113644,-1.067314,0.6324159,-1.564657,0.8775111,-1.006459,0.814102,56.113455,-51.62734,13.480142,-54.427295,44.584743,0.6309643,1.357143,0.7614206,0.9494204,2.192799,1.2995875,2.184468,2.149246,1.531802,0.3098093,0.4495873,1.9347223,0.5311716,2.293966,greater than 0.02356751225,
-0.111377,-1.546062,-1.550517,0.9567552,1.459677,1.059527,-1.509421,-1.774619,-0.4485947,0.5517375,-0.444821,-0.982164,36.729996,-30.525764,22.455317,10.565155,-46.81342,1.525816,1.0113816,0.7911645,1.030792,1.7452192,1.6838297,1.586855,0.542928,1.756176,1.517654,2.340734,0.3808087,1.1424753,2.325478,greater than 0.02356751225,
0.499122,-1.782556,-1.350987,-0.1422994,-1.219409,-0.9827927,1.048946,-0.695509,-0.7538215,-1.259469,1.3736546,1.6564915,-4.677684,-53.39992,-13.739349,-23.819799,-41.495764,1.7971512,1.9411164,1.499824,1.062845,0.6599116,2.1861245,1.517655,1.901515,1.6443244,1.505814,1.424419,0.4335091,2.2705514,2.023934,between -0.00016276260500000002 and 0.02356751225,
2.177189,-0.2593029,1.540737,2.0027566,1.0077745,-1.654272,-0.9439116,-1.415195,-0.8668242,-0.4991739,-0.3953234,-0.5351212,-48.350352,-24.174729,0.789956,-32.755007,-7.325506,1.565342,0.5336413,2.2721716,1.013865,2.1161076,2.3987743,1.3514576,1.504381,1.5501444,0.430689,2.3967616,0.6704594,1.448739,2.2921114,greater than 0.02356751225,
-1.784703,-0.3848196,-1.631964,-1.021893,-0.8455173,-1.324056,0.6298291,0.7998455,0.5657658,0.8996256,-0.735113,0.6170343,-69.739987,-56.411278,-50.655377,27.399219,-3.917341,2.0113824,1.755419,1.5280116,1.3706485,1.3356313,1.4428998,0.9062354,0.6710654,2.2451547,1.3843339,2.354222,0.3055148,0.425156,1.4926548,less than -0.023711622,
1.059845,-0.4206311,-0.2031914,-0.3414099,0.9115546,-0.937774,-1.556142,-0.4931674,0.7844444,-1.217675,-0.3997951,0.9288435,18.373158,59.400122,19.296531,-0.816387,31.784961,0.808441,2.4563214,2.4295317,0.9939404,2.1239653,0.6541125,1.984864,0.8598993,1.445456,2.4211266,2.4205881,2.142342,2.2958463,1.1132468,between -0.00016276260500000002 and 0.02356751225,
-0.678955,-1.422194,0.6904797,0.3966242,-0.2597613,0.9452095,0.213555,-0.2551238,1.5318198,1.016986,-0.7915556,1.060378,4.250654,-70.442982,16.409249,29.499321,-38.796141,0.667776,0.9838195,2.185399,2.269102,0.9604931,2.186767,0.8446855,0.9448556,0.9391772,2.414555,2.3734114,0.5408131,1.5652537,0.357235,greater than 0.02356751225,
0.7805314,0.7559051,-1.212832,-0.819174,-2.033341,-0.444641,-1.292135,0.6673551,0.375555,-0.4496542,-0.6708554,-0.9211916,48.939281,-4.760781,-22.459011,-5.648213,-37.245025,2.249501,0.854434,1.9509794,0.9857742,2.3831785,1.6839819,1.960445,0.4324408,1.3992593,1.424796,0.6483928,2.2631594,2.011964,0.6485013,between -0.023711622 and -0.00016276260500000002,
-0.2451742,-0.7971914,0.921056,-0.6677676,-0.4758318,1.398499,-1.077755,-1.436668,-0.4194145,-0.6212452,1.0509115,-1.240591,41.965491,44.824388,7.1431915,2.3988137,-12.191475,0.949287,0.4457146,1.6858247,0.665119,2.102469,0.6297848,1.382129,2.1851625,2.282491,0.6904759,0.864369,2.2413288,0.4579116,2.208109,less than -0.023711622,
0.2701234,1.110449,-1.615523,-0.7952893,0.7565556,-1.369123,-0.2703414,-0.8243553,-0.6305513,-1.119396,-2.111355,-2.2354911,13.457387,21.776151,51.442189,-69.431455,-16.523169,0.5252475,0.439551,0.4754095,0.7991226,0.4574641,2.246965,1.882142,2.184123,0.800235,1.4201955,0.6762358,2.148911,0.3943952,0.531121,greater than 0.02356751225,
-1.9664693,1.129656,0.5556909,0.5511079,0.2280792,0.6309871,-0.6903129,1.4346343,-2.128911,-1.3948059,-2.1309355,-0.38051286,14.517191,-0.8291612,-53.840265,-3.3517343,-57.263927,0.9778321,0.9396493,0.5993599,2.0831714,1.764621,1.6773961,1.4080255,0.7229501,0.6115492,0.4370118,1.9028165,1.661569,0.5303847,2.1459817,greater than 0.02356751225,
-1.4033495,-2.0623488,-0.39434455,-0.84561145,1.4552997,0.73981376,-1.757429,-0.81650955,1.6323398,-1.9608215,-2.1023556,-0.8701033,-10.419811,-23.451169,-30.761895,-45.530411,-20.965388,1.1533555,1.7603819,0.6542456,0.35168645,0.9391293,1.9647558,2.2399392,1.445651,0.62738446,1.475565,2.4351452,0.9861542,2.2441695,0.34424542,1.6413216,less than -0.023711622
-0.76090215,-0.14389347,0.8456904,-0.7534449,-1.439754,0.27340813,-1.0710965,-0.5171354,-0.14373947,-2.212456,-2.2591913,1.6173533,17.251054,-54.584205,45.603641,-34.33559,-21.409862,0.4421549,2.3201154,1.2131565,0.94447636,1.6236343,0.6115929,0.85896116,1.6175554,1.755676,0.6563426,1.4085172,0.9724283,0.5306548,2.3355177,less than -0.023711622,
-0.44598348,0.2706925,0.49381967,1.3560672,-1.5250553,-0.76854247,1.5868915,-1.5965552,1.9632414,0.40696276,-0.4754097,0.17769212,13.335097,-41.525805,-18.325764,-20.739968,8.300235,0.7371567,1.683756,1.4205115,0.8774195,2.259419,0.8771547,1.9624117,0.6951791,1.3253436,0.9618214,1.6764195,0.7613417,1.4851646,less than -0.023711622,,
-0.7456218,0.8371105,1.6516357,-2.0564216,0.6016611,-0.6481766,-1.2618642,-0.65633336,0.84768647,-2.1984465,-0.7848243,1.9483262,-3.7607976,18.123847,31.603381,-24.194137,-66.335317,2.3241587,0.7343825,1.3513945,0.6905429,0.38482114,1.4507655,0.9852495,0.82273736,1.344628,2.4163997,1.551439,0.69873785,1.7992192,2.2966665,less than -0.023711622,
-1.4557456,1.2921115,-0.6222119,-0.7293239,-0.5317767,-1.3266845,0.9004198,1.6952671,-0.84947596,0.44593534,-2.1604394,-0.17821995,-10.460194,-15.565821,23.799166,-30.124143,16.734056,0.6564272,2.1941916,1.7373525,0.9018329,0.9411418,2.2023825,1.3353436,0.81419485,0.944342,0.689355,1.7825556,2.396549,2.1011344,1.2404293,greater than 0.02356751225,
-1.0298329,0.41179518,1.5399793,0.7903878,-0.44667646,1.4267455,0.66675846,0.86467117,-1.1429396,0.44212815,1.3757342,-2.1485316,2.3851067,-2.6583145,-0.4219433,-9.194062,5.960411,0.6254457,1.4254353,1.191729,2.1955312,1.7834995,0.656245,1.6845493,1.531795,0.9443755,0.9451535,1.4509874,0.9303694,1.2405923,less than -0.023711622,,
0.62475926,0.68666546,0.29981487,0.8402659,-0.12458648,-1.3732544,-1.4508025,-1.9353343,0.9858246,1.0514599,-2.2842496,-0.61512349,6.499942,13.427795,-46.444455,-22.776456,-52.11142,0.8198245,0.9157994,0.62545586,0.8214859,2.1873627,1.7953424,0.9771763,0.6898196,0.81314345,0.69067655,1.3735845,0.67144584,less than -0.023711622,,,
-2.0999815,0.9068234,-0.2723397,-2.0318457,-0.37559485,1.700394,0.72371686,-0.9872377,0.9606653,1.4485426,0.99379115,-1.8772395,46.654411,32.106201,6.794151,38.428982,13.394468,1.4399426,1.6796556,1.4997294,2.2531776,0.86475565,0.9843417,1.6833556,2.2454114,0.98236236,2.3242116,less than -0.023711622,,,,,
0.7395657,1.5301916,-0.656387,1.2469125,0.5513136,-2.1924762,-1.2998131,0.960948,-0.76153176,-0.6541698,0.9605339,-0.6497956,-25.135,6.981449,21.729576,-26.982556,-7.398191,2.2323516,1.4759115,2.2945323,1.444485,0.6049754,0.62943345,0.85998554,1.3692194,0.9761238,less than -0.023711622,,,,,,
-0.7451514,0.44570428,-1.4171694,2.1363233,-0.63091144,1.6564461,-2.2345566,0.6857945,0.9675657,0.44189576,-1.4446046,1.4099267,63.133365,-51.380325,-22.110318,4.3808763,-60.504158,0.9873414,1.6831514,2.1176375,0.6845866,2.247761,1.3215967,less than -0.023711622,,,,,,,,,
1.5960624,0.4003809,-0.39886417,-0.84081944,2.2019554,-1.1959825,1.6547766,-2.1275544,0.7958196,-2.134755,-2.2811765,-1.5352353,-2.3831586,-2.7764955,52.314179,20.693649,-51.456331,1.1032739,0.6992467,1.4399412,1.6044792,0.82935685,0.78598755,less than -0.023711622,,,,,,,,,
-0.6613416,-0.5880251,-0.76533236,-1.4444629,1.1060347,0.44243044,0.6626233,-0.33340747,0.9177394,0.67138776,-0.62282126,0.3417729,-27.449625,-6.422319,55.667145,-27.342409,28.399767,1.668893,2.406985,2.4197253,less than -0.023711622,,,,,,,,,,,,
-1.360377,0.6997342,1.1444143,0.67021963,1.1428226,-0.39525973,0.39925578,-0.6569811,0.7896764,-0.52565616,-1.4191515,1.8134285,-13.934011,-48.776531,-44.761139,-1.4691643,-49.924685,0.43015525,1.6707666,2.176481,1.643219,less than -0.023711622,,,,,,,,,,,
-1.760137,-1.2409819,-0.6622491,1.1293955,-0.24943487,0.49382036,0.6866272,-2.1541917,-0.4455893,-0.6041598,0.39538126,2.1489877,10.230981,16.644832,-52.372219,-23.429,20.142729,1.6447364,0.960314,less than -0.023711622,,,,,,,,,,,,,
0.501654,0.230937,-1.442111,-0.617941,0.912429,-0.649293,-0.982821,1.427391,-1.059428,-0.470162,1.450262,-1.397139,-14.29512,-30.91419,-38.44493,-22.68943,51.39134,1.934219,0.691682,2.116468,0.467391,2.245871,0.861491,1.689921,0.704982,1.981571,1.354201,0.969141,0.351194,0.993941,0.812631,greater than 0.02356751225,
-1.032142,-0.118381,-0.431549,-2.012381,-0.956251,-0.659549,2.150391,-0.745142,1.349701,-0.945982,-0.135982,-0.795662,-67.35293,-49.34145,-21.07165,-50.41791,-55.98292,1.018951,1.473381,1.240982,1.829091,0.352391,2.457191,0.624634,2.145821,1.213921,0.658139,2.187631,2.398351,2.391191,0.501982,less than -0.023711622,
1.537982,-1.982091,0.910109,-0.134991,-0.699941,-0.475391,1.982091,0.692821,0.118309,-0.689921,0.177091,-0.476831,-6.475821,-36.398151,-67.51291,-20.673019,-23.057051,2.299021,0.777191,0.859161,0.436181,2.149491,1.942631,1.135921,0.775351,1.497191,1.854821,2.032551,2.185941,1.627391,2.017061,0.678191,greater than 0.02356751225
-0.475119,-0.261641,1.695139,-0.985781,-0.493751,0.678191,0.194201,-0.675631,-0.819301,-0.673901,-0.629281,0.342119,-30.14229,-15.62359,-34.819,40.13649,-51.94548,2.48175,2.158661,2.051921,1.736159,0.821699,1.684681,2.104781,0.684461,0.671939,2.326531,0.963551,2.270921,2.186111,0.699531,2.272921,less than -0.023711622
1.351991,0.783861,0.495991,-0.784521,0.261191,0.981501,-0.196491,-0.627531,1.013971,-0.474531,0.761191,0.981401,17.39491,-48.17781,-54.3391,-14.39649,41.66109,2.364091,0.776381,2.331231,0.964091,0.342191,0.943821,2.044191,1.625401,0.932191,1.792821,0.976191,0.799581,2.393721,0.998821,1.986171,greater than 0.02356751225
-0.654601,-0.460751,-0.647871,-0.649671,-1.536201,-0.628501,1.548941,0.791631,-0.275081,-0.729121,0.925701,-1.499221,68.765647,-39.946201,45.463081,-66.729367,29.536909,0.969801,1.981501,1.799091,0.351191,2.381161,0.463921,0.619631,0.782581,2.414091,1.932891,0.977231,2.172241,2.205011,0.654391,0.984621,less than -0.023711622
-0.739581,2.2085259,1.162201,-0.609111,-0.649671,-0.631331,1.177191,-0.623631,0.799301,-0.759231,-0.467521,-0.495391,-22.64839,-19.21729,-52.34779,-39.99621,-13.83225,2.3260599,1.565139,2.256691,1.764149,0.982079,1.864199,0.622029,0.767049,0.829209,1.722879,0.651619,1.934019,1.956211,0.863941,0.840671,greater than 0.02356751225
-0.985411,-0.270631,-0.674201,-0.235201,-0.983081,-0.663331,-0.533941,0.352031,-0.435111,-0.676521,1.459961,0.819631,6.7579172,30.314773,-49.602793,25.854433,-14.537486,1.270149,2.061211,1.350699,1.139119,0.650911,1.470591,2.010821,0.689171,0.725349,1.845109,1.658891,0.847411,1.933231,0.783351,1.945251,greater than 0.02356751225
0.351591,0.235901,-0.497671,-1.321401,-0.497671,1.175191,-0.654091,-0.372181,-0.630791,-0.677771,-1.322241,-0.689111,-17.444984,52.160464,60.919349,-28.508701,-45.740292,1.235821,1.555591,0.778921,0.656881,2.030011,0.656371,1.660031,0.634121,0.777141,0.964791,2.186181,1.981461,0.785501,0.781831,2.199411,greater than 0.02356751225
-1.339561,-0.196241,-2.2450756,1.445531,-0.439281,-0.493881,0.643161,-0.312381,-0.230181,0.343139,0.984841,-1.127821,33.984552,-21.637241,-57.108793,22.51912,28.852033,1.656591,2.333551,2.139881,0.782941,0.983821,1.455091,2.324521,0.758341,2.384511,2.186901,0.957051,0.962831,2.324291,1.449991,2.241781,greater than 0.02356751225
-1.098201,-2.2450756,0.235139,-0.372281,-1.321401,-1.321401,1.459961,0.444031,0.245581,-0.654401,1.017651,0.195951,45.684242,-34.940758,0.67515821,-52.615887,-65.215314,1.023781,2.247231,0.774351,0.692951,0.795791,0.734401,0.678651,0.963821,2.013821,1.939211,0.964091,1.964381,2.217381,2.111731,0.840791,greater than 0.02356751225
-0.533941,-0.213151,-0.235201,-0.372281,-0.321321,-2.035761,-0.372181,0.135871,0.531191,0.196461,0.195981,0.186171,16.709971,44.487768,-44.091023,-37.827106,-60.176229,0.673151,2.134799,1.230281,0.741751,2.252111,2.095531,1.955909,0.943791,1.533341,2.062191,1.946941,2.225631,2.127201,2.062821,0.621011,between -0.023711622 and -0.00016276260500000002
0.595291,0.193561,0.137011,1.175191,0.795531,-0.555031,-1.339101,-0.272791,-0.513791,0.137011,-0.533841,-0.441921,68.765647,-5.7754328,-17.698934,-15.980926,58.58121,0.961221,1.451651,1.011501,1.734641,1.630311,0.783171,1.955191,2.342461,2.129761,0.932021,1.933381,0.983511,1.739241,2.256501,0.975441,greater than 0.02356751225
-1.027841,-0.699741,-0.979041,-1.485491,-0.523841,0.517291,0.985631,-0.246061,-0.678171,-0.521171,-1.449551,-0.945411,-74.111891,1.4518429,-48.876464,-66.729367,29.536909,0.27746277,1.463239,1.746211,0.419091,1.459081,0.743381,2.399141,0.733531,0.689521,2.116461,0.964621,1.764111,0.790591,2.354231,1.976191,less than -0.023711622
1.195501,0.678761,0.139301,0.351591,-1.373501,-1.325801,2.273137,0.352549,0.985431,-0.235401,-0.313761,0.965611,-34.550956,-47.916528,16.919586,-32.516721,-58.523769,0.737151,0.654911,1.533231,1.656091,2.115111,0.753541,1.959951,2.126141,2.362831,2.179351,0.977351,2.364791,2.240901,0.830721,1.996421,greater than 0.02356751225
-0.900641,-0.118791,-1.011761,-0.533941,-0.259311,-0.987631,0.130531,-0.356961,-0.504291,-0.391991,-0.734091,-0.320191,57.053286,-55.416857,-41.122246,58.40434,1.7365977,2.107381,2.272941,0.794641,1.819801,0.789891,0.934421,2.189171,0.795391,0.757611,0.977011,0.658791,2.221191,0.944321,1.960301,0.661611,greater than 0.02356751225
0.203591,-0.235091,-0.195511,0.156591,-0.395531,-0.421631,1.456531,-0.210031,-0.676171,-0.341041,-0.133331,0.233451,-22.64839,-19.21729,-52.34779,-39.99621,-13.83225,0.685861,2.122501,0.854821,0.475431,1.960501,2.034691,1.986761,0.769581,1.703681,2.202141,0.699391,2.285791,2.136891,2.243361,0.746041,greater than 0.02356751225
0.981231,0.245691,0.196321,0.245191,1.059291,-0.439881,-0.275461,-0.373871,0.219871,1.149821,-0.219261,-0.429731,-30.14229,-15.62359,-34.819,40.13649,-51.94548,2.184381,0.773481,0.661391,1.630491,0.785321,0.688941,2.065961,0.651021,1.753191,0.864821,1.955861,1.783151,2.193161,1.679481,2.162381,between -0.00016276260500000002 and 0.02356751225
0.39819799,-1.1124913,-0.6291764,0.68461164,0.8608163,-0.4482879,-1.336348,-0.2425491,0.6273284,-1.505737,-0.117911,-0.8403615,10.411139,-13.41531,67.38773,-38.61064,58.43648,1.981071,1.627111,1.437903,1.236789,1.459549,2.230908,0.870921,2.193756,0.8161874,0.6129384,1.455531,2.014139,0.7505895,less than -0.023711622,,
0.15023681,0.3171717,0.41573815,1.3374066,-0.3023859,2.151445,-0.4447041,1.060349,0.4609162,0.6423549,-0.751234,-0.3727376,-6.701531,23.07126,16.78133,64.23475,-31.41569,0.9167079,2.355542,2.299386,2.201671,0.3448234,0.7650993,1.934169,2.025411,1.677759,1.299982,0.5336168,0.7341233,2.325174,1.624813,greater than 0.02356751225,
-1.6049794,-0.4205548,-1.0594228,0.8406216,-1.436686,-0.7393578,-0.2168199,-0.433289,1.451755,0.7351817,1.012339,-0.4756313,64.91101,-35.49363,21.91431,-50.36773,45.74936,0.6863393,1.661751,0.421106,2.272148,0.8379075,2.459341,1.764799,1.455259,0.7614932,0.921387,1.419101,0.6372613,0.4428922,1.755143,less than -0.023711622,
-0.174824,-0.9622495,0.8233917,-0.6850564,0.2709118,-0.473445,-0.892181,0.7109417,-1.444509,-0.4444459,1.052199,-0.7829874,-3.380187,-22.84087,-7.670339,60.41986,-34.68603,1.849377,2.101377,1.617115,2.121503,1.704158,0.3508479,0.7944355,0.864061,2.385295,1.273227,1.475131,1.984962,1.341305,2.161531,greater than 0.02356751225,
1.382184,-1.430815,-0.6415099,-0.1052632,-0.3846568,0.2707953,-0.6704457,-1.415767,0.6718212,-0.1294118,-0.615304,0.7388552,46.68514,-18.68448,44.31441,-50.49916,-25.35018,0.4398558,2.129941,1.427352,0.9596457,0.9626954,1.556158,0.9366873,0.8703394,0.7659256,0.6239492,1.824654,2.063587,0.624866,2.178476,between -0.023711622 and -0.00016276260500000002,
-0.736741,-2.108143,-0.5058857,1.4639111,-0.7669874,-0.9349648,-0.185666,-0.654239,-0.3351397,0.9155842,0.6463489,-0.5947955,5.687304,-13.90277,-46.4203,-28.34941,-39.67085,2.456729,0.6894195,1.977531,0.9534092,0.5425553,2.179349,2.101729,0.4329114,2.388587,0.9261834,1.924155,0.950171,2.040961,less than -0.023711622,,
-0.2461239,1.8466199,-1.419058,-1.181177,0.7873693,-0.5201549,-0.7507224,-0.448535,0.4998656,2.130823,-0.250964,1.213941,68.78349,-44.66568,53.81907,-13.94055,46.11156,1.624299,0.9641396,1.879761,2.061204,1.299688,1.734127,0.3943452,0.725179,1.409679,1.656428,1.421235,1.624387,0.6853987,1.643623,greater than 0.02356751225,
-0.725261,0.77269526,-0.9645554,-1.734584,0.5408321,-0.3943954,0.2162535,1.230441,-1.145584,-0.4116429,0.6544694,-0.4153428,-41.81965,-0.6273517,28.59614,30.63051,-61.37513,0.4341183,1.419549,0.982911,2.135625,0.7482633,2.169101,0.9426283,1.509127,1.444671,1.716688,1.899201,0.966476,1.505857,1.273982,less than -0.023711622,
-1.824813,-0.3802568,-0.701662,0.8606955,-1.151441,0.819776,-0.3354448,-0.623409,0.3357345,1.422305,-0.5941942,-0.1234939,58.92988,17.32651,-28.71688,-42.55595,-0.8246605,2.2192019,2.457459,0.3956313,0.6884214,2.186345,1.695384,0.926655,1.7943397,0.2947395,2.215725,1.650511,1.554181,0.7778456,1.685895,greater than 0.02356751225,
1.1654136,-0.766142,-0.650253,2.0980447,0.9040655,0.8234742,0.6896415,-0.4197295,1.5644539,-0.3996212,-2.046408,0.2817537,-3.609179,-35.58401,30.38314,-15.49255,62.44429,2.4937632,1.012387,0.3192127,0.6777957,0.9344093,1.777885,2.086408,0.903745,2.420836,0.8664092,1.585061,0.5651744,0.8499813,1.695755,less than -0.023711622,
0.9408474,-0.129355,-0.429187,1.1988824,-1.685305,0.687581,-0.1802113,0.8501878,-1.071191,2.151199,1.171479,-1.410987,12.82259,54.07724,-60.53585,-9.442021,41.93644,1.63135985,1.196526,0.800142,1.901961,0.5407957,0.7411393,0.299045,2.116503,1.829249,2.202587,2.204764,1.017928,1.530261,1.4369883,greater than 0.02356751225,
1.4488367,1.017893,-1.012921,-0.5176119,0.7718996,1.2883392,0.3337539,0.4061166,-0.5653414,-0.4449455,0.7656853,-0.4273976,-68.157,-24.35088,-11.79568,-28.18021,47.48082,1.382961,1.729107,2.001273,2.169955,1.981384,2.457456,1.7391068,2.235911,0.859375,1.335429,0.6273335,0.965352,1.430439,0.8708613,less than -0.023711622,
0.39840865,-0.7623396,-0.3942487,-0.6234455,0.7844998,-0.938535,-0.7618876,0.406424,-1.107799,-0.5045112,-1.439324,1.5643042,3.430291,-32.25969,-69.24755,-10.44576,-6.346628,0.7611968,0.778925,0.693456,0.4347347,2.186345,1.442594,0.9119022,1.400249,0.799596,0.550799,0.6956318,0.6544263,0.6973824,2.178476,between -0.023711622 and -0.00016276260500000002,
-0.35154227,2.2107491,1.623686,-1.430982,-1.170648,-1.176419,0.2892495,-0.1291552,-0.2308197,-0.1450611,-0.3809644,0.9643415,31.06222,25.18152,-41.77642,-34.81301,-1.759455,2.2613546,0.6040357,0.4626204,2.282381,0.3997621,0.3414194,1.955394,1.504926,0.9340258,1.398305,2.349866,0.5316043,2.255455,1.382335,less than -0.023711622,
1.192209,-0.670999,-1.098969,-1.116926,-0.6431347,-0.6852113,0.415979,-0.4257293,-0.1428543,1.525565,-0.1627669,0.4451942,-44.20314,-13.32033,-58.15701,-2.499493,-50.29979,1.956819,2.172061,0.7915553,0.4481352,2.3923333,1.964651,0.6833948,0.4759394,0.924351,0.860216,0.7345156,0.631387,2.159941,0.676174,greater than 0.02356751225,
-0.6671098,-0.5353355,0.6798211,2.0980447,-1.685305,-0.3359375,0.6901914,1.047208,1.3025516,-0.195213,-1.754702,-0.1197617,31.65419,-22.27269,55.49126,-10.95007,-1.176056,0.44340066,2.204764,0.3820203,2.136231,0.887113,0.99441745,2.033455,0.7648354,0.7915031,0.765217,0.9851944,2.155056,2.4392318,less than -0.023711622,,
0.5179566,-1.116921,-1.125195,-0.9648239,-0.8402419,0.6864994,0.325911,0.3343489,0.6094492,-1.048987,0.655377,-0.1434753,9.296493,-17.71032,-43.99371,-41.90256,-10.24523,0.924488,0.9503492,0.695352,0.860111,0.6702823,0.6484087,0.9871132,0.6778294,1.554692,0.7874197,2.142165,0.6291243,1.737625,less than -0.023711622,,
-1.1111111,-1.2222222,-0.4444444,1.5555556,0.7777778,1.6666667,0.5555556,0.8888889,-0.2222222,-0.8888889,-0.1111111,-1.4444444,10.123456,20.234567,30.345678,40.456789,50.56789,1.9876543,1.8765432,1.7654321,1.654321,1.54321,1.4321,1.321,1.21,1.1,1.09,1.08,1.07,1.06,less than -0.023711622,,
0.4444444,0.5555556,0.6666667,0.7777778,0.8888889,0.9999999,1.1111111,1.2222222,1.3333333,1.4444444,1.5555556,1.6666667,11.123456,21.234567,31.345678,41.456789,51.56789,1.7654321,1.654321,1.54321,1.4321,1.321,1.21,1.1,1.09,1.08,1.07,1.06,1.05,1.04,between -0.00016276260500000002 and 0.02356751225,,
0.7777778,0.8888889,0.9999999,1.1111111,1.2222222,1.3333333,1.4444444,1.5555556,1.6666667,1.7777778,1.8888889,1.9999999,12.123456,22.234567,32.345678,42.456789,52.56789,1.54321,1.4321,1.321,1.21,1.1,1.09,1.08,1.07,1.06,1.05,1.04,1.03,1.02,between -0.00016276260500000002 and 0.02356751225,,
-0.1111111,-0.2222222,-0.3333333,-0.4444444,-0.5555556,-0.6666667,-0.7777778,-0.8888889,-0.9999999,-1.1111111,-1.2222222,-1.3333333,13.123456,23.234567,33.345678,43.456789,53.56789,1.321,1.21,1.1,1.09,1.08,1.07,1.06,1.05,1.04,1.03,1.02,1.01,1.0,between -0.00016276260500000002 and 0.02356751225,,
-0.8888889,-0.9999999,-1.1111111,-1.2222222,-1.3333333,-1.4444444,-1.5555556,-1.6666667,-1.7777778,-1.8888889,-1.9999999,-2.1111111,14.123456,24.234567,34.345678,44.456789,54.56789,1.1,1.09,1.08,1.07,1.06,1.05,1.04,1.03,1.02,1.01,1.0,0.99,0.98,less than -0.023711622,,
-0.5555556,-0.6666667,-0.7777778,-0.8888889,-0.9999999,-1.1111111,-1.2222222,-1.3333333,-1.4444444,-1.5555556,-1.6666667,-1.7777778,15.123456,25.234567,35.345678,45.456789,55.56789,0.99,0.98,0.97,0.96,0.95,0.94,0.93,0.92,0.91,0.9,0.89,0.88,0.87,between -0.00016276260500000002 and 0.02356751225,,
0.4444444,0.5555556,0.6666667,0.7777778,0.8888889,0.9999999,1.1111111,1.2222222,1.3333333,1.4444444,1.5555556,1.6666667,16.123456,26.234567,36.345678,46.456789,56.56789,0.87,0.86,0.85,0.84,0.83,0.82,0.81,0.8,0.79,0.78,0.77,0.76,0.75,greater than 0.02356751225,,
-0.6666667,-0.7777778,-0.8888889,-0.9999999,-1.1111111,-1.2222222,-1.3333333,-1.4444444,-1.5555556,-1.6666667,-1.7777778,-1.8888889,17.123456,27.234567,37.345678,47.456789,57.56789,0.75,0.74,0.73,0.72,0.71,0.7,0.69,0.68,0.67,0.66,0.65,0.64,0.63,between -0.00016276260500000002 and 0.02356751225,,
-0.7777778,-0.8888889,-0.9999999,-1.1111111,-1.2222222,-1.3333333,-1.4444444,-1.5555556,-1.6666667,-1.7777778,-1.8888889,-1.9999999,18.123456,28.234567,38.345678,48.456789,58.56789,0.63,0.62,0.61,0.6,0.59,0.58,0.57,0.56,0.55,0.54,0.53,0.52,0.51,less than -0.023711622,,
-0.4444444,-0.5555556,-0.6666667,-0.7777778,-0.8888889,-0.9999999,-1.1111111,-1.2222222,-1.3333333,-1.4444444,-1.5555556,-1.6666667,19.123456,29.234567,39.345678,49.456789,59.56789,0.51,0.5,0.49,0.48,0.47,0.46,0.45,0.44,0.43,0.42,0.41,0.4,0.39,between -0.00016276260500000002 and 0.02356751225,,
