JessupByun/synth-gen2eval-research/LTM_data/LTM_synthetic_data/LTM_llama_synthetic_data/synth_pumadyn32nh/pumadyn32nh--train--128-seed1_llama_default_0.csv
theta1,theta2,theta3,theta4,theta5,theta6,thetad1,thetad2,thetad3,thetad4,thetad5,thetad6,tau1,tau2,tau3,tau4,tau5,dm1,dm2,dm3,dm4,dm5,da1,da2,da3,da4,da5,db1,db2,db3,db4,db5,thetadd6
0.2161453,-0.9307218,-0.1153818,-0.7651591,1.0452813,1.3557371,0.9801986,-1.6309374,-0.9609472,-0.2171764,0.6302057,-0.9402841,-11.217993,29.439501,-23.95066,14.115671,-0.6411298,1.0131115,1.8314426,0.9834113,0.9910354,0.3094933,1.6304935,0.9918215,0.7563904,1.4676312,1.7253219,2.0334211,1.0124214,1.9804215,between -0.023711622 and -0.00016276260500000002,,
-0.654654,-0.1231231,1.9019019,-1.2341234,0.6546546,-0.5435435,1.908192,1.654321,-1.908192,-1.2345678,1.1111111,0.8888889,6.789012,10.111111,23.456789,-45.678901,23.456789,0.1111111,2.2222222,1.7777778,0.8888889,0.9999999,1.1111111,2.2222222,1.4444444,0.5555556,1.6666667,0.7777778,0.8888889,2.0000001,1.5555556,greater than 0.02356751225,
-1.111111,-1.111111,0.5555556,-0.5555556,-0.5555556,1.1111111,-0.5555556,-0.5555556,0.5555556,1.1111111,-1.1111111,0.5555556,-34.444444,-56.777778,-45.555556,67.777778,-12.222222,0.5555556,2.0000001,0.5555556,1.1111111,0.4444444,0.8888889,0.5555556,2.2222222,1.0000001,2.0000001,0.4444445,0.6666667,0.8888888,1.0000001,1.1111111,less than -0.023711622
-2.2222222,-0.6666667,-2.2222222,1.1111111,-1.1111111,-0.5555556,-0.5555556,-0.5555556,-0.5555556,0.5555556,-0.5555556,-0.5555556,-0.5555556,-0.5555556,-0.5555556,-0.5555556,-0.5555556,0.5555556,0.5555556,2.2222222,0.5555556,0.5555556,1.1111111,2.2222222,0.5555556,0.5555556,1.1111111,0.5555556,0.5555556,0.5555556,0.5555556,0.5555556,between -0.023711622 and -0.00016276260500000002
-1.2345678,-0.9876543,0.741852,0.369863,1.4736842,1.2987013,0.111804,1.4754098,0.1111111,-0.369863,0.9876543,-0.5555556,34.444444,23.456789,-45.678901,12.222222,67.777778,0.5555556,1.5555556,2.0000001,0.8759259,0.5555556,1.1111111,0.7777778,0.3333333,1.5555556,0.4444444,0.6666667,0.7777778,0.5555556,0.8888889,greater than 0.02356751225,
0.6842105,0.4210526,-1.4736842,1.2987013,-0.9876543,0.369863,1.2987013,-0.369863,0.6842105,-0.4210526,-0.5555556,1.2345678,-12.222222,-34.444444,56.777778,-23.456789,78.901234,1.2345678,1.2987013,0.369863,1.4736842,0.6842105,0.9876543,1.2987013,0.4210526,0.9876543,0.369863,0.5555556,0.9876543,0.6842105,0.4210526,between -0.023711622 and -0.00016276260500000002,
0.4210526,-0.5555556,0.9876543,0.369863,-0.4210526,-0.9876543,-0.369863,-0.9876543,0.4210526,1.2987013,-0.6842105,0.9876543,45.678901,-12.222222,-34.444444,67.777778,-56.777778,0.9876543,0.369863,0.6842105,0.4210526,0.5555556,0.9876543,0.369863,0.4210526,0.9876543,1.2345678,0.369863,1.4736842,0.6842105,0.9876543,less than -0.023711622,
-0.47550671,-0.81301781,-0.43081664,1.6297656,-1.5513885,0.38505036,-1.0931822,-0.68944224,0.92520815,1.4907586,0.66131441,-0.46017268,30.191699,-22.359414,-9.9174405,-35.263982,-18.341282,1.8370324,1.5733614,0.93944944,2.0323016,1.8929375,1.0294506,2.0988506,0.65166694,1.755909,2.156082,0.96721317,1.3447452,1.6431656,less than -0.023711622,,
1.4287619,-1.9269373,-0.68613522,0.46402177,0.19836721,1.7866314,-0.24357624,-1.3505556,2.0556703,-0.77880553,1.1815249,-0.6318994,-44.882115,19.397475,-36.463419,26.479987,41.688962,0.77533437,1.9021615,2.1577403,1.4506768,1.3262553,2.2401728,0.33592586,0.9456564,0.76163118,0.48065714,1.9864365,1.9811546,2.1693242,1.6434069,between -0.00016276260500000002 and 0.02356751225,
-1.7013528,0.63746988,1.8593625,-0.96049395,-0.77301039,-0.32483245,-0.91769794,0.68832622,-2.1784428,2.0125842,0.029654721,-1.4976579,-29.689678,-32.901164,-58.72973,39.735325,24.761177,2.2817918,0.93436764,1.0295944,1.6638132,0.40386598,2.264743,2.1943062,0.81212941,1.8191625,0.68415348,1.2617346,1.6044257,1.9364224,1.4596464,greater than 0.02356751225,
-0.23666056,-0.5401649,-0.37416967,0.96637074,-0.93676084,1.0487955,-1.2397704,-0.46211064,0.38435335,-1.3922028,0.8809557,0.93710625,-8.4168314,-0.38597934,-44.444493,-4.4190343,-26.419661,2.0302735,0.62980887,2.1777126,1.7417362,0.92614258,1.9568192,2.0638704,1.0715405,0.86676164,2.0308133,0.61918532,2.1416244,0.79665432,0.6512964,between -0.023711622 and -0.00016276260500000002,
-1.8993237,1.1274918,0.82313566,-0.6467891,-0.17433118,-0.89221967,0.55420558,-0.26753532,0.73639282,0.35091152,-1.6702722,1.1819817,12.158477,48.420399,21.915135,52.273129,26.399729,1.7345942,1.5048161,1.4741946,0.73444056,1.0119113,1.7374565,0.59645662,0.62740115,0.93472277,1.778736,1.9179262,1.4091829,2.2766448,2.4570592,less than -0.023711622,
1.690305,-0.99178974,-0.4527391,2.0473337,-1.1019029,-0.77821366,0.99339473,1.0429026,-1.6614788,1.4238701,-0.15673566,0.28176616,4.7671586,-21.689411,-17.764179,-38.412505,-43.977765,0.75184454,1.7608027,0.960813,1.6718434,0.429409,1.6844993,0.6841622,1.8541995,0.44382065,1.7659613,2.116703,0.6782177,0.96259603,1.5252677,between -0.00016276260500000002 and 0.02356751225,
-0.6302319,2.2811284,0.94496021,0.85037066,-0.74517587,-0.09587098,-2.0318443,0.74511167,-2.1537394,-1.4806458,1.0271852,-1.0448442,51.816549,-11.4463607,46.309753,45.734823,-37.494167,0.86065525,1.409341,2.0935116,2.0500343,1.5430012,0.31026881,0.98948028,0.82276785,2.1876797,0.39750457,1.2609421,0.37648886,0.53976516,1.1584259,between -0.023711622 and -0.00016276260500000002,
-1.4943918,-0.50277094,-1.2420602,0.63058469,-1.9814079,-1.0408329,-0.18827361,-0.5651039,1.3844622,-0.44536012,-0.2453416,-0.6309877,-59.899847,-27.450224,28.55333,-49.900382,-34.427173,0.93901236,2.3505571,1.2827587,0.87947449,0.82007611,0.81916455,2.1845993,2.1486522,1.4656708,2.4988144,0.33608898,0.90290513,0.41265534,1.9799869,greater than 0.02356751225,
0.854,-0.321,-0.654,1.213,-1.092,0.654,0.321,-1.021,0.765,-0.321,0.987,-0.109,13.76,25.19,31.29,-13.76,47.85,1.89,1.98,1.67,1.23,1.92,1.11,0.96,0.76,0.92,1.78,0.92,0.85,0.67,between -0.00016276260500000002 and 0.02356751225,,
-0.213,1.091,0.985,0.821,-0.375,-1.35,1.456,-0.956,0.658,0.985,0.654,0.213,-22.95,-8.46,14.85,-44.73,34.85,1.34,0.98,1.85,1.97,1.85,0.46,1.32,1.91,1.59,1.31,0.83,1.51,1.99,between -0.023711622 and -0.00016276260500000002,,
1.654,-1.321,0.762,-0.654,-1.563,-1.213,0.987,0.658,0.987,0.654,0.321,0.109,32.13,19.46,-30.92,-17.85,40.13,2.01,2.09,1.45,2.21,0.93,0.92,0.75,0.79,0.98,0.67,1.21,0.98,1.45,greater than 0.02356751225,,
-0.987,0.213,-0.654,1.213,-0.658,1.092,-0.109,-0.213,-0.987,0.213,0.987,-0.321,-14.29,-29.54,20.46,-46.15,29.46,1.67,1.78,0.85,0.98,2.01,1.54,0.92,0.67,0.85,1.45,0.85,0.98,1.34,between -0.00016276260500000002 and 0.02356751225,,
1.092,1.456,-0.213,0.987,-0.109,0.654,0.658,0.987,0.321,-0.987,0.654,0.987,28.57,36.79,16.79,-11.43,45.71,0.67,0.92,0.85,2.21,0.67,1.59,1.32,1.96,0.98,0.67,2.03,1.34,2.09,between -0.023711622 and -0.00016276260500000002,,
1.213,0.987,-0.987,-0.321,0.654,0.213,0.109,0.213,0.987,1.092,-0.213,0.987,8.57,26.79,-18.93,-35.71,38.57,0.85,2.03,1.45,0.98,2.09,1.34,0.98,0.76,0.98,0.92,1.51,1.67,1.67,greater than 0.02356751225,,
0.985,-1.092,0.987,1.213,-0.987,-0.109,0.987,-0.321,0.987,-0.987,1.092,0.987,-17.85,-10.13,-27.85,-48.57,28.13,0.92,0.85,0.92,0.98,1.98,0.93,1.67,0.98,1.45,0.92,0.96,2.03,0.92,greater than 0.02356751225,,
0.762,0.654,1.092,0.987,-1.092,0.213,0.987,0.987,0.658,-0.987,-0.987,-0.213,20.46,30.79,14.29,-22.95,39.29,1.34,1.85,0.98,1.89,0.76,1.11,1.54,1.21,0.85,0.98,1.87,1.45,0.92,between -0.00016276260500000002 and 0.02356751225,,
0.14562341,-0.43194222,0.84301683,-1.36103735,-1.04068467,1.06639948,-0.61214542,0.21649938,-1.48703456,0.85231749,-0.17658627,-1.01210942,-30.211154,-14.559107,-27.032159,-24.091409,20.392364,1.45845525,2.01739625,0.91075917,2.0176342,1.5498151,1.9609252,1.4448145,0.73915795,1.8826284,0.81956586,1.0162258,0.63833573,1.5568327,2.2824938,less than -0.023711622,
-0.82311755,1.04546825,-2.19441115,-0.26928229,1.55112965,0.36458968,-0.44884013,-1.39965471,-0.88165669,0.62246866,-0.53047447,0.43141901,-33.470832,-48.213103,-2.0622454,39.124154,2.0674682,1.8402247,0.92616647,1.6497013,0.47512293,2.2639954,0.7961981,2.1865493,1.0522349,0.9246321,0.62566461,1.3663885,1.4741118,0.7041039,2.1907349,greater than 0.02356751225,
-0.44711193,0.63417814,1.4445518,0.66218279,-0.64185121,1.49369555,-0.24062428,-0.67036472,-0.3655964,0.85335418,2.050335,-0.35142015,19.449983,31.185911,-67.118191,2.0777679,-12.333441,0.50586538,1.4443247,0.63111045,0.7830103,1.8654393,1.0344406,0.64638776,1.9790576,0.43782093,1.9429818,0.85435444,1.7234134,1.1131115,1.9519264,between -0.023711622 and -0.00016276260500000002,
-1.04730589,0.82134435,0.61104346,1.36454922,0.29645922,-0.69315017,-0.98175573,1.7691231,-1.1532459,0.39142885,-0.13520348,1.5968792,28.372989,-27.924785,21.050161,-55.111395,-46.774349,1.9328595,1.0958165,0.9061087,2.2405768,2.2414944,0.69767036,0.82998123,0.35176735,0.7104284,1.0586275,1.7655016,1.5314496,0.935517,0.98269323,less than -0.023711622,
-1.24564174,0.26156358,1.9302818,-0.40019375,1.1151298,0.88754283,0.62210148,-0.41155638,-1.4009117,-0.43050986,0.9173723,0.15111139,-1.427499,-41.384101,27.157471,-35.399202,-25.753662,2.0018762,1.9826311,1.0343064,0.55035271,2.1471271,0.737047,2.4130349,0.625414,0.7832019,0.3495902,1.2709935,0.8951375,1.5493016,0.65819325,greater than 0.02356751225,
0.64865017,-1.3737413,-0.42747471,0.816129,-1.2464667,-0.96111127,-0.35096083,-0.18055528,0.6211066,0.47512973,-0.21535373,1.1959216,-46.195832,30.192202,13.083619,44.907441,-62.16414,2.1442555,0.6353325,0.36997665,1.4257452,0.9828571,1.956198,0.68424928,0.76314245,0.9707769,0.9761945,0.43058436,1.6714442,0.67547935,1.4064258,between -0.00016276260500000002 and 0.02356751225,
-1.45563233,-0.17219241,0.17892611,-0.41986128,2.0234992,0.44442639,0.90101742,-1.0799935,-0.47955558,0.64265536,0.40691155,-1.6745096,2.0962178,-44.612479,6.3148824,29.120354,47.824155,1.7044254,0.9879265,0.67149367,0.859795,0.65679226,0.82210255,0.96190876,2.0059868,1.5233517,0.38424058,0.9391716,0.49996083,2.0804592,less than -0.023711622,,
0.86112935,-0.68616218,-0.17655525,-0.24655556,-0.39269514,0.69220142,0.37455174,0.67089912,1.211584,-1.6951081,0.39916247,-1.0274154,-11.445113,22.199904,-15.795101,-60.372159,4.140445,1.5116867,0.87655536,0.87775394,0.38275964,0.78381327,2.1864687,0.94069605,1.7491646,0.63074345,2.1942395,0.96691145,0.99873455,0.72976586,greater than 0.02356751225,,
-0.899,-1.736,0.399,0.417,-1.229,0.818,-0.45,1.01,-0.904,-1.779,0.222,-1.083,-36.378,-51.177,-68.023,29.191,-34.498,0.586,0.344,1.37,0.466,1.797,1.69,0.831,1.39,2.187,2.025,1.437,0.831,0.72,0.334,between -0.023711622 and -0.00016276260500000002,
-2.063,-0.378,1.201,2.018,-0.562,0.663,-1.382,-0.391,-1.674,0.081,-0.663,-2.147,0.586,-7.246,8.13,-4.936,-27.768,2.255,2.353,1.243,2.466,0.918,0.509,0.264,0.625,0.803,1.507,1.716,2.458,0.46,1.072,between -0.023711622 and -0.00016276260500000002,
-0.485,0.606,0.792,0.619,-1.464,-0.542,-0.89,0.606,-0.969,-0.912,-0.441,-0.435,-67.457,-37.148,-42.085,-25.796,-46.384,0.412,0.396,0.662,0.902,1.765,1.011,0.831,0.756,0.906,2.402,0.68,1.3,2.05,0.275,between -0.023711622 and -0.00016276260500000002,
-0.231,-0.433,0.009,1.767,-0.566,0.955,-1.382,-1.52,1.101,-0.028,0.223,-1.083,24.584,-1.943,32.572,-11.826,-64.621,2.224,2.044,0.662,2.367,1.233,1.818,0.509,2.169,0.803,1.2,0.831,2.18,0.936,1.341,between -0.023711622 and -0.00016276260500000002,
0.361,-0.969,2.205,-0.348,0.42,1.16,-0.768,-0.39,-1.186,2.267,-0.663,2.238,64.444,-48.751,-56.591,9.315,-27.768,0.586,2.353,2.495,1.145,0.291,2.187,0.618,0.625,2.056,2.231,0.362,2.383,0.524,0.497,greater than 0.02356751225,
1.538,0.476,-0.596,0.978,0.399,0.53,-0.999,-0.82,1.615,0.745,-1.799,0.446,44.313,-51.413,37.955,-48.848,-50.96,2.255,2.353,1.37,1.145,1.793,0.318,1.585,1.187,0.965,1.507,2.458,2.05,0.72,0.334,less than -0.023711622,
-2.275,-0.379,-1.229,-2.275,-0.658,-1.033,-2.081,-0.648,-1.567,0.08,0.594,-0.942,0.586,24.241,32.572,-73.725,-34.498,2.353,0.396,1.243,0.466,0.291,0.509,2.402,0.803,0.906,1.2,0.831,1.716,0.46,0.275,between -0.023711622 and -0.00016276260500000002,
-1.736,-2.312,-0.596,2.018,0.4,-0.542,-0.45,-0.422,-1.674,0.081,0.222,-0.435,-36.378,-7.246,-56.591,-25.796,-27.768,0.412,0.344,2.156,0.902,0.918,0.831,0.509,1.39,2.187,0.965,0.362,1.437,1.072,1.072,greater than 0.02356751225,
-0.1584,-1.9434,-0.3131,-0.2619,0.6139,0.398,-1.429,-0.3819,-1.574,0.2179,-2.1574,0.651,-26.2932,-51.1949,-67.4413,-23.999,-3.3895,0.7922,0.9271,0.6518,1.4999,1.7346,1.3956,0.4695,2.1995,1.5549,0.5871,0.9388,1.6341,0.3597,0.5229,between -0.00016276260500000002 and 0.02356751225,
0.4252,-0.3987,0.1186,-1.7349,1.0652,1.9025,-0.2496,0.7814,-1.4579,-0.9141,2.0228,0.1961,-28.761,-31.4411,-23.1955,-35.1989,33.7375,0.4329,2.0067,0.3871,1.9859,0.8144,2.1922,0.5216,1.9877,0.3541,0.5015,0.6283,1.9552,0.6257,0.8294,between -0.023711622 and -0.00016276260500000002,
-0.4757,0.6378,-1.9552,1.5046,-1.1136,-2.0622,2.1051,1.4798,0.2359,-1.8492,-0.3261,0.4513,-66.1456,-38.9269,-12.4429,-8.2139,-21.3413,2.1414,1.3281,2.1462,0.6898,1.9816,0.3751,0.9454,2.4462,2.1225,0.9722,0.3622,0.3854,2.3513,0.3212,between -0.00016276260500000002 and 0.02356751225,
-0.8221,-0.5692,-0.2341,1.0494,-0.6289,0.7372,-0.3192,1.8997,-2.1117,-0.9562,-0.9554,0.8238,-22.3911,-28.761,-36.4311,19.1395,43.7019,0.7046,0.5592,1.0192,0.9668,2.4019,0.5319,0.3843,2.1712,1.9852,1.6319,1.9955,1.4923,0.6295,0.6119,less than -0.023711622,
0.6242,-1.6345,-0.4225,0.2519,1.0928,-0.3921,-2.0133,-0.4455,-0.3445,-0.6655,-0.3756,-0.2891,32.3914,-67.1595,53.2132,3.4814,-8.2174,0.9379,1.4399,1.4995,1.7594,2.2426,0.6463,2.3944,0.3822,0.5521,1.6232,0.9932,0.5835,1.7398,0.3591,greater than 0.02356751225,
-1.1019,-2.0352,0.8329,1.5314,-1.6545,-1.4285,0.9626,0.3566,-2.1453,0.8325,-0.4325,1.0211,-39.4199,-21.6416,-50.3355,-18.1954,-57.9117,0.6211,2.2136,0.4159,1.4145,0.5878,0.4825,2.4094,0.4352,0.9424,0.3692,1.6271,2.1098,1.4332,1.4996,0.3695,between -0.00016276260500000002 and 0.02356751225
1.2165,-1.3547,-0.3158,-0.6326,0.5934,-1.4594,-0.6636,-0.1248,1.3332,-0.4498,2.1083,1.4151,-26.331,-50.1629,40.3398,-25.9432,-3.4819,0.9275,0.4992,2.0618,1.4347,2.0332,1.3958,0.4991,1.4345,0.5399,0.8228,0.9876,0.9553,1.6553,0.4933,0.5351,between -0.023711622 and -0.00016276260500000002
0.4921,0.2359,-0.1419,-0.9625,0.9564,1.1394,-1.9425,0.5542,0.3836,-0.9613,0.6581,-0.1188,18.7732,39.4826,-23.6993,-19.341,32.9255,0.5879,0.6229,0.3629,0.9114,2.4112,0.5998,2.2162,2.4492,0.9933,0.9373,2.1783,0.6315,0.3995,1.9857,0.4252,greater than 0.02356751225
-1.0599,0.4603,-1.8532,0.1775,-0.5508,-0.4215,-1.4017,-0.881,1.6483,-1.1443,0.4199,-1.6314,-11.3164,29.4194,-33.4495,-0.1872,43.9119,2.2476,1.4599,0.8596,1.3805,0.6968,0.9773,1.5218,2.1619,1.0344,1.7585,1.2031,1.1351,0.8895,between -0.00016276260500000002 and 0.02356751225,,
-0.6294,1.3951,0.4259,-1.6404,-1.3346,0.6488,-0.4442,1.5363,-0.1789,-0.2724,0.6465,1.1243,25.8479,-19.1878,-58.6868,59.2157,3.3875,0.4321,1.6864,1.9471,2.1696,0.8491,0.4466,1.9252,0.5341,1.6548,0.6273,2.1782,1.9451,1.0495,less than -0.023711622,,
-2.0968,-0.4411,-2.2432,1.5228,-0.8432,-0.1118,0.9334,-1.0109,-0.4309,0.5715,0.2739,0.2707,63.9002,-38.4692,-3.1989,-29.4687,-14.3845,1.7258,0.8121,1.0526,2.2984,2.0627,0.9553,1.3943,0.4811,0.9117,0.3662,1.9434,2.1517,1.6899,between -0.00016276260500000002 and 0.02356751225,,
0.5103,0.2503,-1.5332,0.3266,-0.4686,0.6458,-1.5315,-0.4159,-0.1792,-0.3241,0.3998,1.1835,-29.4277,2.1765,-62.9362,25.197,56.2199,2.1434,1.2591,1.4349,0.9559,0.8545,0.6519,2.2726,1.0321,0.6279,1.9368,1.6843,1.1442,0.8236,greater than 0.02356751225,,
-0.8639,0.6239,2.1532,-0.5905,0.3722,1.3721,1.0845,0.2353,2.3244,0.5946,-0.6583,-0.5258,47.7829,16.1919,7.1917,-4.6797,9.4356,1.9617,0.9265,2.3937,0.6805,2.1019,0.9379,0.4561,1.7395,0.9369,2.2453,1.0577,0.9859,2.3847,between -0.023711622 and -0.00016276260500000002,,
-0.3968,-0.1538,-0.3982,0.7342,0.9829,-1.8471,-0.6508,0.4705,1.6233,-0.8506,0.7375,-0.6614,3.3858,-8.4994,-45.2611,47.1982,28.3838,1.4199,1.7341,0.7992,1.651,2.3138,0.5558,0.9561,0.6247,0.7341,1.6978,0.9172,2.0326,0.8541,less than -0.023711622,,
-1.6711,-0.3244,-1.5889,-0.2596,-0.9829,2.0461,1.6496,-0.4607,-0.1789,0.3414,0.6248,-1.1419,-7.4158,25.3985,-2.4761,2.4732,16.6091,0.9411,1.5495,0.6859,0.6255,0.8234,2.2637,0.4569,0.6855,1.9799,0.6154,1.3345,0.9442,1.7846,greater than 0.02356751225,,
-0.4318,0.9563,-0.1776,0.5392,-0.3708,1.6517,-0.4196,0.5339,1.4597,1.1039,0.4298,0.6465,26.6541,-40.3825,-15.8464,-39.1352,38.4285,1.8335,0.9401,1.9347,2.0262,0.9874,0.9877,1.7371,2.0052,0.7292,2.2624,0.8764,1.6253,0.7891,between -0.00016276260500000002 and 0.02356751225,,
0.05541155,-0.6540104,0.7042008,0.45738014,1.7592023,-1.7045906,0.9819414,-1.4016578,-0.16225426,1.7911665,1.7537252,-0.7905171,28.380191,13.111341,18.439621,-14.238491,32.164981,1.4509681,1.9603115,1.2944285,1.6123889,1.8173513,1.3541569,1.6473828,0.6876315,2.0466493,1.7554612,1.377571,2.1926451,0.9445891,1.5659342,greater than 0.02356751225,
-0.21367718,0.9608472,-0.37024214,1.6298158,1.4557144,-0.5711138,-1.6854422,1.0434814,0.9062739,0.38394846,-2.0495878,-0.68994014,-60.890191,-25.813921,-16.419241,67.113489,-20.676481,0.27031558,2.4274311,0.94742833,0.6108199,1.4754098,2.4534269,0.85959939,0.3994752,0.78642827,1.9456468,0.43316738,1.8923875,1.1113065,1.9017582,less than -0.023711622,
-1.1745906,-0.9917896,1.4357822,0.16247588,0.40603424,-1.8382855,0.42534442,-0.77105515,0.9341665,-0.18041547,0.83894765,-2.0243484,11.438991,50.34214,22.155921,-12.794699,-46.669171,0.69758183,1.6956355,1.0847265,0.55310714,1.1187739,0.7416594,1.9010214,1.8759495,0.97219435,1.2661574,2.2721772,0.46814287,2.0123418,2.1874325,between -0.00016276260500000002 and 0.02356751225,
-0.36757503,-0.63013567,-1.5018474,-0.7785559,-0.30299328,-0.84528146,0.63404077,0.68997017,-1.0675942,0.6101718,-0.88271274,0.50194805,35.950849,-20.739781,6.419375,-44.811381,-25.423129,1.7001039,1.2062396,0.9414856,2.3866373,2.0073264,0.504324,0.85676695,1.6709093,2.0116479,0.99389327,0.9932156,2.4082513,1.3518958,0.58619646,greater than 0.02356751225,
0.89519027,-1.5804113,-1.047305,1.9454405,0.88798136,-0.37823585,-1.0627623,1.2643416,-0.11649963,-1.3947234,-0.36415947,-0.7905171,-7.0779385,32.654141,-61.144601,63.994156,-46.017341,0.43021934,2.0984744,1.5463385,0.65675983,0.67174063,1.9820317,0.93086344,0.6896219,1.4426954,0.63285313,1.5653434,1.612387,0.95478358,0.94550926,less than -0.023711622,
-0.40603565,0.63053177,0.41668514,0.42852667,0.7257641,-1.5310512,0.9819414,-1.0575838,1.4485616,-0.44651675,0.48942223,-1.3210231,-55.349462,19.198341,-22.142741,-56.540168,-29.419502,0.93659617,2.3933925,0.9027779,2.0342518,1.1174195,2.217441,2.1266854,0.67281373,0.69573767,0.882473,0.6042467,2.2041425,1.2025492,0.46773493,greater than 0.02356751225,
-1.2591699,-0.77145575,1.6305178,1.4320613,-0.38467586,-1.8457643,1.0293394,1.1589614,-0.75635482,-0.68956307,-2.1607347,-0.92588256,-31.011381,51.859109,-15.956395,54.891402,-33.959695,1.032654,0.7999856,1.6223057,0.40376723,1.4639551,0.8591139,1.5861116,0.39968599,2.273845,0.78412343,2.424281,0.45458113,0.8641818,0.2537995,less than -0.023711622,
0.26576436,0.92605766,0.68941185,0.05934287,2.0471015,-0.98578084,-1.736424,0.53376027,1.0347655,0.41915782,-0.008128476,-2.0477254,-62.232479,-34.885661,22.350639,-4.430279,-23.61069,1.7437384,1.6934144,0.85974307,0.55396997,2.1156136,0.9976772,2.4537116,1.5297371,0.61217145,1.0164118,0.43227563,1.7778762,1.1455654,1.0517346,greater than 0.02356751225,
-0.9856494,1.430916,-0.5502167,1.3547635,0.8374129,1.6697415,-0.94310465,-0.3879806,-0.22841943,0.940734,1.1117227,-0.6977298,-20.753963,-26.823335,-60.685205,-28.339056,-38.241677,2.0754015,0.924411,1.7954351,1.5119791,0.9687552,2.055387,2.108866,1.497439,0.8405863,1.4308196,0.399114,1.774926,1.6474195,0.951142,greater than 0.02356751225,
-1.222113,-0.37368454,-0.9419649,0.659103,2.1871234,0.23410255,0.687324,-0.27594228,-1.9444298,-0.3572882,-0.654124,-0.8590341,15.373829,-21.439377,36.641187,-14.935362,-7.451178,1.5403852,0.6448245,0.963356,0.876245,1.8649874,0.7671272,2.364982,1.383671,1.7364154,1.4991116,0.5637602,1.8472133,1.689382,0.699533,greater than 0.02356751225,
-0.4277957,1.8614278,-0.17714214,0.961364,0.383764,1.8578938,-1.063584,-2.2455845,1.3397353,-0.845195,0.870299,0.9797966,-39.676657,-2.4429882,-16.107698,-0.3541926,35.689745,0.943497,0.445111,2.1676513,0.7997218,0.3926957,2.3244446,0.8223056,1.962857,2.174342,0.7264696,2.1081698,0.6731824,1.7955862,0.7601229,between -0.023711622 and -0.00016276260500000002,
1.1163932,-0.24231664,0.6324422,-0.364411,-0.8457976,0.68357114,0.3989552,-1.2102197,0.62777643,-0.9821156,0.776255,-0.442127,56.550832,3.734043,-22.696445,4.9503565,25.901555,1.743457,2.2558828,1.4744752,0.965154,2.0361428,0.824395,2.1861975,0.5422559,1.7361233,0.5234751,1.3906285,1.6709414,0.9448933,1.3424068,greater than 0.02356751225,
-1.4872734,2.0213494,-0.44558655,0.8272196,-0.7781395,-1.489058,0.630831,1.1123876,0.6457893,1.399241,1.099273,0.2737052,-29.630409,-34.273355,-47.420115,27.39119,-20.628289,1.0154454,0.4512353,1.9404765,0.7601625,0.8643595,0.9288192,0.4203325,2.1794089,0.932486,0.7851566,1.689641,0.9416896,1.684411,1.5968149,between -0.023711622 and -0.00016276260500000002,
-1.4228463,-0.24494297,-0.67039544,1.5096218,0.535763,0.632123,-1.2787763,-1.1347344,-0.7082739,0.9419411,-0.372115,0.994926,-8.4405515,20.759419,-29.627404,-16.369956,14.531737,0.986341,0.8111958,0.433188,1.7670588,2.212156,1.450739,0.9704191,0.9791512,0.8808294,1.6211626,1.8496482,1.7669874,0.990338,2.060729,greater than 0.02356751225,
0.846325,-1.061434,2.1929117,-1.6246866,-0.5401918,-0.116516,-0.170414,1.4087656,1.6615272,-0.6483924,0.9934446,0.678734,18.341184,-36.463324,-19.111535,44.763409,-27.415695,0.8084936,0.9493524,0.791982,0.9791684,2.4123494,0.555348,0.9336547,0.9989873,1.4447843,0.6121421,1.350542,2.0497952,0.984256,1.4494096,between -0.00016276260500000002 and 0.02356751225,
-0.3418953,-0.3941439,-0.236213,0.9848132,-1.3953624,-2.0017647,-0.39781322,-0.157514,-0.4806233,-0.1155421,0.611324,0.9364562,23.994382,-3.7379267,14.855171,32.650137,-53.78471,1.270956,1.794242,0.949821,0.956314,0.3732968,2.198766,0.6283414,0.9821925,0.5096412,2.3421225,1.6174614,0.9377838,1.7564394,1.7398237,greater than 0.02356751225,
-1.021197,-0.315685,1.043419,0.394953,-0.546852,1.70943,-0.459814,0.783191,0.273462,-0.935175,-1.05194,-0.550307,-10.3513,-51.4824,-31.0874,10.6348,-14.6773,2.27212,0.917213,0.939166,1.14363,1.82666,0.993469,1.56324,1.34131,2.35623,1.45186,0.968142,1.23461,2.08133,0.539684,between -0.023711622 and -0.00016276260500000002,
0.736179,-0.612928,0.47838,-0.21481,0.934299,-0.44253,-1.36416,-0.26702,1.6498,0.617705,-0.18003,0.689235,28.3664,20.8455,-18.2932,-22.3662,33.1557,0.973815,1.45775,0.611493,1.0526,0.783482,0.630549,2.11539,0.820641,0.536378,2.21053,0.405893,2.44136,1.89967,1.44702,between -0.023711622 and -0.00016276260500000002,
1.10493,-0.86053,1.8128,1.06519,0.195395,-0.391893,2.03664,-0.94319,-0.30202,-0.745305,0.587853,-1.47506,-46.6171,-16.6885,67.3992,-50.3053,-42.6042,2.14258,1.90313,0.402299,0.964166,0.531549,1.44574,0.689955,1.74836,0.961695,0.619305,0.555306,0.925823,1.72132,2.23064,less than -0.023711622,
-0.65082,-0.29419,-1.39473,1.55667,0.662281,0.687111,1.23095,0.690235,-0.54935,0.854741,-1.32374,-0.21858,-0.19182,-3.85982,-47.9539,-5.60035,19.7672,1.34236,1.68947,1.54621,1.79479,1.82149,1.06047,2.39841,2.15711,1.96926,0.964515,2.12396,0.430941,1.85514,0.960457,between -0.00016276260500000002 and 0.02356751225,
-0.97555,-1.67489,0.836836,0.630399,-0.473785,1.71036,0.715963,-0.370538,-1.27385,-0.864409,1.17745,-0.70084,22.6628,-35.9603,-19.6227,56.4268,2.37331,1.73761,2.29654,0.451945,2.09963,0.623721,1.82136,0.587425,2.27649,0.900661,2.49832,0.739123,2.43624,1.74925,0.270362,between -0.023711622 and -0.00016276260500000002,
1.17922,0.263377,-0.44121,-0.68683,-0.927406,1.38344,0.945325,-1.08069,-0.47575,0.615854,1.01664,0.787255,49.7379,9.14303,-39.4543,-14.6654,-36.6096,0.931985,1.78069,0.944737,0.676895,0.675139,2.14926,1.69719,1.82371,1.82933,0.678493,1.75331,0.415729,2.15779,1.84915,greater than 0.02356751225,
0.392654,-0.10859,2.21324,-0.55549,0.654368,0.677399,0.380765,1.08645,-0.62539,0.937025,-0.51768,-1.05677,13.3919,-61.3826,16.6155,-1.42542,-15.6012,0.833155,0.984792,2.19283,0.999785,0.975449,0.650531,0.776156,0.522241,1.74631,0.948669,2.02498,1.94038,2.01114,0.59096,between -0.023711622 and -0.00016276260500000002,
-0.73687,-1.44944,0.689468,-1.30279,-0.24319,-2.05036,2.14555,0.864486,1.43011,0.955493,-0.25045,0.601202,44.8299,0.460397,-13.4145,63.8198,10.6614,1.62799,1.03456,0.985304,2.05548,1.61794,2.39485,0.609282,1.75023,2.16478,0.921941,2.38651,2.01759,0.804331,2.39431,between -0.00016276260500000002 and 0.02356751225,
1.0454038,-0.51068217,0.62359482,0.8654013,2.187395,-0.6970586,0.39159085,-0.28140677,-1.4512938,-1.1549556,0.8217393,-0.9820363,-48.16265,13.396206,-58.292942,-8.216383,-23.941224,0.6111698,2.187767,0.8603736,0.44348667,0.93941473,1.6426852,0.9937617,0.8248149,0.45170132,0.9118905,1.7391564,1.245701,0.9664941,1.3724684,between -0.023711622 and -0.00016276260500000002,
-1.1560786,-0.32015476,-0.81969095,1.0468942,-0.116732,-0.6340217,-1.382137,-0.6893063,1.3556576,1.5733941,-0.9501856,0.3418249,-17.583141,-14.840456,-8.142588,29.180631,-47.419961,1.755991,1.4638613,1.9803549,1.4117952,0.6245558,1.7602436,0.6571296,0.87667698,1.2706552,1.5653368,0.35516273,0.9703735,0.5217405,0.6512359,less than -0.023711622,
0.42523148,2.0604744,-0.35576894,0.69010155,0.4400782,-0.7294398,-0.19475564,-0.27387075,1.0449116,-0.7341957,-2.0985967,-1.549632,-22.860187,43.885061,-41.89953,-2.419001,22.395493,2.234145,0.7617905,0.40099446,0.6197952,1.059604,1.3047629,2.0113613,0.7081341,2.2473249,1.0497368,0.9074922,1.4369356,0.7084813,0.8192495,between -0.023711622 and -0.00016276260500000002,
-0.65696567,0.10634069,0.35576894,-0.86571542,0.9858154,-0.150323,-0.21984055,-0.95061783,-0.11632325,0.73467625,2.0778132,0.109527,-3.4551795,52.325117,0.7898101,-23.463995,-6.584767,1.493813,1.505225,2.0234811,0.8402435,1.1292997,0.73467625,0.4011719,0.7843234,2.0230279,0.95061783,0.8407598,0.9064503,1.7551534,0.35576894,1.0161396,between -0.023711622 and -0.00016276260500000002
1.4610224,-1.201831,-1.8744083,-0.859195,-1.7305432,-0.37526465,0.46655795,0.024146585,-0.19690197,1.7275681,2.2091988,1.0913427,-55.826304,50.730125,-29.584555,42.143326,-57.09614,0.91730255,0.98290216,0.085712753,1.6700453,2.2308553,0.70116747,0.54571637,2.4926671,0.6903906,0.4240444,1.6207808,1.4827412,0.41520353,1.468086,greater than 0.02356751225,
-0.4681221,2.0604744,1.8744083,0.23201218,-2.1985383,0.30633154,1.8076726,-1.2040646,0.31518728,-0.86325087,2.0918887,-2.3075754,28.791377,38.47765,-8.142588,-2.419001,-9.7111259,1.1516096,1.6700453,0.31118052,1.4704433,1.875168,0.38293015,2.2272165,0.75516382,0.84951586,0.27150121,1.6757308,0.97619849,0.59941781,0.93065785,between -0.023711622 and -0.00016276260500000002,
0.4681221,-1.4610224,1.2671138,1.0960622,1.0589079,-0.239535,-0.89589379,0.91294423,1.6166342,-1.2343315,0.78836781,-0.76134943,5.419675,62.793504,21.207958,-60.288933,-26.101333,1.2412781,1.0036649,0.93439694,0.90944136,1.76515675,0.9703735,0.6588335,1.8748153,1.6204593,1.2882523,0.41421826,1.7663417,1.0267834,0.50569126,1.0823804,between -0.00016276260500000002 and 0.02356751225
1.1560786,-0.85529749,-0.35576894,-2.1269188,2.2830733,-1.6279902,1.6660872,0.76952536,0.56619509,-0.19907982,0.8217393,0.57473065,-14.596699,-70.809882,-1.6866488,22.380134,-47.024817,0.91730255,2.1022676,0.52170051,0.26107426,2.4069777,0.38293015,0.29039115,1.8540024,1.0777599,0.66041513,0.79869553,1.7837416,0.97619849,0.59941781,0.41520353,less than -0.023711622
-0.15344637,-0.5428191,1.3623265,-0.6549797,1.4950447,1.0361063,-1.3951241,0.61902345,1.6896622,-0.64628736,0.72538245,-0.47343266,-33.465511,-27.950165,43.901862,-52.830265,23.456171,1.7018622,1.062341,2.3864194,1.9039522,0.4398141,2.0813925,1.6168496,1.739102,1.529025,0.94371816,1.4214686,2.385312,2.1983554,1.645699,,
0.82382146,0.27575367,0.38765413,-0.9341446,-0.6809854,-0.6845651,0.9428571,1.2456325,-1.1618217,-1.4317656,0.62325348,2.0067553,14.29259,51.648701,-19.766252,22.119808,67.39963,1.4308172,0.9891899,1.7394152,0.8520254,1.6565654,0.46613743,1.750311,1.3514569,0.6111738,1.9008154,0.7505892,1.0617034,2.0623419,1.854901,,
-1.5016879,-0.11649144,1.8073284,-0.2630879,-0.7501996,1.6045409,-0.6898197,-0.42565778,-0.4304456,0.5505921,-0.9698826,0.9175664,-48.196101,-3.4303416,13.815482,-8.425942,31.391396,1.9449491,2.230012,1.7101079,2.199059,2.2564116,1.499924,0.8115732,1.6993046,1.9381026,0.5375709,2.2626415,2.4074314,1.7052843,1.328142,,
-0.24495333,-1.370392,0.5665701,-0.3504203,1.2307724,-0.3641576,-0.15734069,-1.1601827,0.6846904,1.0778665,1.4174294,-1.649111,-16.452222,60.565107,-6.7871325,18.36449,-50.66567,0.9911544,1.9064767,1.9406543,1.452736,1.3833164,1.9650718,1.1044756,1.2468292,0.6273702,1.8497142,0.63522851,0.7739078,2.4556653,1.9262731,,
-1.6337344,0.9102848,-1.938071,-2.048148,-1.549215,-0.04585055,1.4116565,-0.3501501,1.352368,-0.9444803,-0.536491,-0.02091682,-20.901707,-53.92477,-69.444195,-3.4634912,-58.324033,1.8178456,0.6973825,2.0103954,2.2304087,0.9561915,2.234054,0.908201,1.830108,2.104781,1.644712,0.9917127,0.9239504,2.129399,1.656599,,
1.4682056,0.630097,2.117955,0.8401045,0.6792886,0.8045594,0.04919339,0.8046715,0.1579516,0.44416646,-2.100101,2.070377,-13.360643,10.956056,20.295442,-53.550805,-22.133141,1.2734456,1.783154,0.9168211,1.756445,0.305816,0.4499118,0.69922486,0.729766,0.8550128,0.45046976,2.362354,2.1923471,0.9230175,1.820342,,
0.43019266,1.8290254,-1.0170122,-0.5379077,-0.1062671,0.40606175,-0.8235648,-0.66131335,0.7651031,-1.6329467,-0.3509557,-0.688213,-35.75507,-4.5503988,18.07192,-18.411982,-56.65868,1.6248025,0.941455,0.8960114,0.963341,2.115011,0.5328915,2.035755,1.5253483,0.6664778,1.9406955,0.8247765,0.9726125,0.6454115,0.6771959,,
-0.6899384,-0.8240836,-0.2980167,-0.1539634,-1.5895307,-0.01791625,-1.4550985,-0.28147937,-0.44445596,-0.28111216,-0.7957222,-0.0257002,-48.533116,-54.38581,-16.339142,14.444784,-70.623331,1.9334115,0.82232564,2.3503353,2.0139654,0.8220256,1.4502403,1.5648714,1.6543318,2.3847347,0.3941979,0.7614118,2.0791715,1.4092754,0.86150444,,
0.11276543,-0.6842377,0.8765313,1.4591239,0.2945842,1.0436345,-1.3698142,1.0436345,0.8765313,-0.6842377,-0.3695892,0.7359568,20.753086,-14.589562,10.953589,-30.753086,25.369589,0.753086,1.369814,1.459123,0.2945842,1.0436345,0.8765313,0.6842377,1.1127654,0.3695892,1.0436345,0.7342105,0.8765313,1.459123,1.0436345,between -0.023711622 and -0.00016276260500000002,
-0.2945842,0.8765313,-0.6842377,0.3695892,1.0436345,0.8765313,0.8765313,-1.4591239,1.0436345,0.2945842,0.6842377,-0.8765313,10.369589,0.753086,30.086957,25.369589,10.369589,0.3695892,0.2945842,0.8765313,0.8765313,1.0436345,-1.0436345,-0.8765313,1.2945842,0.8765313,0.3695892,1.0436345,1.459123,0.8765313,1.0436345,less than -0.023711622,
1.0436345,0.3695892,0.2945842,-0.2945842,0.6842377,0.3695892,0.6842377,0.3695892,-0.8765313,-0.6842377,-0.2945842,1.0436345,30.086957,-10.369589,20.753086,-20.753086,-0.753086,1.0436345,0.8765313,0.2945842,0.8765313,0.2945842,1.459123,0.3695892,1.0436345,0.6842377,0.8765313,1.0436345,0.3695892,0.8765313,0.8765313,greater than 0.02356751225,
-1.4591239,0.8765313,-0.8765313,-1.0436345,0.3695892,-0.8765313,1.0436345,1.0436345,-1.4591239,0.8765313,1.0436345,-0.3695892,25.369589,0.753086,15.086957,-5.753086,20.753086,1.0436345,0.2945842,0.3695892,0.8765313,0.2945842,0.8765313,0.3695892,0.8765313,0.6842377,1.0436345,0.3695892,1.0436345,0.8765313,1.0436345,between -0.00016276260500000002 and 0.02356751225,
-0.8765313,0.2945842,0.6842377,0.8765313,-0.2945842,0.8765313,-0.2945842,0.3695892,-0.2945842,-0.8765313,-0.6842377,-0.8765313,0.753086,-20.753086,-0.753086,30.086957,10.369589,0.3695892,0.8765313,0.6842377,0.2945842,1.0436345,-0.8765313,0.3695892,-0.8765313,0.2945842,0.8765313,1.459123,0.3695892,0.8765313,0.8765313,between -0.00016276260500000002 and 0.02356751225,
0.6842377,1.0436345,-0.3695892,-0.2945842,-0.2945842,-0.3695892,1.459123,0.8765313,-0.6842377,1.459123,0.8765313,0.3695892,-5.753086,0.753086,25.369589,25.369589,-10.369589,0.8765313,1.459123,0.8765313,0.3695892,0.8765313,0.2945842,-0.8765313,-0.6842377,1.0436345,-0.8765313,0.3695892,1.459123,1.0436345,0.8765313,less than -0.023711622,
-0.3695892,0.2945842,-0.2945842,1.459123,-0.8765313,-0.8765313,-0.8765313,0.8765313,0.3695892,0.8765313,-0.6842377,0.8765313,20.753086,10.369589,0.753086,-0.753086,0.753086,1.0436345,0.8765313,0.3695892,0.2945842,0.8765313,0.3695892,1.0436345,-0.3695892,1.459123,0.6842377,0.8765313,0.3695892,1.0436345,0.2945842,between -0.00016276260500000002 and 0.02356751225,
0.8765313,0.3695892,0.8765313,-0.2945842,0.8765313,-0.8765313,0.8765313,0.2945842,-0.8765313,-0.8765313,1.0436345,0.8765313,-10.369589,0.753086,10.369589,-20.753086,-0.753086,0.8765313,0.2945842,0.8765313,1.0436345,1.459123,1.0436345,-0.8765313,-0.3695892,0.2945842,-0.6842377,0.8765313,1.459123,0.8765313,0.8765313,greater than 0.02356751225,
-1.090545,-0.455081,1.678503,0.231202,0.298072,0.293268,-0.196575,-0.142022,0.285473,-0.448205,2.112549,-2.234574,39.529839,-34.940758,-9.9854707,-52.615887,-34.091608,1.710124,2.065006,1.815687,1.016703,2.209419,1.847736,1.907729,1.703506,0.81019,2.026958,0.698789,0.672822,1.052182,greater than 0.02356751225,,
0.1895878,2.353191,-1.919057,2.242189,-0.490069,0.650485,-0.0378389,0.214509,0.451953,-2.029371,0.625051,-0.581988,45.684242,-40.405975,0.675158,24.193247,-19.507232,1.018208,1.024313,2.387371,0.948009,1.18359,1.689242,2.138834,0.637726,2.165822,0.593167,0.669845,0.414106,2.301645,between -0.023711622 and -0.00016276260500000002,,
-0.286673,-2.219341,0.917998,0.446149,1.031596,1.169593,1.976952,-0.421042,1.544496,-2.203378,-2.229765,1.962339,-30.806357,37.555992,3.565825,-69.172968,49.887588,1.384202,0.78924,0.26846,2.260349,0.861989,1.201497,0.657758,2.452867,2.295493,0.483312,1.812616,0.541493,1.119751,1.838008,between -0.00016276260500000002 and 0.02356751225,
-1.785418,-1.889193,1.678503,1.076581,0.0738917,-2.1735405,-0.255453,-0.413537,0.451953,-0.398664,0.665753,2.108477,0.587659,-23.200454,69.97035,-8.333223,43.51982,1.939339,2.471203,2.260606,2.006035,0.68829,2.340715,0.330034,2.191009,1.103503,2.026958,1.337099,0.671756,0.362661,1.206142,between -0.023711622 and -0.00016276260500000002,
-0.941761,0.0700829,-0.214708,1.733903,0.298072,-0.458153,-1.420485,-1.142004,-0.112273,-2.029371,0.625051,1.322563,-0.734242,-40.405975,-53.227862,-0.682231,58.817444,2.046593,0.598885,0.463799,0.329251,2.475031,1.360172,1.917741,1.726965,1.605609,0.483312,1.365322,0.718553,1.527573,0.671756,between -0.00016276260500000002 and 0.02356751225,
-1.536898,-2.045291,0.399953,2.153176,-1.907985,0.426938,-0.196575,-0.455081,0.285473,-0.448205,2.112549,-2.234574,39.529839,-34.940758,-9.9854707,47.509959,-34.091608,1.710124,2.065006,1.815687,1.016703,1.847736,1.847736,1.703506,0.81019,2.026958,0.698789,0.672822,1.052182,1.052182,greater than 0.02356751225,,
0.55185,0.959804,-0.214708,1.076581,-1.473814,-2.0822809,2.017928,0.254739,-2.155757,1.736387,-0.366799,-0.986445,-32.021835,9.020598,-40.802105,39.014031,58.817444,2.046593,0.598885,0.463799,0.329251,1.360172,1.917741,1.726965,1.605609,0.483312,1.365322,0.718553,1.527573,0.671756,1.206142,between -0.023711622 and -0.00016276260500000002,
-1.5393828,-0.39817099,1.8344123,-1.9609219,-1.8657073,-1.5509435,1.0466321,1.4519614,-1.8173325,0.90679103,0.96984326,1.5705844,-25.684133,-12.459765,-21.609549,-20.341142,-45.469142,2.3943826,0.86118719,2.0433336,0.81936252,1.6511284,2.0235558,0.47536881,1.4295517,0.55181424,1.9963526,0.98494922,1.9641986,1.8638366,0.76016966,greater than 0.02356751225,
-0.92611139,-1.7599411,0.44576518,0.16238033,-1.4495875,-0.83855695,-0.39894067,0.9254921,-0.34103747,-0.96265069,1.6304457,0.14454945,3.1997627,-36.438246,44.665041,34.893109,10.776554,2.4182242,0.40263773,1.1010598,0.53383225,1.767906,1.5068496,1.0614997,2.0581165,0.91715747,2.147802,0.65468957,0.74161412,1.5505226,0.76038755,less than -0.023711622,
-0.15794319,-0.71294324,0.9628247,-1.0458249,-0.6410471,-1.0478572,1.6238615,0.42015342,-1.911326,1.3366489,0.67965483,-0.19291444,-63.840767,-20.134124,-42.734547,-2.5408933,18.434201,0.8202828,2.1472476,2.3908045,1.6479219,1.3833819,0.70207967,1.0503277,0.93713477,2.0308044,1.7756632,2.4388613,2.1964814,2.2550851,0.94118585,greater than 0.02356751225,
-1.4550111,-0.37641881,0.65631373,-0.66173516,0.11956888,-0.45436255,0.27872903,1.9033896,-0.16567065,0.87965681,1.1623812,1.3179622,51.648468,-46.822172,56.63292,4.9140575,-30.995401,0.80825664,1.0256566,2.147802,0.90045146,1.2993826,2.1164137,2.227371,0.9653166,1.865062,0.73714085,2.2938183,0.80853962,0.62532563,0.98015894,less than -0.023711622,
-1.2459252,-0.71067552,-0.36059417,1.0505758,-0.01646361,-0.88747441,1.1312407,-0.24121976,2.2386264,-2.0099801,2.3198526,0.35198546,-24.011445,-20.419305,-38.396503,-35.739373,-7.3837615,1.3215279,0.33705559,0.60783838,1.7604739,2.1956578,0.5985849,0.43352522,1.8279663,0.53015776,2.3887947,2.2938183,0.9026257,2.4300803,1.2994131,greater than 0.02356751225,
2.1622725,1.2789305,-1.7600371,-2.0969403,0.68157743,-1.6047153,2.1680135,0.65886848,-2.1423403,1.0505758,1.3806803,-0.54379584,19.19587,57.754124,23.560802,-13.607283,14.896381,0.74396964,2.0345958,1.4522191,2.468254,0.53396625,0.62083673,2.2131944,2.166349,1.080809,0.49548589,2.4071073,2.0887355,0.7628326,0.49459156,less than -0.023711622,
-0.88219338,-0.042162098,-0.75684633,0.62623588,-0.42432897,-0.69623464,-0.17694126,-0.33436315,-1.5259613,1.3366489,0.67965483,2.0828475,-71.118715,-40.176361,-69.706699,-54.797137,66.716994,1.027585,1.1218197,0.923736,2.0345958,1.3032142,0.62083673,1.2531739,2.0581165,0.91715747,2.4071073,0.65468957,2.0903507,1.5505226,1.8621454,greater than 0.02356751225,
0.49084312,2.1408464,0.7132182,-0.66173516,0.68157743,-0.92769984,1.4439556,-0.24121976,0.6469594,-0.065994223,0.96984326,1.5705844,-26.234391,45.807122,56.63292,-35.739373,-43.257045,2.3128056,0.79899669,1.1010598,0.81936252,2.1956578,2.0235558,0.59749158,0.97041013,1.8279663,0.40294747,0.8052552,2.0903507,2.2550851,1.4391164,less than -0.023711622,
-0.36893206,0.39765427,0.27016235,-0.17538297,-1.4455612,0.67682347,0.19563249,-0.82303472,1.0168493,1.6303444,-0.96487668,-0.74574514,-23.945821,16.375502,-14.411764,-30.827663,49.330201,1.8779274,2.2561994,1.4150156,1.0679462,0.85066521,1.556893,0.93678983,1.4317415,0.7174915,1.4251538,0.87620955,0.93410466,1.6504297,2.1725898,between -0.023711622 and -0.00016276260500000002,
-0.19751737,0.11197014,-0.70579153,0.49339531,-1.7438984,-0.41976019,-0.25023285,1.1779606,0.48685317,-0.66227381,1.6541034,-0.34199966,2.3684118,67.908077,-47.901191,-50.351562,-16.900876,2.0583284,0.82956377,0.95411155,0.76012638,1.2949117,1.7617926,1.042816,0.61510635,0.7926556,2.313998,1.1293023,0.66971424,1.9623252,0.65402085,between -0.00016276260500000002 and 0.02356751225,
-0.75952366,0.62322216,1.1424214,-0.33762317,1.2081118,1.4191167,1.5429365,-0.12363561,-0.37340912,0.37011429,1.326797,-1.3950553,-10.586981,22.818784,-69.461377,-24.69519,29.414184,0.91596664,0.58128757,1.5938467,0.69512767,0.65402085,1.0277251,0.43368839,1.6110915,0.48286279,0.66732027,0.51428646,0.71532157,0.3956422,1.90177486,between -0.023711622 and -0.00016276260500000002,
-0.43053556,2.2183742,0.33759749,0.9128137,-1.416434,0.98313296,-1.5098994,0.027804376,0.78164615,1.315157,0.4554864,0.34898824,-47.077466,42.220202,-55.070019,-18.817544,-21.492798,0.63794265,2.152198,0.57274428,1.3162529,0.58128757,0.60106755,0.55316458,2.1199088,1.5370831,0.75649263,1.1215502,0.89463371,0.85883417,0.76258053,greater than 0.02356751225,
-0.7018147,-0.29003674,-0.56467758,1.3292038,1.8604485,1.8570238,0.84619308,0.022893999,-0.6364547,1.7250146,0.7034333,0.8405931,63.196687,-3.2827812,26.296126,58.997591,45.271723,2.2252791,0.66476158,2.4917304,0.76258053,0.66751415,1.9103287,1.4603237,0.48368678,1.9222945,1.5737383,0.31967143,1.2177957,0.74257145,0.58603222,0.90177486,between -0.023711622 and -0.00016276260500000002
0.5149106,1.124361,0.27016235,-0.87967006,-1.8504682,0.67682347,1.4465667,0.44474518,-0.41544864,0.52662256,-1.9737201,-0.40713528,-4.2035096,1.6141607,-20.801365,41.46508,3.5999783,0.43139509,0.88022465,0.64781672,0.76258053,0.85448706,0.56222723,0.93678983,2.1605173,0.6266162,0.78848165,1.1215502,1.6504297,0.3956422,0.90177486,1.6301415,between -0.00016276260500000002 and 0.02356751225
1.2319832,0.065124361,-2.0373385,0.63938284,0.12312597,0.12312597,-1.7440766,-0.41544864,0.2056451,0.37011429,-0.7034333,1.0789362,-19.33896,20.092432,43.501701,-30.827663,3.5999783,1.0136351,1.1515903,0.57274428,2.188369,2.1910425,1.305819,0.43368839,2.1199088,2.057408,0.66732027,1.2177957,0.71532157,2.1759456,0.60834942,1.1175856,between -0.023711622 and -0.00016276260500000002
0.98238134,1.1855306,-0.514006467,-0.33762317,-0.78598992,-0.60845908,-0.48768848,-0.027804376,-0.78164615,2.0960082,0.4554864,-1.807634,-40.768114,10.305333,-48.260594,-17.552492,29.414184,0.35273407,2.152198,2.4573565,2.2533111,1.2775365,1.305819,0.93678983,2.1605173,0.56360321,0.66732027,0.60577693,2.0076359,0.74257145,0.58603222,1.6301415,between -0.00016276260500000002 and 0.02356751225
-0.49338119,1.48181461,0.93846951,0.69339529,-0.39038136,-0.30276561,1.06065529,-0.8374921,-0.37607916,1.74068441,-1.01342161,-1.44481917,51.62923117,-14.98294222,-4.33913415,27.45489534,-20.60313567,2.05640617,1.48255485,1.91542947,0.70589518,1.43648749,1.75642314,0.86884797,1.98406849,0.67511267,1.44854357,1.01810626,0.74295592,2.16098552,0.62315412,between -0.023711622 and -0.00016276260500000002,
0.50983414,0.13564496,1.19725456,-0.62711474,-1.76119465,2.03296056,-1.65644569,-0.29528178,0.67149709,-0.86076522,-0.73410436,0.81929931,-10.44520845,32.18910249,-20.67625245,60.41137065,69.11114183,1.93410214,2.19435628,0.61596499,0.58681633,0.98307571,1.54947167,1.20289995,2.01176082,1.69549167,0.98778685,2.16207114,0.98019522,1.35794767,2.09478167,greater than 0.02356751225,
