JessupByun/synth-gen2eval-research/LTM_data/LTM_synthetic_data/LTM_llama_synthetic_data/synth_pumadyn32nh/pumadyn32nh--train--128-seed1_llama_default_0.csv
theta1,theta2,theta3,theta4,theta5,theta6,thetad1,thetad2,thetad3,thetad4,thetad5,thetad6,tau1,tau2,tau3,tau4,tau5,dm1,dm2,dm3,dm4,dm5,da1,da2,da3,da4,da5,db1,db2,db3,db4,db5,thetadd6
-0.906059,-0.2055249,1.121685,-1.393925,0.604959,1.369249,-1.072277,0.731098,1.879328,-0.322932,0.941456,-1.264361,28.060829,-11.44636,47.469054,-22.75465,45.099462,0.5915849,0.8708698,0.6815101,1.0191336,0.7019867,0.5238411,0.6541575,0.6594994,0.8708698,0.8609808,0.7514493,0.5527173,1.0557915,1.0347289,less than -0.023711622,
-0.519484,-0.861586,0.4961231,2.125335,-0.0407152,1.202413,1.089763,-0.9416952,1.8437238,-1.2046086,1.8855255,-0.5333756,-3.809209,32.254565,-15.888217,-25.571043,-34.746584,1.8987531,0.9864585,0.4264626,0.4300868,2.4643189,0.3800103,0.583453,2.004043,0.4487379,0.7335218,0.6906873,0.5736213,1.1028931,0.75675274,greater than 0.02356751225,
-1.629157,-1.629157,-0.8678185,-2.2578162,-0.5194839,0.9344023,-1.5667641,-2.3497794,1.7895239,2.0618489,0.0638855,-2.1141314,-25.250849,35.389009,-52.125244,-22.754648,-23.976291,0.3320475,0.4374508,1.0847842,0.2843844,0.6887979,0.309417,0.9778369,0.4698005,2.1876797,0.4487379,1.4377598,0.2780744,0.4900054,1.4119121,0.84503146,between -0.023711622 and -0.00016276260500000002
-2.1455383,2.2811284,1.0947763,-1.97366,-0.7978719,0.8687909,0.7947693,1.043589,-0.4211605,-0.4356023,1.8855255,-0.7884498,8.1622296,-67.407223,-68.979345,-25.071338,-4.3405598,0.5981733,0.971525,0.4264626,1.171808,1.8736482,1.30804,1.0674222,2.4142545,0.954695,0.8895198,1.686431,0.7835995,0.4126553,0.8044053,1.1028931,between -0.023711622 and -0.00016276260500000002
-0.906059,-2.114131,-0.643077,-0.5818792,-1.4365613,-1.241864,-2.2930703,-1.850062,-2.2278756,2.0618489,-2.1032335,-1.1403631,13.719162,-41.013466,-63.323322,-25.071338,-66.419325,1.411033,1.291158,1.1696492,0.5569236,2.3810108,1.825352,0.4295489,0.6777257,0.7335218,2.1414983,0.3975046,0.8289615,0.8151462,0.6945506,1.0582999,between -0.023711622 and -0.00016276260500000002
-1.668592,-0.5998801,1.8232545,-1.2272786,1.3590614,1.0947763,-0.8764292,-1.850062,1.176482,0.7371865,-0.0123387,-0.7884498,-47.103267,-6.8496636,33.07672,-49.900382,-25.726151,1.1718919,2.213401,0.6892221,1.2895201,1.5434922,2.149645,2.388298,1.4705906,0.6878572,0.8694334,0.9604222,0.4495844,1.1738052,1.4992245,1.6955812,greater than 0.02356751225
1.8164856,-0.8615859,0.4961231,-0.8683424,1.7515238,-0.5194839,0.7947693,-0.9416952,2.1900909,0.9067525,-1.4335824,-0.5333756,42.546692,-60.167886,46.309753,20.436394,-34.746584,1.8987531,0.9112424,1.0847842,1.7175425,0.3800103,0.583453,2.004043,0.4487379,0.7335218,1.4377598,0.6906873,1.1028931,0.7903435,0.9308578,0.75675274,between -0.023711622 and -0.00016276260500000002
-0.906059,-0.8615859,-0.643077,-2.2578162,0.0381011,-0.0407152,-2.145538,-0.9416952,2.1900909,-0.4948408,0.9143983,-2.1141314,-52.358684,57.59483,58.338703,-51.415194,-34.746584,1.1718919,2.1348219,0.4264626,0.5569236,0.6482528,0.309417,1.0674222,1.4705906,0.4487379,0.6906873,0.6914339,0.5736213,0.4119121,1.4992245,1.1028931,greater than 0.02356751225
-0.906059,-2.246614,-0.643077,1.6946745,-0.3345359,-0.4333363,-1.0038254,-0.0348168,2.3373722,-0.0510258,1.0226292,-0.1263359,42.546692,-60.167886,58.338703,-25.071338,-4.3405598,0.5981733,1.9986995,0.6892221,0.5569236,2.3810108,0.309417,1.0674222,2.4142545,1.686431,0.6906873,1.1028931,0.4126553,0.9308578,0.8044053,1.7240827,between -0.023711622 and -0.00016276260500000002
1.5039587,-0.8615859,-1.629157,-2.2578162,-0.0407152,-0.4333363,-1.5667641,-0.9416952,-1.0264974,0.7371865,1.8855255,-2.326539,20.342058,38.971731,-52.125244,-68.979345,-8.4946183,0.8373942,0.9864585,1.0847842,1.2895201,0.3800103,0.583453,0.4698005,0.954695,0.4487379,2.1865207,0.6906873,1.1028931,1.0582999,0.8044053,0.75675274,less than -0.023711622
0.3100854,-1.2458305,1.5231407,-1.2272786,0.0381011,-2.145538,1.3312033,-1.368719,-2.0507331,1.3848172,-0.9081547,0.7441943,6.6935365,7.4254858,-3.8092089,-49.900382,42.60579,0.8606553,1.2827587,1.4129072,1.2895201,0.4050527,1.30804,2.388298,0.6777257,2.1865207,1.8159137,0.6897609,1.934555,0.4126553,0.8044053,0.75675274,greater than 0.02356751225
-0.635193,-1.368719,0.1449805,-1.2272786,0.6080113,-2.326539,2.1092999,1.0947763,-1.6305558,2.0618489,0.9143983,0.7679267,23.232208,-25.236452,27.952051,45.816783,-34.746584,1.1434914,1.1882902,0.6892221,0.5569236,1.290588,0.309417,0.9778369,2.004043,1.686431,0.6906873,0.6906873,0.5736213,0.4126553,0.9308578,1.1028931,between -0.023711622 and -0.00016276260500000002
-0.109411,-2.012179,0.1450257,0.2815226,1.3590614,0.6349559,-2.1032335,0.09632139,-2.2958332,-0.4948408,0.9143983,-2.0594413,34.585,-60.167886,33.07672,45.816783,42.60579,1.1718919,2.0830714,1.4225698,0.5569236,2.4643189,1.3972997,0.583453,2.4142545,1.686431,1.8159137,0.8834278,0.6897609,1.4081314,0.8044053,0.75675274,greater than 0.02356751225
2.2819519,-0.098475,-1.0723623,-2.1455383,0.6080113,1.3332033,-1.3549184,-0.5202312,-1.6951968,-0.11780429,-1.4335824,0.2249463,20.342058,45.232853,-15.888217,-25.071338,53.598415,2.2201335,0.539106,0.4264626,0.5569236,1.5434922,2.161145,1.0674222,0.6777257,0.4487379,0.6906873,0.6906873,0.6906873,0.9308578,0.4126553,1.7240827,between -0.023711622 and -0.00016276260500000002
-0.016213,-0.162602,-0.643077,0.872765,-0.3345359,0.1450257,1.7675202,0.6276439,-0.4211605,1.7395572,-2.0594413,-0.1263359,8.1622296,57.59483,-63.323322,-68.979345,-34.746584,1.1172901,2.0909407,0.4264626,1.0178102,2.149645,0.583453,2.388298,0.4487379,0.4487379,0.6906873,0.6906873,0.6906873,1.4992245,0.8044053,0.75675274,between -0.023711622 and -0.00016276260500000002
-1.483137,-1.2458305,-0.643077,0.2815226,0.0381011,1.0947763,-0.3520985,1.187241,-1.0264974,2.0618489,-1.4335824,-0.5333756,-14.531443,-60.167886,-52.125244,-25.071338,42.266477,2.0866859,0.9378322,0.4264626,1.2895201,2.3810108,0.309417,0.9778369,0.954695,0.4487379,0.6906873,0.6906873,0.5736213,0.4126553,1.4992245,1.1028931,greater than 0.02356751225
-0.906059,-2.2278756,-1.241864,-0.5818792,0.0381011,-2.326539,-2.1032335,0.2778706,-2.114131,1.7395572,0.9143983,-2.009582,-25.250849,-25.236452,27.952051,-25.071338,58.338703,1.0221926,2.1109307,1.4225698,0.5569236,1.5434922,0.309417,0.9778369,0.6777257,0.4487379,0.4487379,0.6906873,1.1028931,0.4126553,0.8044053,0.75675274,greater than 0.02356751225
-0.8683424,0.1087747,-0.5194839,-0.906059,0.0381011,0.9344022,-0.0126382,0.2778706,2.3373722,-0.067429,-0.0123387,0.7679267,55.732125,-60.167886,2.480188,74.739232,42.266477,1.1921138,0.8597342,0.5378242,0.5569236,0.9939429,2.161145,0.583453,2.004043,0.4487379,2.1865207,0.6906873,0.4126553,0.9308578,0.8044053,0.75675274,greater than 0.02356751225
0.1450257,-0.162602,0.1450257,-0.5818792,-1.4365613,-0.0407152,1.7675202,-0.9416952,-2.2278756,0.3875621,0.9143983,-2.1141314,34.585,-29.967316,39.325306,-15.888217,56.84991,1.1718919,1.1882902,1.0847842,0.2843844,1.5434922,0.583453,0.9778369,0.4698005,0.4487379,0.6906873,2.1865207,1.1028931,0.9308578,1.4992245,0.75675274,greater than 0.02356751225
-0.6893262,1.3948193,-0.92781465,-0.2810593,-1.7013191,-1.4310569,0.93804665,0.6198423,1.0614613,-0.82212118,-1.646169,-1.0160616,41.939159,-60.449948,28.420895,-17.473131,-49.759153,1.3981642,0.69789756,0.51647448,0.85419367,0.9617668,0.88758321,0.46015936,2.0056703,1.7829626,0.55143595,1.8539625,1.4889394,2.4449047,greater than 0.02356751225,,
-0.12369842,0.56543966,2.1023344,-1.8700782,0.6003594,-1.6464251,-0.24576461,-0.98461571,-1.5659454,-0.34968569,-0.8198167,0.39968592,-68.479131,-22.911977,10.411736,-53.987011,44.678761,1.7373857,1.3946858,2.2563235,0.99173637,1.6613859,0.76849367,0.92623455,2.2120577,1.4557911,1.9250555,2.2691027,1.3526583,0.41299315,1.761746,less than -0.023711622,
0.98761264,1.6896543,0.61512496,0.70394239,0.94517364,-0.88590447,0.82716212,0.42598485,-0.647824,0.90356465,1.0293336,0.72942163,10.381054,-19.899772,-40.840109,-7.4351959,-0.67921765,1.4980348,2.2691139,1.3968246,1.0431817,0.47592614,0.64632523,0.76513635,2.2017469,1.7554564,0.96845464,0.619409,1.6587646,1.8591415,0.96132193,between -0.023711622 and -0.00016276260500000002,
-1.9346544,-0.8797318,1.926706,-0.68596139,1.4204914,-1.6880563,0.33461223,-1.4311226,-2.2959354,0.6851513,-0.92476094,-0.56555595,47.499265,38.134107,-16.530145,-40.876403,-29.630574,1.2814119,0.5676579,2.1998357,0.73712778,0.52385446,0.79412746,0.94413567,1.892476,1.1449144,1.0243828,0.6487674,2.2341068,0.43475514,0.96269512,greater than 0.02356751225,
-0.57668425,-1.7454991,0.70875736,-1.6553625,-0.38228785,2.2023922,0.39868919,-0.9818859,0.75968514,0.82476095,-0.75934462,-1.0122739,29.756378,11.555355,53.111531,-38.695176,-34.980455,0.90578966,0.69575724,1.4197077,1.5056763,0.92415152,2.0401038,1.0132258,0.53187091,0.64481636,0.77849345,1.9453247,0.59602573,0.62744435,1.4462539,between -0.023711622 and -0.00016276260500000002,
2.0839365,0.62778675,-0.8402095,1.3829955,-1.6476954,0.6871627,0.56585959,-0.24211542,-0.9067838,0.92468536,0.74542433,1.1146952,-22.649007,24.191305,-69.23116,66.504395,39.151107,0.95568985,0.62715646,0.43417873,1.8653519,1.4220567,1.7911625,0.96596456,0.67707765,1.5554196,2.1063556,0.37374498,0.8145422,1.3708654,1.4709566,less than -0.023711622,
0.63225964,-1.1039528,0.96076526,1.3709411,-1.6251676,-1.8453265,-0.87082925,-1.743112,0.82974363,0.94112184,1.0167036,-1.1037412,20.661219,37.396227,45.610654,-25.993678,-48.36671,0.65642967,1.5466865,1.767426,0.93384772,2.0113836,2.3925178,0.63815788,2.1546575,0.71285087,1.6545179,2.2063042,2.0505555,1.4516314,0.70840679,between -0.00016276260500000002 and 0.02356751225,
0.76858734,-0.75934933,0.76547649,-1.6288326,-0.40676513,1.549201,1.0442493,1.8231914,0.55018734,-1.7649212,-0.3992044,-0.8602815,-14.335632,-52.661744,-3.440158,-21.662499,39.879204,1.960645,2.2462892,1.6047836,1.0117567,2.0115048,1.4308133,2.3574283,0.84019197,1.7163415,0.4359268,0.66167016,2.3965234,0.99818417,0.52535618,greater than 0.02356751225,
-0.38259737,0.95641966,0.68676416,0.6796432,0.43974015,0.99338129,0.25333607,-0.62155558,-0.859475,0.6095643,-0.5098543,-0.34917824,35.169011,42.679221,-30.837378,-36.273294,32.177252,0.93579182,2.3513493,1.7361622,1.4261817,0.50511034,0.72973955,1.6613415,2.1049028,0.9812132,0.62576795,0.63062134,0.70513334,2.3817643,1.5427349,between -0.023711622 and -0.00016276260500000002,
1.7598044,-0.6553949,2.2351427,0.65529937,0.64670825,-0.96055173,0.685634,0.6951792,0.75814326,0.93664367,1.0496906,-1.1167564,-37.739213,-41.964926,68.331446,-19.124235,17.110729,1.3263027,2.1830614,2.034987,0.76117654,1.7532597,2.1845767,2.3498216,2.0463603,1.509746,0.77810885,2.0059813,0.9211293,1.4748827,0.97644456,less than -0.023711622,
-1.6239565,-1.5239682,-0.66669262,-1.7360327,0.43251792,0.69230558,1.4995944,0.77819477,-1.4937254,1.1309875,-0.55581446,0.97754227,2.5173178,-64.525304,-27.870135,28.359111,-66.338111,0.52018397,2.0629611,0.84098767,1.4445868,2.3386254,1.4274215,0.80872324,0.6905652,0.64635234,1.6244935,0.47517708,1.761641,1.5334294,2.4461086,greater than 0.02356751225,
1.5498045,1.5707069,-1.6491353,0.63091425,-1.8456864,-0.64459477,1.0917607,-1.1169877,0.62545614,1.134387,-1.5092177,1.400576,-56.425997,59.374912,-39.666702,23.398235,41.348387,1.7559556,1.8241119,0.9849818,2.0116231,1.8297439,1.689348,1.5461795,2.467627,1.4751516,0.86116455,1.947124,2.1771084,1.6703524,2.3249811,between -0.00016276260500000002 and 0.02356751225,
-0.8191296,0.3541917,-0.78981314,0.93553141,0.49955556,-2.0401023,-1.1126485,0.95058885,-1.1238323,1.273911,0.41174331,-0.60912346,-15.555352,-13.455829,-22.615812,55.235365,-20.771907,0.9846677,2.4446543,2.2026276,2.1595559,0.65418536,2.1514685,0.90115363,0.86149946,2.0104566,1.8591335,2.3238575,2.0625113,0.73317647,1.5338158,less than -0.023711622,
1.474335,-1.5059411,1.6272616,-1.3498553,0.70598258,-1.6553725,-1.4089872,-0.65679146,0.7992195,-0.65044229,-0.5091952,0.6507871,21.124987,-67.824966,-54.434107,-5.533355,-4.6251453,2.1084318,1.6863822,0.84047555,2.3848165,1.5503833,0.99724561,0.73339059,2.169399,0.94249138,1.4395648,2.4451816,0.66665486,2.1455865,0.43437556,greater than 0.02356751225,
-1.1054491,2.2475413,-0.7230118,-1.4495656,1.0114567,-1.5702138,1.4089455,1.7784397,-0.65067008,1.2156676,-1.4344428,0.69091182,51.370631,-40.429699,-29.950698,-42.695355,-24.870661,2.1917645,0.97751725,0.97594135,1.7996288,0.60040364,1.7454914,0.96267068,2.333499,0.76612142,2.174824,1.414824,2.1765115,0.79421387,2.2887567,less than -0.023711622,
-1.5494292,-0.6487347,-0.79141985,2.0639375,0.44917935,0.63512334,-0.66763146,1.3496548,-1.4114455,1.1373312,0.41974385,1.6543356,29.941942,-68.34216,11.335446,-17.444503,6.2464955,1.3551816,2.1947076,1.902185,0.93593996,2.4014086,2.1821428,2.2017566,2.0476952,2.1028215,0.53679229,1.6906216,0.96935573,0.96269512,1.4813612,between -0.023711622 and -0.00016276260500000002,
-1.023681,0.6272193,1.4464915,0.8707619,-0.4141895,-0.1063554,-0.7031426,-1.245431,-0.7711591,1.4461919,-1.822764,-1.4116937,40.771057,-30.69961,-14.29968,-24.44556,-60.47548,1.6619284,1.425476,0.8644227,1.7498319,0.5593841,0.9377053,1.463299,1.737425,0.7062194,1.2406432,1.6541098,0.9516655,1.444625,0.9111794,between -0.023711622 and -0.00016276260500000002,
-0.3345406,0.2696762,1.9565651,-1.688381,-0.9826546,-0.4429239,1.009987,-0.2363253,2.0756712,0.6863989,1.3723543,-2.158409,31.398955,-46.67578,18.832587,10.759361,-13.44991,1.8994794,0.6762119,2.1581113,1.381493,1.689928,1.9020567,0.3272978,0.9626546,1.767425,2.0497356,0.7347669,0.7619355,2.2726545,0.7784911,between -0.00016276260500000002 and 0.02356751225,
0.9562941,-2.2424098,0.8457848,1.5315811,0.1772969,0.6468192,-0.8243436,1.9243697,0.6661957,-1.7561557,-0.6616572,0.9357928,16.179823,-33.85964,26.391804,-17.68814,-28.40749,1.374391,0.7347656,2.394857,1.505586,2.3857669,0.7589117,2.198813,0.9478821,2.1924442,0.6579119,2.1684936,2.0564812,0.6764114,0.8443352,greater than 0.02356751225,
0.4958779,-1.4002367,-0.6410434,-0.3842974,-2.086213,-0.6592738,1.351911,-1.0528546,-0.8324595,1.7765873,2.2592478,0.7349872,-4.4546855,-22.84018,-2.4932625,40.451335,-45.54059,2.1050586,1.985949,1.4484258,2.0449955,2.0498148,2.2725177,0.8164386,0.6904913,0.6280562,1.3985177,2.3577956,1.4223398,1.3664678,0.9455653,between -0.023711622 and -0.00016276260500000002,
-1.8274686,1.5558168,-0.707305,-1.6613398,-0.6899625,-0.4154226,0.7995948,-0.4112558,-0.555564,-0.8233419,-1.522196,-0.9851789,57.689415,2.3944844,-42.73422,21.398982,-57.24551,0.8542874,1.4483959,0.9504593,0.7928475,0.3444126,0.5186549,1.8494298,1.7614935,1.4249366,1.398435,2.215745,2.236551,0.8571111,2.032344,less than -0.023711622,
-0.0216286,-0.354444,-0.1822413,-0.9373986,-0.9245355,-0.9557962,1.5303814,0.9253957,0.6152172,-0.6861167,-2.032684,-0.6258994,-21.39971,-45.30055,-59.88258,-13.64745,13.95535,1.829776,2.062761,1.451551,1.3287434,0.6258022,0.7655646,2.145549,1.5096324,0.993491,2.3862725,0.737135,2.2034768,0.6831221,0.6239555,between -0.00016276260500000002 and 0.02356751225,
-0.387819,-0.624956,-2.0906994,-0.6859425,1.1296471,0.6502195,-0.870686,-0.7787968,1.4223555,2.2039458,-2.1268452,0.7673821,60.34286,-28.345164,31.459335,-46.64121,-39.824835,2.0328046,0.4304438,2.0624815,1.7677648,2.179444,1.334865,1.4097344,1.956194,1.2464192,1.6283886,2.1921942,0.7785859,0.6863744,2.457419,less than -0.023711622,
0.8195315,0.8497913,0.7346609,0.689939,0.7761519,2.0241136,-0.979586,-0.6564115,1.2407789,-1.5849822,-0.5429392,0.9267944,34.11137,-21.73696,-30.98783,26.19175,-55.96148,0.9848195,2.272764,0.760145,2.154331,2.3239386,2.216546,0.9689876,2.168832,0.9641668,0.8053065,2.2554136,0.9654193,2.2063545,0.7238465,greater than 0.02356751225,
1.5274385,1.111993,2.1585563,1.5556856,0.6438243,0.9813445,0.6881872,-0.6893813,-1.7992399,-0.5519075,-0.761783,0.8645868,33.63052,24.24698,-35.43902,28.41994,10.42046,2.459814,0.9156489,0.8158194,1.366444,1.8248795,0.6512112,0.8499826,0.660387,0.723624,1.4471593,1.451319,1.326695,0.9871582,0.6275645,between -0.023711622 and -0.00016276260500000002,
0.6513411,1.375362,0.9256563,0.9002327,-2.1789256,0.6547611,-2.005414,-1.349756,1.695471,1.240225,0.935964,0.6902538,-32.84664,-48.62579,-55.374915,61.755955,-62.39967,2.165955,0.8555556,0.8211818,1.7569117,2.412321,0.9645656,2.235764,1.4113622,0.9612993,1.395161,1.750428,0.9964692,0.7909938,0.7992133,1.0076412,less than -0.023711622
-1.2567071,-1.341982,-0.7762247,1.4193952,-0.6566953,-0.4444443,-0.3351946,0.9001315,0.690474,-2.1058194,1.4143542,-2.1874065,-28.65469,-39.77482,59.67033,-47.39077,-38.12476,2.2203245,0.9646955,2.208462,1.3201933,0.9641229,2.232493,2.187408,0.7514555,1.352323,1.630429,0.9616568,1.4641793,0.6486718,2.0328197,less than -0.023711622,
-0.5092534,-0.2355146,-1.760581,1.4259126,1.4306416,-1.4123877,-0.6841246,1.0056152,0.773398,-0.655124,-1.7871116,0.9055552,-0.6486113,-53.21366,63.44526,-8.987414,-4.439282,1.6553194,2.187459,2.160399,2.0797976,2.115273,0.6487456,0.7428994,1.7234117,2.0116322,1.3261154,2.429628,0.8085945,2.1753355,1.5553418,greater than 0.02356751225,
0.9860596,0.5983435,-1.6863956,-0.4274641,0.7964197,2.1933416,0.8239119,-1.1163954,-1.419678,-0.9792816,-0.6280343,0.739982,-4.255955,-26.46059,-66.270195,13.787235,-22.843185,1.621702,1.411352,2.3647396,1.760542,1.3981768,0.7823992,1.6308793,2.205399,0.7738792,2.147464,0.6884591,2.4038995,0.699766,0.6344891,between -0.023711622 and -0.00016276260500000002,
0.7598216,-0.9813046,-0.7823397,-0.6661857,0.6884422,-0.9823041,0.8503727,-0.6899397,-1.4403992,0.9601423,-0.6548324,-0.6554547,30.35113,1.409756,-10.94174,-32.67915,13.84083,1.981764,2.384249,2.184755,2.070191,2.335444,0.855983,2.395549,1.433911,0.6246562,1.387865,2.186625,0.786655,0.7767342,1.0066454,less than -0.023711622,
-0.629339,0.696791,0.6255862,-1.6442091,0.658899,0.9644114,-0.7627956,2.1234015,1.394584,0.9821917,-0.6487656,-1.0113445,42.12408,14.37061,-29.12451,-3.914107,-33.82118,1.824445,2.285734,0.984352,1.712499,0.789439,0.7879647,1.422931,0.6959879,1.6516315,0.7513793,0.8299822,2.393765,0.732555,1.3544393,between -0.00016276260500000002 and 0.02356751225,
0.6387741,1.525625,2.150191,1.7378166,-1.430219,-0.4511116,-1.425225,0.6543417,-1.447995,0.6563956,1.0608611,-1.7841766,-61.23531,-19.51727,-1.448471,-47.36094,-20.39836,2.142635,1.778956,0.861111,1.436758,2.190419,0.646406,0.6851576,0.6549624,1.7599995,2.220509,2.153565,0.7732516,0.6251118,0.9116212,less than -0.023711622,
-0.113121,0.984213,-0.397156,-0.245789,1.677987,-1.819531,-0.517632,0.269841,-0.975671,-1.444739,1.351985,-0.612819,-22.419721,-36.191171,51.648232,-29.130201,-13.761395,1.941113,1.459821,0.985631,1.628819,1.394821,2.184941,0.792631,1.965492,0.271895,0.934213,1.823104,0.467191,0.619652,1.270986,less than -0.023711622,
0.984213,-1.113121,-0.677987,-2.245789,0.677987,-0.397156,0.612819,-0.269841,1.975671,-0.444739,-1.351985,0.612819,-13.761395,-51.648232,-22.419721,-36.191171,51.648232,-29.130201,0.985631,1.628819,1.394821,2.184941,0.792631,1.965492,0.271895,0.934213,1.823104,0.467191,0.619652,1.270986,0.498224,greater than 0.02356751225,
-1.444739,-0.612819,-1.351985,-0.612819,1.444739,-0.271895,0.934213,1.823104,0.467191,0.619652,1.270986,0.498224,-36.191171,51.648232,-13.761395,-22.419721,-36.191171,-51.648232,2.184941,0.792631,1.965492,0.271895,0.934213,1.823104,0.467191,0.619652,1.270986,0.498224,0.934213,1.823104,0.467191,less than -0.023711622,
-1.113121,0.984213,-0.397156,-0.245789,1.677987,-1.819531,-0.517632,0.269841,-0.975671,-1.444739,1.351985,-0.612819,-51.648232,-22.419721,-36.191171,-51.648232,-13.761395,1.941113,1.459821,0.985631,1.628819,1.394821,2.184941,0.792631,1.965492,0.271895,0.934213,1.823104,0.467191,0.619652,1.270986,greater than 0.02356751225,
-0.677987,-0.113121,-2.245789,0.677987,-0.397156,-0.612819,-0.269841,1.975671,-0.444739,-1.351985,0.612819,0.271895,-22.419721,-36.191171,51.648232,-29.130201,-13.761395,0.985631,1.628819,1.394821,2.184941,0.792631,1.965492,0.271895,0.934213,1.823104,0.467191,0.619652,1.270986,0.498224,0.934213,less than -0.023711622,
0.612819,-1.351985,1.444739,-0.271895,0.934213,1.823104,0.467191,0.619652,1.270986,0.498224,-0.934213,-1.823104,-36.191171,51.648232,-13.761395,-22.419721,-36.191171,-51.648232,2.184941,0.792631,1.965492,0.271895,0.934213,1.823104,0.467191,0.619652,1.270986,0.498224,0.934213,1.823104,0.467191,greater than 0.02356751225,
-0.245789,-0.113121,-0.397156,-0.677987,-0.612819,-0.271895,0.934213,1.823104,0.467191,0.619652,1.270986,0.498224,-51.648232,-22.419721,-36.191171,-51.648232,-13.761395,1.941113,1.459821,0.985631,1.628819,1.394821,2.184941,0.792631,1.965492,0.271895,0.934213,1.823104,0.467191,0.619652,1.270986,less than -0.023711622,
-2.245789,-0.245789,-0.113121,-0.397156,-0.677987,-0.612819,0.612819,-0.269841,1.975671,-0.444739,-1.351985,0.612819,-13.761395,-51.648232,-22.419721,-36.191171,51.648232,-29.130201,0.985631,1.628819,1.394821,2.184941,0.792631,1.965492,0.271895,0.934213,1.823104,0.467191,0.619652,1.270986,0.498224,greater than 0.02356751225,
0.271895,-1.351985,-1.444739,-0.271895,0.934213,1.823104,0.467191,0.619652,1.270986,0.498224,-0.934213,-1.823104,-36.191171,51.648232,-13.761395,-22.419721,-36.191171,-51.648232,2.184941,0.792631,1.965492,0.271895,0.934213,1.823104,0.467191,0.619652,1.270986,0.498224,0.934213,1.823104,0.467191,less than -0.023711622,
-1.097697,-0.444739,1.975671,-0.444739,-1.351985,-0.612819,0.934213,1.823104,0.467191,0.619652,1.270986,0.498224,-51.648232,-22.419721,-36.191171,-51.648232,-13.761395,1.941113,1.459821,0.985631,1.628819,1.394821,2.184941,0.792631,1.965492,0.271895,0.934213,1.823104,0.467191,0.619652,1.270986,greater than 0.02356751225,
0.498224,-0.934213,-1.823104,-0.934213,0.498224,0.619652,1.270986,0.498224,-0.934213,1.823104,0.467191,0.619652,-22.419721,-36.191171,51.648232,-29.130201,-13.761395,0.985631,1.628819,1.394821,2.184941,0.792631,1.965492,0.271895,0.934213,1.823104,0.467191,0.619652,1.270986,0.498224,0.934213,less than -0.023711622,
-0.934213,-1.823104,-0.467191,0.619652,-1.270986,0.498224,0.934213,1.823104,0.467191,0.619652,1.270986,0.498224,-36.191171,51.648232,-13.761395,-22.419721,-36.191171,-51.648232,2.184941,0.792631,1.965492,0.271895,0.934213,1.823104,0.467191,0.619652,1.270986,0.498224,0.934213,1.823104,0.467191,greater than 0.02356751225,
0.619652,-1.270986,-0.498224,-0.934213,0.467191,0.619652,1.270986,0.498224,-0.934213,1.823104,0.467191,0.619652,-51.648232,-22.419721,-36.191171,-51.648232,-13.761395,1.941113,1.459821,0.985631,1.628819,1.394821,2.184941,0.792631,1.965492,0.271895,0.934213,1.823104,0.467191,0.619652,1.270986,less than -0.023711622,
-0.467191,0.619652,-1.270986,-0.498224,-0.934213,0.467191,0.619652,1.270986,0.498224,-0.934213,1.823104,0.467191,-22.419721,-36.191171,51.648232,-29.130201,-13.761395,0.985631,1.628819,1.394821,2.184941,0.792631,1.965492,0.271895,0.934213,1.823104,0.467191,0.619652,1.270986,0.498224,0.934213,greater than 0.02356751225,
-1.823104,-0.467191,-0.619652,0.934213,-1.823104,-0.467191,0.619652,1.270986,0.498224,-0.934213,1.823104,0.467191,-36.191171,51.648232,-13.761395,-22.419721,-36.191171,-51.648232,2.184941,0.792631,1.965492,0.271895,0.934213,1.823104,0.467191,0.619652,1.270986,0.498224,0.934213,1.823104,0.467191,less than -0.023711622,
-0.934213,-1.823104,0.467191,-0.619652,-1.270986,0.498224,0.934213,1.823104,0.467191,0.619652,1.270986,0.498224,-51.648232,-22.419721,-36.191171,-51.648232,-13.761395,1.941113,1.459821,0.985631,1.628819,1.394821,2.184941,0.792631,1.965492,0.271895,0.934213,1.823104,0.467191,0.619652,1.270986,greater than 0.02356751225,
-1.8459835,1.0596701,0.4699113,1.7349465,-1.4599605,1.9606182,-0.6506874,1.0476325,-1.6304742,0.8197973,-0.3988546,0.9377963,13.517364,-22.110317,-3.4466243,34.819281,28.374441,1.9840627,0.9411763,1.6123874,1.0598249,2.2459807,1.4593603,1.7394937,0.6288192,1.9608468,0.5173984,2.3804938,1.7534676,0.975654,greater than 0.02356751225,,
-0.5179932,0.8841294,-0.9842376,0.7814698,0.6497054,-2.1049261,2.0698337,-0.64051734,-0.3287912,-0.62332619,-0.60261145,-0.37408076,-45.400655,-27.50942,-34.319043,22.103445,14.43826,0.80155759,0.38839907,1.9347973,0.38839907,0.5173984,0.7917282,0.79231851,2.3804938,0.6288192,0.88972963,1.6859135,0.88972963,0.88972963,greater than 0.02356751225,,
-0.89558234,0.25636905,-0.17018347,0.1465619,-0.23256235,1.4819498,2.1539813,1.3913777,2.0115658,1.7080268,-1.0677189,-0.37408076,60.854368,-70.641747,-25.848067,-28.454133,-28.606428,1.8374465,2.2139556,0.95212973,1.9443545,1.2664183,1.1917282,1.3759246,1.164081,2.4602002,1.8355492,1.8246373,0.67921492,0.56524263,less than -0.023711622,,
0.98964658,-2.1049261,1.6711203,2.3134223,-1.3610918,-2.1042532,-1.5885625,1.425431,-0.56646734,-1.5908076,1.3925462,-1.9127033,13.0906985,-6.506805,-6.506805,13.626431,13.090699,-1.9740956,2.0853884,2.372642,1.7443919,1.54438055,0.97040755,1.6726456,1.5919837,0.97040755,2.1552235,0.97040755,2.124680025,1.7033199,between -0.023711622 and -0.00016276260500000002,,
0.98964658,2.3165812,-0.83094483,1.1785268,-1.855415,-0.46987803,0.72390955,-0.64051734,-2.0784266,0.82393264,-1.8753355,-2.3057557,-61.472397,33.428116,-73.647618,4.4785647,-28.763324,2.0853884,2.372642,1.7443919,1.9947947,0.76469999,1.6726456,2.1552235,1.5919837,0.97040755,0.97040755,0.88972963,1.6859135,0.88972963,greater than 0.02356751225,,
0.98964658,-0.68205859,-1.4083543,2.024721,1.310364,2.294028,-1.0388657,-0.81412075,1.8501493,-1.595763,-1.7829039,0.81648819,7.6484736,-2.1038566,40.481882,-21.005468,61.105214,0.55497119,0.4008347,1.8287469,2.2498253,0.81324103,0.89191495,2.4145049,1.0831472,1.2046007,1.7238814,1.5252563,2.232507,2.2459703,greater than 0.02356751225,,
1.1514858,-0.75935965,-1.7152426,0.11839052,1.1613164,-0.46987803,0.72390955,-0.64051734,-2.0784266,0.82393264,-1.8753355,-2.3057557,58.90346,-9.5526849,-51.975641,45.400655,-1.1878977,1.1500398,0.46862981,0.51127755,1.7917108,0.78378811,0.87675547,1.8792176,2.2603448,2.115413,0.74587502,0.42144427,1.7138111,1.0229441,between -0.023711622 and -0.00016276260500000002,,
-0.721376,0.81044538,2.3512989,0.1865234,1.1600623,2.0146715,2.0698337,0.83903549,2.2016284,1.0905887,-1.6681191,-2.0754234,-17.120369,-42.048568,-60.276234,37.333149,8.2290327,1.4552796,0.63379256,2.1516033,1.4974314,0.3296239,1.9888821,0.39198837,1.6485707,0.27735049,0.92960707,1.4060082,0.52963506,2.0764869,1.2645773,between -0.00016276260500000002 and 0.02356751225,
0.98964658,-0.68205859,0.29559625,0.981564,0.76415086,1.8235643,-0.7323801,-0.35224034,-1.3427805,-0.48027807,0.28872395,-1.1772124,52.45129,-1.1741671,65.772933,-54.319043,-40.149924,2.1284972,2.4031003,0.65637347,1.4189404,1.8817112,1.420112,1.321919,2.49343,2.3288244,1.0519961,1.8992768,1.8944351,1.5200796,less than -0.023711622,,
1.2770444,-1.646736,-0.46890028,1.8311233,-0.23256235,-1.6809703,-1.2962864,-1.3106518,2.2928616,-1.7927969,-0.52299255,-1.3303972,9.5244968,28.217726,-44.676109,28.636539,-55.695947,2.3983064,1.0859192,0.54387142,0.59698513,2.2790316,1.1835162,0.60691263,0.38064611,2.2692176,0.48983744,1.4478182,1.229982,0.80715622,greater than 0.02356751225,,
-1.0826271,-1.1798198,0.50156376,-0.6817203,-1.855415,-2.0821461,-0.42945748,1.4880707,1.3561844,-0.43507256,1.3632058,-0.23496487,-2.3128054,-21.321139,5.618102,73.440727,-31.694512,0.78001052,0.38685904,0.93989041,0.98817411,2.4922972,1.2887883,1.4146592,1.9267101,1.7162534,1.5714917,0.81051161,2.2685868,1.1380694,between -0.023711622 and -0.00016276260500000002,,
0.98964658,-1.7429598,-1.7152426,2.3134223,-1.3610918,-2.1049261,-1.5885625,1.425431,-0.56646734,-1.5908076,1.3925462,-1.9127033,35.430724,-15.826556,-46.925727,19.310076,-55.549986,0.94575025,0.47441441,0.98297419,0.59715304,0.60112053,2.0328138,0.75212831,2.0204285,1.8422461,1.8806977,2.3866063,2.4413596,2.4300717,less than -0.023711622,,
1.1585558,0.25636905,1.6711203,0.68114642,1.635101,-1.5103681,0.88250446,-2.3480846,1.9993757,-0.53760469,-1.8722966,1.6451218,62.904647,38.399172,74.886126,-38.884209,23.097216,1.2987129,1.7178481,1.3723473,1.7912472,1.9909725,1.7739945,2.2759402,0.97619946,1.4843394,0.79231851,2.4972606,1.4597002,0.68062337,greater than 0.02356751225,,
1.1585558,0.25636905,1.6711203,0.68114642,1.635101,-1.5103681,0.88250446,-2.3480846,1.9993757,-0.53760469,-1.8722966,1.6451218,13.0906985,-6.506805,8.881597,13.626431,13.090699,1.4552796,0.63379256,2.1516033,1.4974314,0.3296239,1.9888821,0.39198837,1.6485707,0.27735049,0.92960707,1.4060082,0.52963506,2.0764869,1.2645773,greater than 0.02356751225,
-0.721376,0.81044538,2.3512989,0.1865234,1.1600623,2.0146715,2.0698337,0.83903549,2.2016284,1.0905887,-1.6681191,-2.0754234,9.5244968,28.217726,-44.676109,28.636539,-55.695947,2.3983064,1.0859192,0.54387142,0.59698513,2.2790316,1.1835162,0.60691263,0.38064611,2.2692176,0.48983744,1.4478182,1.229982,0.80715622,greater than 0.02356751225,,
1.1585558,1.0596701,-0.83094483,0.981564,0.76415086,1.8235643,-0.7323801,-0.35224034,-1.3427805,-0.48027807,0.28872395,-1.1772124,-7.5794975,-38.615197,44.386824,59.355607,-60.314053,2.0853884,2.372642,1.7443919,1.9947947,0.76469999,1.6726456,2.1552235,1.5919837,0.97040755,2.1552235,0.97040755,2.124680025,1.7033199,between -0.023711622 and -0.00016276260500000002,,
-1.267164,0.485094,0.127888,0.910451,0.82951,0.074679,0.466558,0.024147,0.566195,1.727568,2.209199,1.091343,-23.8802,17.403319,-2.422799,5.015211,-9.348302,1.496232,1.397437,1.592609,1.481021,1.268897,1.365629,1.224118,1.524939,1.242282,1.233375,1.164537,1.395902,1.669674,1.154329,1.395807,less than -0.023711622
-0.762463,-0.251075,-0.798218,-0.435995,0.406904,0.890128,-0.707282,-0.291483,-0.1314,-0.772235,-0.772235,0.574731,-32.83972,42.516074,-1.498386,16.745002,-12.553211,1.578645,1.356232,1.617988,1.474468,1.308184,1.477114,1.281684,1.574414,1.068248,1.146926,1.172106,1.307953,1.680629,1.008749,1.351583,greater than 0.02356751225
0.485095,1.040235,-0.798218,1.128355,1.646751,0.074679,1.171366,0.772471,-0.1314,0.550836,0.961648,1.089328,-56.701,-23.753813,-36.81276,31.934574,22.754889,1.904806,1.778101,2.263117,1.864501,1.891044,1.932215,1.690876,1.947306,1.620523,1.780329,1.680076,1.770692,2.032491,1.842213,1.931388,between -0.023711622 and -0.00016276260500000002
0.074679,1.040235,1.418937,0.545603,0.406904,0.890128,0.466558,0.024147,0.566195,1.727568,2.209199,1.091343,-49.542648,-49.542648,37.508073,37.508073,37.508073,2.009922,0.758782,1.350227,0.538632,0.292178,0.382931,2.406978,0.573999,0.69949,1.572294,0.798696,1.675731,2.257289,0.261498,0.69949,between -0.00016276260500000002 and 0.02356751225
-0.239535,-1.62799,-1.865999,-0.239535,-1.865999,-1.865999,-1.865999,0.466558,0.024147,0.566195,1.727568,2.209199,1.091343,-10.001517,54.503998,-1.310123,-1.310123,1.772603,1.383459,1.787778,2.185263,2.465533,1.469191,0.45047,1.295315,0.850557,0.31394,1.641463,2.320475,2.474436,0.348704,0.850557,less than -0.023711622
0.485094,1.040235,1.418937,1.128355,1.646751,0.074679,1.171366,0.772471,-0.1314,0.550836,0.961648,1.089328,-32.83972,42.516074,-1.498386,16.745002,-12.553211,1.578645,1.356232,1.617988,1.474468,1.308184,1.477114,1.281684,1.574414,1.068248,1.146926,1.172106,1.307953,1.680629,1.008749,1.351583,greater than 0.02356751225
-1.267164,0.485094,0.127888,0.910451,0.82951,0.074679,0.466558,0.024147,0.566195,1.727568,2.209199,1.091343,-23.8802,17.403319,-2.422799,5.015211,-9.348302,1.496232,1.397437,1.592609,1.481021,1.268897,1.365629,1.224118,1.524939,1.242282,1.233375,1.164537,1.395902,1.669674,1.154329,1.395807,less than -0.023711622
0.074679,1.040235,1.418937,0.545603,0.406904,0.890128,0.466558,0.024147,0.566195,1.727568,2.209199,1.091343,-49.542648,-49.542648,37.508073,37.508073,37.508073,2.009922,0.758782,1.350227,0.538632,0.292178,0.382931,2.406978,0.573999,0.69949,1.572294,0.798696,1.675731,2.257289,0.261498,0.69949,between -0.023711622 and -0.00016276260500000002
1.8158159,0.98637016,-0.26115822,-2.052068,0.86874804,2.0672017,-0.98422625,-1.4052811,-0.065898013,-0.13649053,0.93713162,1.567238,-53.668254,-52.339476,-69.568612,10.33999,-65.782671,1.9847456,0.61867735,2.3602927,1.1896544,0.27126537,2.1570789,1.2749566,0.69486686,0.37730278,2.3277548,1.0756164,0.63522851,1.5354906,0.99071477,2.4431811,between -0.00016276260500000002 and 0.02356751225
-0.97567268,0.98290216,-1.9991327,-0.089155487,0.1034199,-0.69327841,1.8076726,0.78130845,-1.9770291,-0.87288672,-0.94017573,-0.89324489,28.791377,-3.3268167,36.192387,35.446717,-47.024817,1.4336142,1.0036649,1.8453027,1.5017646,1.158083,0.65181749,1.3465967,1.0001374,1.0587359,0.4240444,0.41421826,1.7663417,1.9048168,0.50569126,2.4030379,less than -0.023711622
-0.83556292,-0.38686796,1.0070462,-1.4765123,-0.30260478,-1.2107788,-1.463946,-1.1578946,1.4312514,-1.7028984,-2.2758001,1.0886561,-37.053219,46.554498,41.455131,-13.614705,-72.353421,1.4657315,0.79979288,2.1188987,0.82963579,1.9386737,0.28864409,1.7412357,0.69791823,2.1616437,1.4961168,0.73459779,2.1349791,1.0932255,1.8406558,2.1518995,between -0.00016276260500000002 and 0.02356751225
1.1440776,1.9650527,2.2180162,-1.5109512,0.50806516,0.20239294,-0.72675022,0.021275558,-0.563257,0.52900103,-1.35773,-1.9811482,18.525968,-34.047996,5.3241696,-66.682119,73.632031,1.8781585,2.4595653,2.4147173,2.4035447,1.3750894,0.62747213,1.6740899,1.6789817,0.64573234,0.32338172,0.57664483,2.4196007,1.2283112,1.9770707,2.1278813,greater than 0.02356751225
-0.68936334,1.6349091,-0.022918466,1.2252327,-0.6543737,0.65711937,-1.6345254,1.76015,-1.5373007,0.61634237,1.0351955,0.39128842,-67.183189,52.136261,-45.85502,14.683226,30.97942,1.6915595,0.54097687,1.4481975,0.85544021,1.3836,1.9150377,1.2884115,1.8321501,0.94676318,1.7488337,2.3981616,0.9027323,1.9716889,1.674736,1.2876171,less than -0.023711622
-0.90094788,-1.3251432,-0.93102276,2.1442141,2.1680122,1.5891539,-0.91161882,-1.6008864,1.642712,-0.82587919,2.1464536,2.1083629,-60.810207,62.851563,46.21773,-68.618163,-65.457678,0.66708788,1.4959901,0.85504858,1.5514787,1.9517602,1.983747,1.836175,1.0939057,2.0223868,1.0055999,0.61684878,0.87739677,1.4074312,1.9456597,0.70236168,less than -0.023711622
-1.3496908,0.61628155,0.91141915,0.49549387,-0.9828894,-1.0616955,-1.4454423,-0.6461578,2.1566323,-2.0479454,-0.8821645,1.9504971,12.938191,-53.824143,28.411077,-22.919531,-1.4358047,0.9362196,0.9826178,1.8579626,1.3984196,2.0113814,0.9984192,2.2459418,1.6867646,1.934194,0.6519821,0.9951357,2.1945495,2.467191,less than -0.023711622,,
0.9432195,-0.1043995,1.4452198,-0.6894936,-0.9381053,2.0113826,-0.9358161,-0.5658991,-1.9622495,0.8198144,0.6541234,-0.5097659,59.819911,-21.419911,-7.3845242,18.071072,32.94066,0.3951942,1.7348196,0.8593745,0.9621119,0.7762319,0.6274516,1.941982,2.3844196,0.6543211,2.1495492,0.9821148,0.6372875,1.945654,0.9827624,between -0.00016276260500000002 and 0.02356751225,
0.6242119,-2.0329524,-0.9624504,-0.7353954,1.0264324,1.3943054,2.0755421,-0.8821654,0.9114192,-0.9821453,1.9616311,-0.1234553,-4.1982192,13.191654,-46.198219,24.509756,-34.819911,1.819382,0.9934562,0.8821654,0.7456321,0.6543211,1.9626311,0.8829827,1.509756,0.9876543,1.234567,0.6543211,1.1111111,1.9626311,1.4444444,greater than 0.02356751225,
-0.9626311,1.4444444,0.7777778,2.2222222,-0.8888889,-0.6666667,-0.7777778,-1.4444444,0.8888889,-0.7777778,-0.5555556,0.4444444,49.061224,27.027027,-14.814815,38.888889,-20.703704,1.4074074,0.9259259,0.8148148,2.4814815,0.7037037,2.2222222,0.8148148,1.7777778,0.8148148,0.4444444,0.9259259,1.8518519,0.8148148,2.037037,less than -0.023711622,
0.4814815,-1.8518519,0.8148148,-0.2962963,-0.4444444,-0.8148148,1.8518519,1.1111111,-1.4814815,-0.8148148,0.5925926,-0.9259259,12.962963,-44.444444,-25.925926,36.734694,-33.333333,2.0740741,0.6666667,2.2222222,0.4444444,1.4814815,0.8148148,0.9259259,0.4444444,2.4074074,2.0740741,2.2222222,1.4814815,1.8518519,1.8518519,greater than 0.02356751225,
-0.7037037,-0.8518519,1.234567,0.8148148,-1.5555556,-0.740741,0.4074074,-1.8518519,-1.037037,0.5555556,1.7777778,0.8888889,-10.185185,30.555556,-36.296296,10.185185,-45.925926,0.6666667,1.8888889,0.4444444,2.4814815,0.8148148,0.8148148,1.8518519,0.5925926,1.8518519,1.4814815,1.2962963,1.8518519,1.5555556,1.8518519,between -0.023711622 and -0.00016276260500000002,
-1.1111111,-2.2222222,0.8148148,-1.037037,-0.8148148,-1.8518519,-1.8518519,2.0740741,-1.8888889,-0.8148148,-1.8888889,0.6666667,20.37037,-24.074074,28.888889,42.777778,-13.333333,0.8888889,2.4074074,1.8518519,1.037037,2.4074074,0.9259259,0.5925926,0.8148148,1.8888889,0.5925926,1.8888889,0.8148148,1.8518519,1.8888889,less than -0.023711622,
-0.8148148,-0.8148148,-0.4444444,-1.6666667,-2.2222222,1.4074074,0.8148148,-0.6666667,1.5555556,-1.4814815,-0.8148148,-1.8518519,-44.444444,-13.888889,26.296296,30.555556,-8.333333,0.9259259,1.2962963,0.8148148,1.8518519,1.7777778,1.5555556,1.5555556,1.9259259,0.6666667,2.2222222,2.4074074,1.2962963,1.037037,1.0740741,greater than 0.02356751225,
-0.6666667,2.037037,0.9259259,-0.5555556,1.7777778,1.4814815,0.4444444,1.8518519,-1.8888889,-0.9259259,-1.037037,1.7777778,51.851852,-10.185185,-36.111111,14.814815,23.703704,2.2222222,0.8148148,2.037037,1.4814815,0.5925926,1.8888889,0.9259259,0.9259259,1.4814815,0.8148148,2.1481481,1.7777778,1.5555556,1.037037,less than -0.023711622,
1.8518519,0.8148148,-1.4814815,0.8148148,-0.5925926,0.740741,1.8518519,-0.8148148,0.9259259,-0.8148148,-0.5925926,2.2222222,28.888889,42.777778,-10.185185,-30.555556,-20.37037,1.037037,0.8148148,1.5555556,1.8518519,0.8148148,1.7777778,1.037037,0.4444444,1.5555556,2.2222222,0.8148148,1.037037,2.037037,2.2222222,greater than 0.02356751225,
0.8888889,2.2222222,0.8148148,1.5555556,0.8148148,0.8148148,-1.8518519,-1.037037,0.8148148,0.5925926,-0.8148148,0.8148148,0.555556,13.333333,-13.333333,-8.333333,49.074074,2.037037,2.2222222,0.8148148,1.5555556,0.8148148,0.4444444,0.9259259,2.2222222,1.037037,0.8148148,1.8518519,1.037037,0.5925926,1.5555556,between -0.00016276260500000002 and 0.02356751225,
0.8148148,-0.9259259,0.5925926,-0.5925926,0.4444444,-0.8148148,-0.8148148,1.8518519,0.5925926,-1.037037,1.8518519,0.9259259,-36.111111,-20.37037,-51.851852,16.666667,-10.185185,0.8148148,0.4444444,2.2222222,0.5925926,1.037037,1.037037,0.8148148,0.8148148,1.5555556,2.2222222,0.5925926,0.5925926,0.8148148,0.6666667,between -0.023711622 and -0.00016276260500000002,
-0.9259259,0.5925926,0.8148148,-1.8888889,1.7777778,-1.037037,0.5925926,0.8148148,-0.8148148,-1.8518519,-0.8148148,1.5555556,34.444444,-45.925926,-8.333333,51.851852,28.888889,0.8148148,0.5925926,1.8518519,2.2222222,0.4444444,2.037037,2.2222222,0.8148148,1.037037,0.8148148,1.037037,0.8148148,2.2222222,less than -0.023711622,,
1.1111111,-1.4814815,-0.8148148,0.5925926,2.2222222,1.037037,-1.037037,0.8148148,-1.037037,-1.4814815,1.5555556,0.5925926,45.37037,51.851852,13.333333,-34.444444,-41.666667,2.037037,1.5555556,0.5925926,2.2222222,0.9259259,0.8148148,1.037037,0.5925926,0.9259259,0.5925926,0.4444444,0.5925926,1.037037,0.9259259,greater than 0.02356751225,
1.5555556,-0.8148148,-2.2222222,-1.037037,0.4444444,0.8148148,-0.8148148,1.037037,-0.5925926,-1.8518519,-0.9259259,0.5925926,-49.074074,-8.333333,28.888889,13.333333,-41.666667,2.2222222,0.8148148,1.037037,0.5925926,1.5555556,0.8148148,1.8518519,1.037037,0.9259259,1.037037,0.5925926,0.9259259,1.037037,0.5925926,between -0.00016276260500000002 and 0.02356751225,
0.5925926,1.037037,1.037037,-0.9259259,0.8148148,0.5925926,0.5925926,-1.8518519,-0.8148148,0.8148148,-0.8148148,0.5925926,-8.333333,45.37037,-44.444444,30.555556,25.925926,1.5555556,2.2222222,0.8148148,0.8148148,1.037037,0.8148148,1.8518519,2.2222222,0.5925926,1.5555556,0.5925926,0.4444444,2.037037,1.5555556,less than -0.023711622,
-2.2222222,0.8148148,-0.8148148,-0.8148148,-0.8148148,-0.9259259,-0.9259259,-1.8518519,0.5925926,1.8518519,2.2222222,-1.037037,16.666667,-25.925926,30.555556,-8.333333,-30.555556,0.9259259,2.2222222,2.2222222,2.2222222,0.8148148,2.037037,0.5925926,1.037037,0.5925926,0.8148148,0.8148148,0.5925926,0.5925926,1.037037,greater than 0.02356751225,
-1.037037,2.2222222,-1.8518519,-0.8148148,-0.5925926,0.9259259,-0.5925926,-0.5925926,2.2222222,2.037037,2.2222222,0.9259259,25.925926,-41.666667,30.555556,-13.333333,20.37037,2.2222222,2.037037,0.8148148,2.2222222,0.5925926,1.8518519,0.5925926,0.8148148,1.037037,1.8518519,1.037037,0.9259259,0.5925926,1.037037,between -0.023711622 and -0.00016276260500000002,
0.8148148,1.8518519,-0.5925926,2.2222222,0.9259259,-1.8518519,-0.9259259,-0.8148148,0.8148148,1.037037,-0.5925926,-1.037037,45.37037,8.333333,-49.074074,41.666667,-10.185185,0.8148148,2.2222222,2.2222222,0.8148148,1.037037,0.5925926,2.037037,0.5925926,1.5555556,1.037037,0.5925926,1.037037,2.2222222,1.5555556,less than -0.023711622,
0.9259259,2.2222222,-0.9259259,2.2222222,-0.8148148,0.5925926,2.2222222,1.037037,1.037037,-0.8148148,2.2222222,-0.5925926,-45.925926,45.37037,13.333333,36.111111,-51.851852,0.9259259,1.037037,0.8148148,1.5555556,0.9259259,0.5925926,1.037037,0.5925926,0.5925926,0.8148148,0.8148148,0.9259259,1.5555556,1.037037,greater than 0.02356751225,
-0.181173,1.491942,-0.808195,-0.914548,-1.263947,-1.384548,1.062931,0.984321,-1.945151,-0.180815,1.796481,-0.426911,-11.41927,46.68429,-36.11473,-6.622621,30.27046,1.430209,2.193455,1.799895,1.950352,1.657819,1.267141,1.814819,0.959743,0.682259,1.839201,0.942368,0.627455,2.269411,1.392396,between -0.023711622 and -0.00016276260500000002,
1.637476,0.374549,-0.396395,1.956171,0.765462,-0.985631,1.549819,-1.08155,-1.336493,-1.565855,-0.262449,-1.820655,-63.21911,-59.81646,-46.47749,-3.610315,-17.56577,0.857141,2.013181,1.630456,1.011585,0.924816,0.517473,0.881428,2.354181,0.489941,2.162469,0.760694,1.641831,0.975941,1.475562,greater than 0.02356751225,
-0.422686,-1.722115,-1.545123,-0.961556,-1.609725,0.934415,-1.760304,-1.41964,0.982515,-1.429355,1.950968,-0.768123,-47.77834,55.81672,10.34856,33.59645,-18.44644,2.190819,0.991182,2.013269,0.675816,1.430803,0.646419,1.758691,1.849621,2.146381,0.630549,2.198155,1.750329,2.388349,0.395503,less than -0.023711622,
-1.408221,0.837847,1.313458,0.690395,-0.778899,1.027232,-0.634299,-0.938255,-2.037854,-0.444142,0.899515,0.941119,-35.43031,-12.72167,-71.70186,44.95686,69.54065,2.461895,0.787354,0.881962,0.998281,0.976778,0.647458,2.127419,0.994781,2.390428,0.989955,0.533695,2.017394,1.876142,1.650382,between -0.023711622 and -0.00016276260500000002,
0.650915,-1.196418,2.142704,-0.627658,-1.350373,-0.623176,0.846758,-1.157305,-1.549615,-2.038139,-1.446655,2.163893,44.96667,-29.34922,-55.87792,-39.61228,14.42971,2.032499,2.272221,0.941755,0.692189,2.234551,1.017781,1.646419,1.427982,0.690221,0.863989,1.299561,0.630396,1.859341,2.123961,greater than 0.02356751225,
-0.784192,0.603249,-2.080135,-0.689339,-0.463475,-0.685468,-0.409951,0.947169,-0.375475,0.971695,-0.736591,0.736395,19.19485,28.65433,-26.91935,31.69564,48.28128,0.621928,0.824585,1.444281,1.630218,0.570111,1.840881,1.497601,0.523966,2.360641,0.983142,0.745941,0.972455,1.847171,1.686631,less than -0.023711622,
-0.560655,1.116176,0.945581,-0.945581,0.863227,0.620717,2.071355,-0.837284,1.630965,-1.471663,-0.176911,-0.409499,-4.621461,25.93714,-20.77751,-50.6012,38.44481,2.033843,2.414011,1.819409,1.756499,2.061431,1.859349,0.648175,1.549555,0.900819,0.630555,2.162219,1.654821,0.967289,0.987176,between -0.023711622 and -0.00016276260500000002,
1.240588,-0.473999,-1.509187,2.025912,0.979662,-0.596425,-0.246911,-0.742987,-0.925436,-0.110484,0.933985,-1.630317,-13.77729,49.84767,-43.82425,-50.40086,66.64123,1.034488,2.159444,0.796824,2.195659,2.201631,1.684631,2.234281,2.124159,2.282721,0.963011,0.670399,0.623419,1.901599,0.688463,greater than 0.02356751225,
-0.876492,-0.427695,-1.584741,-0.689115,-0.335987,2.033819,-1.045198,0.776651,-0.984491,0.979781,1.245731,0.941695,-9.877761,-2.734995,-28.64399,-48.76057,-0.444641,0.917492,2.355166,1.551351,2.183662,0.991999,1.651982,1.895475,0.989355,1.936655,0.759239,0.555829,0.829478,2.140695,0.734964,less than -0.023711622,
0.982446,0.934406,-0.985611,-0.462951,0.984499,1.654741,-0.725209,-0.631165,1.030499,0.933111,0.924464,-1.455509,-2.480291,-26.62789,-36.12991,15.35547,-48.49924,2.333984,2.401955,1.763355,1.936658,1.981695,1.690648,2.181662,2.250781,0.676239,0.930899,0.970325,1.764419,1.924249,2.320661,between -0.023711622 and -0.00016276260500000002,
-0.430535,0.630823,-0.986735,1.986735,0.985147,-0.983642,-0.764299,1.471663,1.455695,0.963635,1.192011,-0.984982,-55.12364,15.88246,-31.19255,13.87634,-48.73745,0.746758,0.950235,0.670899,1.996191,1.987395,0.993641,0.630399,2.110632,0.765109,2.140671,1.950571,0.697501,0.866629,0.967331,greater than 0.02356751225,
