JessupByun/synth-gen2eval-research/LTM_data/LTM_synthetic_data/LTM_llama_synthetic_data/synth_pumadyn32nh/pumadyn32nh--train--64-seed1_llama_default_0.csv
theta1,theta2,theta3,theta4,theta5,theta6,thetad1,thetad2,thetad3,thetad4,thetad5,thetad6,tau1,tau2,tau3,tau4,tau5,dm1,dm2,dm3,dm4,dm5,da1,da2,da3,da4,da5,db1,db2,db3,db4,db5,thetadd6
-0.805154,1.059104,0.678941,1.349817,-0.468171,-1.446781,-0.654321,-0.960583,0.351237,0.275467,-1.892123,1.059104,-32.123054,-26.468926,38.491143,-60.382111,-51.395456,1.940219,1.395456,1.052632,1.631578,2.357895,0.630957,2.265957,1.219048,1.631578,1.357895,0.947368,2.368421,1.052632,2.184211,between -0.023711622 and -0.00016276260500000002,
-0.27098,-0.27098,1.476512,0.27098,-1.476512,1.476512,-2.270179,-0.27098,-2.270179,-0.27098,-0.27098,0.27098,-60.27098,-10.27098,-0.27098,-10.27098,-0.27098,0.476512,0.476512,0.476512,0.476512,0.476512,0.952381,0.476512,0.952381,0.476512,1.428571,0.952381,0.476512,0.476512,0.952381,less than -0.023711622,
0.476512,-2.270179,0.952381,-0.27098,2.270179,-0.27098,-0.952381,-0.952381,-0.952381,-1.428571,-2.270179,-0.27098,-10.27098,-40.27098,1.428571,-0.27098,-0.27098,0.952381,0.952381,0.952381,0.952381,0.952381,0.476512,0.952381,0.476512,0.952381,0.952381,0.952381,0.476512,0.952381,0.476512,greater than 0.02356751225,
-0.952381,-0.952381,0.27098,-2.270179,-0.952381,1.428571,-0.27098,-0.952381,0.27098,0.952381,1.428571,-0.27098,-30.952381,-20.952381,50.27098,-40.952381,-0.27098,0.952381,0.952381,0.952381,0.952381,0.952381,0.476512,0.952381,0.952381,0.476512,0.476512,0.476512,0.952381,0.476512,0.476512,greater than 0.02356751225,
-0.27098,-0.476512,-0.476512,0.952381,-1.428571,0.27098,-2.270179,-0.27098,-0.952381,-0.952381,0.952381,-1.428571,-0.27098,-0.27098,60.27098,-0.27098,-10.27098,0.476512,0.476512,0.952381,0.952381,0.952381,0.952381,0.476512,0.952381,0.476512,0.952381,0.476512,0.952381,0.476512,0.952381,between -0.00016276260500000002 and 0.02356751225,
-0.952381,2.270179,-0.952381,0.952381,-0.27098,-2.270179,-1.428571,-0.476512,-1.428571,-0.27098,-2.270179,-0.27098,40.952381,-0.952381,-20.952381,-0.952381,-0.952381,0.952381,0.952381,0.952381,0.952381,0.952381,0.476512,0.476512,0.476512,0.952381,0.476512,0.476512,0.952381,0.476512,0.476512,greater than 0.02356751225,
-2.270179,-0.952381,-2.270179,-0.476512,0.27098,-0.27098,-0.476512,-0.476512,0.476512,-2.270179,-0.476512,-0.952381,70.27098,-0.27098,-50.952381,-20.952381,-0.27098,0.952381,0.952381,0.476512,0.952381,0.952381,0.476512,0.952381,0.476512,0.476512,0.952381,0.476512,0.952381,0.476512,0.952381,greater than 0.02356751225,
-1.428571,1.428571,2.270179,0.952381,1.428571,-0.27098,-0.27098,-0.476512,1.428571,-0.27098,1.428571,-2.270179,20.27098,-0.27098,10.952381,-70.27098,-0.952381,0.476512,0.476512,0.952381,0.476512,0.476512,0.952381,0.476512,0.476512,0.476512,0.952381,0.476512,0.476512,0.952381,0.476512,less than -0.023711622,
-0.1862840599999999,1.201831,0.2469469372,-0.278100435,0.369322155,-0.8219014725,1.799778425,-1.08971956,1.2565896,0.7663689475,-1.9155699,0.6967737375,-21.5788295,-16.12088145,-18.5128584,20.75536905,3.9093049,0.83404162,0.8668501850000001,1.4034879,1.7424607,1.2659334,0.96895184,1.58409805,2.2437806499999997,1.10576985,0.95305471,1.235695565,1.38787345,0.891452995,1.1651442,1.3368314,between -0.00016276260500000002 and 0.02356751225
0.89244638,-0.18785642,-0.0022292556,0.23201218,2.2830733,-1.3712518,1.6660872,0.91294423,0.31518728,0.62737492,-2.0362731,-2.2740066,-55.826304,-22.689078,-35.339068,56.279078,-17.540736,0.51774383,2.4706192,1.4470845,2.3986783,0.58566441,1.0117087,2.0381226,2.2272165,1.0777599,0.66041513,1.847163,1.2691566,2.2148942,0.97619849,1.468086,greater than 0.02356751225
-1.4481065750000002,-0.75898498,1.138902005,0.899539375,1.81344155,0.6019171125,-0.2342689725,-1.08971956,1.2565896,-0.92719776,0.7663689475,-2.1042957,-45.05978775,-39.0409775,-55.182544,41.662015999999994,21.29213075,0.471737135,1.767640475,1.652844375,2.16142185,0.90872833,1.709680225,2.285085475,1.1337798,1.815827775,0.42956779,0.759146165,1.4992993250000002,1.57977245,1.6632948,between -0.023711622 and -0.00016276260500000002,
-0.24898569,-0.32129828,-1.4083543,2.1253354,0.60394152,-0.040715192,-1.0038254,-0.94169518,1.8437238,-1.2046086,-1.4335824,0.22494631,42.546692,32.254565,2.4801879,-15.48143,53.598415,0.30352597,2.1109307,1.9125414,2.0830714,1.6811037,0.30905638,2.1217354,1.2563531,0.77705761,0.25731974,1.7728001,2.4518137,0.38245292,1.1361564,1.130856,greater than 0.02356751225
-2.1455383,-0.86158596,0.49612313,2.1253354,0.60394152,-0.040715192,-1.0038254,-0.94169518,1.8437238,-1.2046086,-1.4335824,0.22494631,42.546692,32.254565,2.4801879,-15.48143,53.598415,0.30352597,2.1109307,1.9125414,2.0830714,1.6811037,0.30941701,2.0381226,2.2272165,1.0777599,0.66041513,1.847163,1.2691566,2.2148942,0.97619849,1.468086,between -0.00016276260500000002 and 0.02356751225
1.1514858,-0.75935965,-1.4083543,0.11839052,1.1613164,-0.46987803,0.72390955,-0.64051734,-2.0784266,0.82393264,-1.8753355,-2.3057557,58.90346,-9.5526849,-51.975641,45.400655,-1.1878977,1.1500398,0.46862981,0.51127755,1.7917108,0.78378811,0.87675547,1.8792176,2.2603448,2.115413,0.74587502,0.42144427,1.7138111,1.0229441,1.8708662,1.3973901,between -0.023711622 and -0.00016276260500000002
1.5039587,-0.2198329,-0.21863764,1.0205725,-0.33453594,-0.66552293,1.7675202,-0.18883875,2.3373722,1.7395572,1.0761713,1.062903,-14.531443,-29.967316,39.325306,40.415803,68.405733,0.55243494,0.52410364,1.3598913,1.6932106,1.290588,2.4130696,1.7108116,2.3610926,1.1337798,1.686431,2.0961375,0.78359946,2.2061426,2.3891384,2.2489212,greater than 0.02356751225
-1.2650145,1.2011315,-0.45648882,-0.43839556,2.0621366,-1.2910371,2.0915357,-1.9814001,1.0608782,-1.4992457,-0.67780638,-2.0477254,-49.130265,17.637986,41.636759,39.016797,-44.699793,0.33371705,1.0325329,1.03074,2.3964732,1.7752428,0.75622519,1.1267861,1.1446408,1.977343,2.2040181,0.43227563,1.5065903,1.2636849,0.25199525,2.2842411,between -0.00016276260500000002 and 0.02356751225
-0.4211093,0.94015164,1.4304299,-0.68679246,0.39942327,-0.11089929,0.30570614,-0.17610033,-1.116594,0.72828959,-1.0350251,-0.25771955,-40.736686,-8.1950755,10.900275,51.899062,13.46199,2.0356473,1.0342703,1.9824916,1.0914583,1.7453042,1.3756352,1.1913813,2.191065,0.78080482,1.678813,0.7619458,0.93969716,1.882031,2.1593244,between -0.023711622 and -0.00016276260500000002,
-0.721376,0.17434318,-0.70156246,1.3242182,-1.3214265,-0.15298796,-0.34927334,-0.11089929,0.19411856,0.72828959,-0.70113699,-1.3929031,-27.81051,-50.112686,-56.52869,45.032299,-27.77119,0.53360592,1.5206194,1.3551942,0.53360592,1.2099063,0.78080482,0.27735049,2.2426456,1.7752345,0.95910786,0.64342164,2.035059,1.0433913,2.4867759,greater than 0.02356751225,
0.65868115,1.725314,0.25201534,-0.81584956,1.0684592,-1.3214265,0.27449595,0.024647662,-0.43697773,2.3296764,-0.36894004,0.72860279,-59.584168,-31.115684,-61.301925,48.539028,-54.551679,0.62395912,1.1309017,0.56474383,0.39947318,1.4457209,1.9808386,2.4537116,0.78080482,2.4865632,1.667411,1.9268231,1.3664235,1.2297283,1.0433913,1.2781041,less than -0.023711622
-1.3793793,1.725314,2.0235164,-0.071375264,2.0551337,-1.1795749,-0.095322885,0.12052202,-0.7136106,-0.62332619,-0.60261145,-1.1666858,-7.5794975,-38.615197,44.386824,59.355607,-60.314053,1.400654,0.54128803,2.1779046,0.29296653,2.3884772,2.3862536,1.0139179,0.91854131,2.1737927,0.93419677,2.0451083,0.38455952,0.54177635,1.3850678,1.8350762,between -0.023711622 and -0.00016276260500000002
-0.024143159,-0.50862401,-0.17018347,0.1465619,-1.3135039,1.4819498,2.1539813,1.3913777,2.0115658,1.7080268,-1.0677189,-0.37408076,-27.004968,27.50942,50.81753,-9.7700102,45.43826,1.8374465,2.2139556,0.95212973,1.9443545,1.2664183,1.1917282,1.3759246,1.164081,2.4602002,1.8355492,1.8246373,0.67921492,0.56524263,2.0328706,1.705744,greater than 0.02356751225
-0.023272439,-0.011598844,-1.7338293,0.94496171,1.2205677,1.0518792,-1.9491041,1.9358257,1.088854,2.1634808,0.82825303,0.051634891,23.810694,-13.66918,62.092858,44.670859,33.125453,0.46720624,1.3353213,0.49438284,1.342431,0.73704042,0.43836924,0.42187735,2.2426456,1.6445443,2.3558191,0.25142164,1.6434847,0.29704497,1.1848754,0.9503177,less than -0.023711622
-1.0273457,-0.40566181,0.86879094,-1.924092,-1.8002529,1.3998135,-2.2930703,-1.7150189,1.3612989,0.70174281,-0.91818142,1.198818,-52.243397,45.232853,28.55333,45.816783,-57.335755,0.74454159,0.51055959,0.9749697,1.0656867,2.4962646,0.46857978,1.9202911,1.832917,0.33608898,0.39750457,2.1093379,2.1414983,0.41265534,2.4982916,0.78650689,between -0.023711622 and -0.00016276260500000002
-0.7995875,1.0661804,-1.9213551,1.7863583,0.69359919,-1.1287384,1.3720005,1.4926384,-1.9847774,0.84733877,0.38325042,-0.54595405,-26.366997,-50.112686,6.0904462,62.12856,44.707633,2.1428423,0.50028487,1.5378871,0.76765672,2.0065247,2.159981,0.5498446,1.9881852,2.1790715,1.9052179,0.49677203,0.9974459,0.82318247,1.4777336,2.2685164,greater than 0.02356751225
-1.3408767,-0.15388553,1.4672312,-1.6710994,1.0630444,-1.8195512,0.75163242,-1.8646545,0.94165822,-0.6858179,-2.0651046,0.9828479,-12.509231,29.461351,-9.130994,-22.895061,-48.469281,0.9798325,1.6875414,0.95716664,1.5233262,2.1365175,0.92130586,1.9810542,1.4687365,1.3551971,1.8574739,0.93795685,0.35464346,2.0351873,0.83158642,between -0.023711622 and -0.00016276260500000002,
-0.77885413,-2.0277806,-0.25917395,0.94476025,0.44792632,-0.6478029,-2.0601024,-0.8828176,-1.6695125,0.86051755,0.11165625,0.69428135,10.734406,18.435159,-44.797977,50.335987,-0.40091196,0.9175092,0.94111155,0.62044157,0.98493846,0.69759467,1.4666839,0.50982539,1.628271,2.4069564,1.6158197,1.0211672,0.9883878,1.9406586,0.45066058,1.0628936,between -0.023711622 and -0.00016276260500000002
1.0864834,0.0197916,-1.9422026,0.11939661,-0.77886489,0.63439779,-1.8125248,-2.2220655,-0.57228978,-0.4884544,-0.47146901,2.258561,42.69242,-68.489436,-1.9506387,65.615247,-4.5362466,0.76454119,1.3938411,0.78767084,0.88385391,1.9326453,2.4698725,2.3969672,1.0779367,1.3814614,1.9722979,0.66156827,0.97797494,2.0748649,1.0043999,0.69842433,between -0.023711622 and -0.00016276260500000002
0.94503181,-2.3135873,2.172098,-0.42592724,-0.44032785,-2.1394453,-2.1289136,0.51890451,-1.4039759,-1.6916759,-2.1544159,0.72958129,13.896627,10.61229,10.762669,-11.817034,-8.8963387,1.8135205,0.58843892,0.39290724,1.3420419,0.9476041,2.3821883,2.4386401,1.72449,0.50419961,2.0827745,1.1901967,0.38576696,0.58535031,2.482625,0.72869092,between -0.023711622 and -0.00016276260500000002
-0.86563021,-1.502218,1.2024133,2.2360868,0.60801125,-2.326539,1.263344,-1.0027487,-1.6951968,-0.068535869,-2.0594413,-0.5333756,-47.103267,35.389009,33.07672,20.436394,-25.51934,0.5718195,2.320303,1.8318218,2.1795133,0.33008656,0.76484566,2.011007,0.99468811,1.7230993,1.8796267,2.3856967,0.65499882,0.81514618,1.4119121,0.75675274,between -0.023711622 and -0.00016276260500000002
-1.4610224,0.85529749,2.1985383,0.99096814,1.6188197,-1.8320143,0.085712753,-1.4167846,-0.19690197,-1.2343315,-1.4731967,-1.1253078,-71.047017,62.793504,-29.584555,22.380134,-57.09614,0.40269947,1.6700453,1.2008543,1.7575808,0.91126256,1.3397992,1.5046554,2.4926671,0.75516382,1.2882523,1.4056551,1.3449384,2.3794268,1.0267834,1.1486213,between -0.00016276260500000002 and 0.02356751225
2.0125907,0.084578587,-1.6291568,-2.2578162,1.7515238,-0.43333629,2.2703279,1.187241,1.7044159,-0.49484078,0.57749305,-1.5956189,20.342058,38.971731,-52.125244,-68.979345,14.154011,1.1718919,0.98645852,0.65837386,1.2895201,2.4643189,1.30804,0.97783686,2.0040431,0.95312612,0.69068727,2.1309174,0.32899923,0.49000539,2.0205235,1.1878804,between -0.023711622 and -0.00016276260500000002
-0.54017164,-0.20017066,-1.3505603,1.5175862,-1.5233951,-2.0123842,-1.2596567,-0.66148036,-0.21622411,-0.94363254,-0.80594272,0.55016667,-51.436299,-2.3397844,-10.649721,-66.308159,-54.773985,1.0463618,2.047984,0.4348199,2.1833997,0.67921726,0.40382976,2.272511,2.2599858,1.4301435,0.90611033,0.81944223,0.45073447,0.97656971,0.55248636,0.70349317,less than -0.023711622
-0.9856349,-0.854191,-0.6309391,-0.654219,-0.654219,0.1981113,-0.9856349,-1.6305822,1.0483448,-0.1119349,0.2227771,-0.6309391,28.98511,-44.41919,32.44419,14.114,-11.381,2.4125677,1.6901043,0.68922206,2.4932406,2.0959016,0.45197823,0.2649304,2.3779547,0.80385185,0.41001481,2.1807064,2.3831699,1.2218901,1.7240827,between -0.023711622 and -0.00016276260500000002,
-1.8067184,0.60679485,-0.6309391,2.0178738,0.41920345,-0.43045288,0.79476934,1.7600077,-1.9991327,2.2677471,-1.2264455,1.5180369,50.946957,-51.413818,-45.338782,10.606658,-47.024817,1.6694428,0.3961888,0.68922206,1.1452098,0.2843844,0.62594775,1.8980492,2.1006798,1.4656708,1.2372903,0.44603359,0.98649205,2.314294325,2.4030379,less than -0.023711622,
-0.83560202,1.1179284,0.79121871,-2.1917106,0.66424465,0.53079852,0.57840592,-0.3901117,2.1900909,0.38756209,-0.66313059,2.0348847,24.58491,-25.236452,67.570691,35.446717,9.2919396,2.0273471,1.1230674,2.4951,0.52847211,0.88951984,0.41577257,1.9394105,0.99879662,0.96522325,0.86883338,1.4826899,1.9048168,0.77843656,1.1552582,between -0.00016276260500000002 and 0.02356751225,
0.46201337,-0.95840844,-1.241864,-0.83760771,-1.812979,-0.51976392,1.0969611,0.78130845,0.78402604,-1.8497229,-0.94017573,-0.43587436,37.955864,57.59483,28.791377,-25.796669,51.516838,1.8392549,2.3259293,1.8931712,2.0959016,0.53069313,1.1594105,0.88951984,0.74694419,0.39102679,1.507211,0.57392015,1.7831012,0.50569126,2.4030379,between -0.023711622 and -0.00016276260500000002,
-1.0356969,1.1179284,1.8232545,-0.34877091,-0.74517587,0.31038065,-0.046960235,-2.291717,2.1806853,-0.87288672,1.2344148,2.0348847,64.444151,-27.163231,-56.591937,-0.55920052,66.10195,1.0215214,0.46030042,0.68922206,1.5017646,0.2843844,0.65181749,0.2649304,0.99879662,0.96522325,0.4240444,0.41421826,1.6259019,2.3194031,1.724073,between -0.00016276260500000002 and 0.02356751225,
-0.96970037,-2.3129485,-1.025169,-1.5217644,-0.65857907,-0.17924505,1.8076726,-0.42272072,-1.9770291,0.38756209,-0.66313059,-1.839968,27.986425,-60.146802,-37.296993,-21.982418,-27.768346,2.2558247,1.6901043,2.2691225,1.1417026,0.88951984,1.8589654,0.41577257,1.5128148,0.88951984,0.5880098,1.2372903,1.7831012,1.2218901,2.4753799,greater than 0.02356751225,
-0.97567268,0.98290216,0.72772414,2.0178738,-1.7669813,0.1981113,-1.1044901,0.78130845,-1.6496883,-1.3680593,-0.94017573,1.5180369,-42.858759,-3.3268167,36.192387,65.511802,-64.621365,1.8392549,2.4125677,1.8931712,2.0959016,0.2843844,1.7226016,1.3972997,0.99879662,0.80385185,0.86883338,0.44603359,0.98649205,1.9048168,1.724073,between -0.023711622 and -0.00016276260500000002,
0.19731383,-1.043938,-1.241864,2.2101475,-0.74517587,0.53079852,0.79476934,1.7600077,-1.9770291,-0.87288672,1.2344148,-0.43587436,-52.358684,-32.158942,-45.338782,-8.915375,56.84991,0.58612747,2.3259293,2.2753611,0.29172779,0.62594775,0.65181749,1.8980492,0.88951984,0.96522325,0.41001481,0.41421826,0.98649205,2.314294325,2.4030379,between -0.00016276260500000002 and 0.02356751225,
-1.4292997,-0.4626605,1.3432913,1.9341912,0.9810563,-0.35567014,0.5179824,-1.0876217,-0.6615849,0.3514149,-1.5536995,-1.8544934,36.43497,11.299103,-9.734847,4.667451,-27.475294,1.6433255,2.204381,1.9431895,1.7589627,0.9821423,1.4703327,2.110638,1.6478492,1.3809285,0.7914203,1.015044,0.5309853,0.712832,1.4220584,greater than 0.02356751225,
-1.7995316,1.1918464,-1.9357596,0.16242996,-0.3852691,-0.6503723,-0.39949786,-0.6708226,1.0599606,-0.7914467,1.4671316,-0.39963462,13.48065,48.11538,-4.707061,30.43669,21.38019,0.8319799,0.6455517,0.6715679,0.7912092,1.6738133,0.5011441,1.8503954,0.9212355,0.9819756,0.6354755,2.395768,2.288952,1.9413865,1.4634934,less than -0.023711622,
-0.50956753,-0.9618349,0.72381513,0.84920565,-0.737816,2.1421315,-0.9380782,-0.2986151,0.39995358,1.4511663,1.4294972,-1.1159951,-14.38013,-26.90223,42.11581,-8.554208,-1.819551,2.2442635,0.831704,1.782399,0.6252395,0.7358275,2.023596,0.8271434,1.3721116,1.911321,1.2993728,0.7048929,0.89191495,2.3932363,0.5648915,between -0.00016276260500000002 and 0.02356751225,
1.1059559,-1.349206,0.180224,-0.1224506,0.9799954,-0.7397379,-0.1813478,0.4550806,-0.20444971,-0.6615849,0.43660017,0.436753,-4.150961,-11.827194,3.504941,33.79788,-13.44596,0.5313137,1.9621715,0.8256761,2.106328,2.2635238,1.88273885,0.6162851,1.18359,1.399309,0.5103695,2.103981,0.7244938,0.4161104,1.5505494,greater than 0.02356751225,
-0.19528465,0.5645316,-0.6704993,-0.6711428,-0.39294764,0.6301669,0.678384,0.7364308,-0.39995358,-1.595763,0.5083214,1.0223539,-6.609621,29.234442,-50.76703,1.3941584,55.67001,2.1723416,0.4495487,1.4491401,1.9109505,1.1488752,2.332621,2.2980566,1.0442498,1.3556578,0.3513424,2.3913042,0.9622167,0.4294975,1.6892433,between -0.00016276260500000002 and 0.02356751225,
-1.7567654,0.3915179,-0.6542059,0.6862612,-0.84070564,-0.7394148,-0.4626605,0.3506648,0.28547342,-0.71859007,-0.36679903,1.3953351,-25.18193,15.061142,31.01365,16.64912,-65.44347,2.1003147,0.784424,0.8266765,1.463725,0.8492642,1.234755,2.4156548,2.2029116,0.5237896,1.799273,0.9238408,1.5511917,0.9653886,1.493493,greater than 0.02356751225,
-0.29647417,-1.1889624,-1.5965555,-1.340342,2.026598,-1.8313901,-1.4204858,0.6698233,1.130281,-0.44820595,0.9935841,-2.2345748,0.19421117,4.493111,-6.380792,21.76053,43.917675,0.6453356,0.9828377,2.0465936,0.7921113,1.4691947,1.2888273,0.7245202,1.4705931,1.9841412,0.7377047,1.3415861,0.5042194,0.9111123,0.5316063,less than -0.023711622,
1.0878466,0.7347072,-0.1002354,2.2034261,-0.41792702,0.20211675,-0.30433541,-0.9344601,0.9551562,-0.15451135,2.0754297,-1.5733215,-10.01155,0.8652635,-2.1054427,3.3988644,59.73641,1.1832419,0.7150011,1.6547611,0.9915031,0.62470674,1.701355,0.4948686,1.1706662,2.0544853,0.8297228,0.8294156,1.8508993,0.9219357,1.4199773,between -0.00016276260500000002 and 0.02356751225,
0.94517472,0.65410345,-0.56389913,0.98765432,-0.654321,0.74185263,-0.32098765,1.2567453,-1.5634921,-0.65432109,-0.77777778,0.77777778,16.753192,-19.753192,27.753192,-34.753192,18.753192,1.753192,1.753192,1.753192,1.753192,1.753192,1.753192,1.753192,1.753192,1.753192,1.753192,1.753192,1.753192,1.753192,1.753192,between -0.023711622 and -0.00016276260500000002,
1.753192,0.98765432,-0.74185263,0.654321,-0.98765432,-0.56389913,0.56389913,0.32098765,-0.98765432,0.56389913,1.2567453,0.98765432,-16.753192,34.753192,-27.753192,49.753192,-38.753192,0.98765432,1.2567453,0.56389913,0.32098765,0.98765432,0.654321,0.56389913,0.32098765,0.98765432,0.74185263,0.56389913,0.98765432,0.654321,0.32098765,greater than 0.02356751225,
0.654321,-0.56389913,0.98765432,-0.74185263,0.654321,0.56389913,-0.98765432,-0.32098765,0.56389913,-0.98765432,0.654321,0.98765432,38.753192,-49.753192,18.753192,-58.753192,48.753192,0.56389913,0.98765432,0.654321,0.56389913,0.98765432,0.32098765,0.74185263,0.98765432,0.654321,0.56389913,0.98765432,0.32098765,0.654321,0.56389913,0.98765432,between -0.023711622 and -0.00016276260500000002
0.98765432,-0.98765432,0.56389913,0.74185263,-0.56389913,0.654321,0.98765432,0.56389913,-0.98765432,0.98765432,-0.56389913,-0.98765432,-18.753192,58.753192,-38.753192,68.753192,-28.753192,0.32098765,0.98765432,0.654321,0.56389913,0.98765432,0.56389913,0.32098765,0.654321,0.98765432,0.74185263,0.56389913,0.98765432,0.654321,0.56389913,0.98765432,between -0.00016276260500000002 and 0.02356751225
0.56389913,0.654321,-0.98765432,0.56389913,0.98765432,0.74185263,-0.56389913,-0.98765432,0.56389913,0.654321,-0.98765432,0.98765432,48.753192,-28.753192,68.753192,-48.753192,38.753192,0.98765432,0.56389913,0.654321,0.98765432,0.74185263,0.56389913,0.98765432,0.654321,0.56389913,0.98765432,0.32098765,0.98765432,0.654321,0.56389913,0.98765432,between -0.023711622 and -0.00016276260500000002
0.74185263,-0.56389913,0.98765432,0.654321,0.56389913,-0.98765432,0.98765432,0.98765432,-0.56389913,0.98765432,-0.654321,0.56389913,28.753192,38.753192,-48.753192,58.753192,-18.753192,0.654321,0.98765432,0.56389913,0.32098765,0.98765432,0.74185263,0.98765432,0.56389913,0.654321,0.98765432,0.56389913,0.98765432,0.654321,0.56389913,0.98765432,greater than 0.02356751225
0.654321,0.98765432,-0.56389913,0.74185263,0.98765432,-0.56389913,0.56389913,0.98765432,0.98765432,-0.98765432,0.654321,0.98765432,-38.753192,48.753192,28.753192,-18.753192,58.753192,0.98765432,0.654321,0.56389913,0.98765432,0.32098765,0.98765432,0.654321,0.98765432,0.56389913,0.98765432,0.74185263,0.98765432,0.654321,0.56389913,0.98765432,between -0.023711622 and -0.00016276260500000002
1.2567453,0.98765432,-1.5634921,0.56389913,-0.98765432,0.74185263,-0.98765432,0.56389913,0.98765432,0.654321,-0.56389913,0.98765432,18.753192,-28.753192,38.753192,48.753192,-38.753192,0.56389913,0.98765432,0.654321,0.56389913,0.98765432,0.74185263,0.98765432,0.56389913,0.654321,0.98765432,0.32098765,0.98765432,0.654321,0.56389913,0.98765432,between -0.00016276260500000002 and 0.02356751225
-1.331584,1.940429,-0.701634,1.463501,-0.187012,1.508615,1.394419,-0.384986,1.093395,1.442986,0.459843,-0.989648,-43.11596,-46.21155,-21.94051,67.38069,-59.19224,0.981117,1.739931,2.268461,2.200141,0.671739,1.584468,1.827213,2.202373,2.100321,0.403985,2.201381,1.710209,1.273815,0.937164,greater than 0.02356751225,
-0.676409,0.629934,-1.827349,-0.300195,-1.509911,-0.934544,0.710377,-0.737623,0.649231,-1.451441,-1.058361,-0.365981,13.94033,22.97032,54.38019,-55.99171,49.18064,2.126461,1.052755,1.884879,1.604304,2.186722,0.821939,0.650129,0.481723,0.650982,1.900493,0.296684,1.141865,0.850493,1.481426,0.313758,between -0.00016276260500000002 and 0.02356751225
-0.436737,-0.956937,0.317055,2.012366,1.791241,-2.05348,0.911549,0.351631,1.704523,-0.552322,0.846617,-0.108799,65.77291,32.87035,-32.10592,21.38371,28.39951,0.570349,1.936181,2.256584,1.906599,1.739583,1.689811,0.984497,2.324981,0.604819,0.745205,1.797401,1.734219,0.651249,0.910375,1.877469,between -0.00016276260500000002 and 0.02356751225
0.685987,0.456113,0.509771,-0.107789,-1.621745,-1.331764,1.387177,1.031915,0.761915,-2.299871,0.940361,-0.576951,-2.451191,-0.838987,42.98525,-38.29978,23.89961,2.144941,2.044799,1.649469,2.189655,0.509511,1.825201,1.609832,0.631551,0.787172,2.189621,2.187182,0.621177,1.734398,1.326488,1.960816,greater than 0.02356751225
1.270588,0.684701,-1.124551,0.270942,-2.185831,1.049701,-0.261235,-1.206324,0.655289,0.751056,0.327852,0.114409,-56.35011,-48.98729,-30.32529,30.45755,39.69585,0.731295,2.198941,1.646155,1.043201,1.797199,0.459701,1.721907,0.729821,1.737357,1.399535,0.868129,2.446755,0.666641,1.272982,0.422111,between -0.023711622 and -0.00016276260500000002
0.859668,-0.109556,0.446509,0.695187,-0.783135,0.623251,0.824765,0.661821,-0.247781,-1.142615,1.011365,-1.062235,-2.760651,7.350611,-27.75377,27.91113,67.0771,0.352941,0.975578,0.680446,2.011235,1.656158,0.655234,1.784061,1.864219,1.394106,0.783419,1.947855,1.021984,0.829349,0.982695,0.528205,between -0.00016276260500000002 and 0.02356751225
0.669801,1.425366,-0.624135,2.122337,-0.263383,-1.574464,1.756194,0.962278,-1.448951,-1.299115,1.071902,-1.631511,-58.43636,-0.245893,-24.81422,68.81339,-16.44543,1.963235,1.350688,0.924789,2.201531,0.981634,1.419962,0.938765,1.934575,1.017521,0.924899,2.270139,1.415981,1.940442,1.445349,1.684161,greater than 0.02356751225
-0.775562,1.702156,1.046428,0.565986,-0.661331,-0.102395,0.864161,-0.409317,0.621987,-1.795321,1.212615,-0.745191,-34.9242,67.37739,26.4695,-34.98521,-59.74961,1.797662,2.188551,0.695645,1.984955,1.670153,0.792982,1.892373,0.854411,0.975671,1.977061,2.267271,2.196171,1.037428,0.785493,2.256191,between -0.00016276260500000002 and 0.02356751225
