JessupByun/synth-gen2eval-research/LTM_data/LTM_synthetic_data/LTM_llama_synthetic_data/synth_pumadyn32nh/pumadyn32nh--train--128-seed0_llama_default_0.csv
theta1,theta2,theta3,theta4,theta5,theta6,thetad1,thetad2,thetad3,thetad4,thetad5,thetad6,tau1,tau2,tau3,tau4,tau5,dm1,dm2,dm3,dm4,dm5,da1,da2,da3,da4,da5,db1,db2,db3,db4,db5,thetadd6
-0.35621567,1.39078326,-0.47438291,-1.44679109,1.63297985,0.46867081,-1.35407785,-0.63456769,0.83211518,-0.20503286,-0.28150542,-0.87011267,-23.392799,11.463961,-15.319141,-56.324213,-14.689219,1.95806523,1.42145055,0.69396018,0.85419716,1.35038727,1.46815913,0.98576556,2.14855531,0.81162421,1.60997671,0.98017839,0.62968992,1.85533726,0.93752735,between -0.023711622 and -0.00016276260500000002,
-1.68612435,0.17220659,-0.96014946,-0.76521795,-0.39237527,0.78121279,-0.50939285,0.40781334,-0.74563179,0.69585123,-2.08572348,-0.42076516,-55.823238,-27.900191,60.451344,-36.739139,20.476381,1.01326666,2.02756339,0.38224955,2.29635426,1.73983789,0.60542992,1.29039194,1.67951191,0.55117836,1.76873677,1.27092555,1.64606175,0.31115588,1.89963486,greater than 0.02356751225,
-1.84517632,-0.63059756,-0.68988587,-0.29526185,2.15712401,-0.70105774,0.62568482,0.24645721,-1.36065473,0.37552853,0.62531544,0.47598341,-1.419792,-33.409621,-29.686531,-26.782698,-30.439419,2.35746277,0.38489328,2.15314121,1.06264899,0.98503552,0.96513628,1.96270116,0.70737049,1.37044446,0.82166077,0.91176078,0.43776704,0.97717625,0.39411191,less than -0.023711622,
-0.32423755,1.01361175,0.46319837,-1.34279121,-1.29955528,1.39078326,-1.17859467,0.38709685,-0.68916724,0.48453037,-0.69095165,-2.19471554,25.440429,-19.442211,-5.934406,-51.648685,17.282475,1.84014282,2.13616648,0.76187042,0.63930268,1.72505538,0.61179124,0.71033247,0.89554927,0.98141965,0.79155555,1.43541367,2.18680272,2.19898758,0.53318221,greater than 0.02356751225,
-0.35684023,-0.40425064,0.98037537,0.60086585,1.50913039,-0.19328216,-0.98901661,-0.47594151,-0.50956749,0.78098727,-0.41737071,0.50924918,-50.485121,20.400321,32.987419,-60.115846,-3.395273,0.92110933,0.94151128,2.40030235,0.97581652,0.39876748,0.77633247,2.19234969,1.39466168,1.11010697,0.44512217,0.62591165,0.86049331,0.30553347,0.40339584,greater than 0.02356751225,
-0.42991431,-0.65411096,2.02904799,-0.63241944,-0.17919501,-0.93402028,0.27202152,-1.3641967,-1.58219146,1.42887075,1.90082465,-0.87011568,33.993195,51.784882,41.756429,-22.017942,-45.115271,2.19303261,0.81960448,1.00184514,0.68664836,1.79039971,1.96422571,0.42010175,1.91140441,0.54033372,0.36392193,0.88017164,0.94069557,0.81247944,1.54069556,less than -0.023711622,
0.3925208,0.63868552,-1.6850232,-0.57917522,-0.57917522,-1.3696824,0.07710907,1.4188511,-0.43617708,0.48481944,0.28150699,-1.1634286,39.529839,-33.562624,14.530491,-33.265305,-52.190831,0.60379638,2.191284,0.38224955,0.25547296,2.4701745,0.34159177,1.2912524,0.60320326,2.2094197,2.401051,2.1940005,0.81692779,0.6051704,0.43018689,greater than 0.02356751225,
0.11596364,-1.07742135,-0.9607736,-0.76521795,0.3925208,-0.042402273,-0.54319435,-0.38695383,-0.74563179,1.6490945,0.63976368,2.1221042,66.270989,66.51116,53.069892,-2.610037,43.516052,1.3522626,0.36178497,0.27000601,0.54013779,0.84585295,0.6076363,0.95280895,0.60320326,1.037258,1.2318338,0.43018689,2.401051,0.44380547,1.0714446,greater than 0.02356751225,
1.187654,-0.108579,-0.832191,0.411762,-1.490111,0.739823,0.270941,1.065351,-1.431391,-0.612391,-1.200982,-1.983092,-14.11092,28.421039,18.193021,51.830211,-39.684021,1.982031,1.215631,1.489021,0.810982,1.634102,0.983281,0.642091,1.372839,2.193021,1.759202,1.289401,2.138402,0.940212,1.980421,between -0.023711622 and -0.00016276260500000002,
-0.356431,1.489023,-0.216492,-0.983011,-0.612101,1.008044,-1.982161,0.216831,-0.843021,0.216631,-0.196021,-2.120982,-48.30191,-5.108329,-10.98112,14.691021,-51.7061,0.983021,0.628394,1.192662,0.372662,1.192831,2.008021,0.216631,2.120982,0.983281,0.983021,1.661021,1.983112,0.372021,2.019431,less than -0.023711622,
1.320982,-0.216631,-0.372021,0.983281,0.983021,-0.196021,1.661021,1.192831,-1.983092,-0.983281,1.372839,-1.200982,28.421039,10.98112,55.789828,-10.98112,-48.30191,0.372021,1.661021,0.983021,0.983281,1.192831,0.983021,0.983281,0.983021,0.983281,1.372839,1.661021,0.983281,1.661021,1.192831,2.120982,greater than 0.02356751225
-1.983092,0.983281,-0.983281,0.372021,1.661021,-1.983092,0.983021,0.983281,1.661021,-0.983281,-0.372021,-0.983281,-55.789828,-28.421039,-14.11092,18.193021,65.244411,1.192831,0.983281,0.983021,0.372021,0.983021,2.120982,1.372839,1.661021,0.983281,0.983021,1.661021,0.983021,0.372021,2.019431,1.372839,between -0.023711622 and -0.00016276260500000002
0.983281,0.372021,-0.216631,1.661021,0.983021,-0.983281,1.372839,-0.983281,-0.983281,-1.983092,-0.983021,0.196021,-10.98112,55.789828,-48.30191,51.830211,28.421039,0.983021,0.983021,1.192831,1.661021,0.372021,1.661021,0.983281,2.120982,2.193021,1.372839,0.983021,0.372021,0.983281,1.661021,1.983112,less than -0.023711622
1.661021,1.372839,-0.983281,0.983021,0.372021,0.983281,0.983021,0.983021,-1.983092,0.372021,-0.983281,-1.983092,51.830211,-14.11092,18.193021,-55.789828,-10.98112,1.661021,0.372021,0.983281,0.372021,1.372839,0.983021,0.983281,1.661021,0.983021,1.372839,1.661021,1.372839,0.983281,0.372021,1.661021,greater than 0.02356751225
-0.983281,0.372021,0.983021,-0.983281,1.372839,-1.200982,-0.372021,-1.983092,0.983281,1.661021,0.983021,0.983281,-28.421039,51.830211,-48.30191,-28.421039,-14.11092,0.372021,1.192831,1.372839,1.661021,0.983281,1.372839,0.983281,2.120982,0.983281,1.372839,0.983021,0.372021,0.983281,2.019431,1.372839,between -0.023711622 and -0.00016276260500000002
1.5814255,-0.1418055,-0.4849607,0.6866606,0.9565656,-1.1541512,0.7611943,-0.366324,0.6934427,-0.7374604,-0.2739027,-0.5847223,23.685333,-14.421411,-16.611396,-30.533955,46.310507,1.901132,1.4429823,1.3554548,2.0623514,0.6877673,0.9161948,1.0598827,0.5973725,2.060445,1.756213,0.611382,2.0221574,2.105139,1.8271666,between -0.023711622 and -0.00016276260500000002,
-0.431686,-1.0993052,0.6541795,0.3202781,-0.7513145,-1.8241552,-0.3655046,0.9364457,-0.7616153,-0.6506035,0.9820356,1.0084191,-3.6769112,-70.459107,-40.623764,-22.768113,2.7991855,0.864344,0.7619796,0.4008191,1.8388316,2.1913773,0.3506473,1.1809114,0.7397909,0.8876315,0.642612,0.9891575,1.259955,0.9873926,1.5759466,less than -0.023711622,
1.354375,1.5547615,-1.749191,0.8454935,-1.0716315,-0.4290565,-0.4509932,-1.4758626,0.6323626,0.3709612,-0.6094499,-0.9605261,10.663157,1.3976712,-65.385304,5.3843525,53.928477,0.6902474,1.525397,2.0731586,1.4428194,0.4349249,1.670135,0.7403299,0.6247835,0.9647953,0.774422,2.2284263,0.8197149,2.202517,0.762761,greater than 0.02356751225,
0.8271911,-0.9622333,1.6451316,-0.4313239,-0.687961,0.7590118,-1.225876,0.9433929,-0.9817047,-0.370455,2.1550616,-1.0323542,-62.25929,-21.734657,-0.6544448,-38.40967,11.438609,2.4551617,0.6978228,0.8273332,1.5844466,0.9564086,1.017182,0.5035819,2.2933618,0.8292973,2.245499,1.354422,1.0599618,1.5256545,0.8143366,0.331335,between -0.00016276260500000002 and 0.02356751225
1.245216,-1.509421,0.8197107,-0.3665977,-1.4298052,-0.6661574,-0.7952701,-0.7767044,0.3822416,2.0183963,0.4444445,0.7764226,-46.43276,-34.593456,-59.34149,-28.493281,-47.947197,2.2309823,2.0521972,1.9824752,0.6940597,1.4276953,1.0979885,0.8084125,0.6691154,0.630799,0.522411,0.782138,2.1934567,1.3524688,2.3629767,2.2639764,between -0.00016276260500000002 and 0.02356751225
-1.177411,-0.111399,-1.685236,-0.6703241,1.5053442,-0.725151,0.5368816,0.2925841,0.6127894,0.4252598,-1.4803418,-0.455155,-0.225144,-44.915205,68.29975,-22.382741,-5.523444,2.4444217,2.082356,1.3496784,0.5966258,2.0541125,0.3351279,1.0494095,0.956449,1.6316854,2.331485,0.5978575,2.201352,1.4066154,2.2943418,2.2226541,less than -0.023711622
-0.1627606,0.7764226,-0.5847223,2.0929842,-1.1627953,0.2568653,0.200123,-0.1292849,0.3249111,-0.455077,-2.1445092,-0.5847223,-33.96273,2.2707518,-38.513355,-3.372337,32.844186,2.0267674,0.9455846,0.3091662,0.7153526,0.7607043,1.1853628,1.670672,1.1229894,2.1914193,0.4087665,1.5146214,2.2461914,1.4203263,0.8146951,0.9345849,greater than 0.02356751225
0.720414,-1.0126585,0.6301624,0.9871773,-0.243961,1.1777324,0.9404288,-0.5847223,0.1933555,1.153439,0.4307855,0.2408055,-35.351345,-50.73629,-17.794399,-25.60957,-59.71244,1.7291159,1.1637871,0.9876543,2.2764267,1.0256178,0.8195313,0.9863857,1.1348225,1.584241,0.9958995,2.3528993,0.6663859,1.2255922,0.9354117,0.8134925,between -0.023711622 and -0.00016276260500000002
-0.436151,0.629471,-0.021715,1.813549,-0.937814,0.270921,-0.384164,0.738194,-0.430135,-0.758124,-0.270664,2.097498,23.456123,-13.216541,16.684029,-31.827381,-22.47489,1.142821,0.982781,2.105821,1.859041,0.892143,1.461411,1.630391,1.899201,0.630273,0.867542,0.982781,1.149961,2.188571,2.019549,between -0.00016276260500000002 and 0.02356751225,
-1.685213,-0.340195,-0.611111,-0.370278,-0.129209,-0.594196,-0.943219,-0.630195,0.219783,-0.142123,-1.026995,1.593522,52.162781,68.370782,-28.317192,-8.456021,34.492821,0.710132,0.352421,0.983421,1.246952,2.192349,1.983421,0.675109,0.837109,1.857109,0.421875,2.039062,0.945312,1.027343,0.654309,between -0.023711622 and -0.00016276260500000002,
-0.308497,2.215586,0.887425,0.632089,-0.767812,-0.642612,-0.534656,-2.204824,-0.366479,-0.925631,-1.654324,-0.483544,4.940586,22.131415,4.468085,-49.631912,-4.049586,1.965942,0.734822,0.923077,0.425943,0.981599,1.061599,0.611599,2.469931,0.438663,1.384511,0.943877,0.945535,0.984672,0.675535,greater than 0.02356751225,
-0.671323,-1.338101,-1.101647,-0.250721,0.116943,-2.130295,1.654619,0.975194,-0.525669,0.152876,-1.026995,0.024993,10.157065,11.416604,-7.780101,-11.663216,19.555566,0.816253,0.530486,2.291736,0.650193,0.757588,0.982131,1.804007,0.676744,1.120441,0.421549,0.557695,1.853224,2.009924,0.792521,between -0.00016276260500000002 and 0.02356751225,
-1.584195,-1.555388,-0.124421,0.611645,-1.115206,-0.326599,-0.128364,-2.050382,0.778895,0.370213,-0.517321,0.630201,30.118217,5.753111,20.449701,19.387368,-0.753273,0.377347,0.426009,1.925533,0.401064,0.270991,0.804008,0.672176,0.975158,0.480977,0.703781,0.350298,0.468194,1.475439,0.705758,between -0.023711622 and -0.00016276260500000002,
1.193871,0.760429,0.911664,2.097498,0.187249,0.446467,0.809221,1.384759,0.732114,-0.672134,1.317235,2.271739,-1.8661,66.454002,25.936053,-61.965016,0.023826,0.268817,0.778141,0.570492,1.908039,2.27598,0.530802,1.443459,1.382191,2.128083,2.197291,0.922353,0.538056,0.970304,0.675535,greater than 0.02356751225,
-0.436333,-2.342794,-2.203166,-0.492876,-0.327256,-0.830874,-0.943219,-0.630195,-0.527658,0.371821,-0.972956,0.024993,57.93535,45.296319,18.864549,-13.885157,32.160576,1.351001,0.776506,2.244178,0.650193,2.192349,0.337356,0.676744,2.124684,2.036243,0.5534,1.753665,0.945312,0.984672,0.792521,between -0.00016276260500000002 and 0.02356751225,
-1.270988,-0.100429,0.627325,-0.270935,-1.115206,-0.793943,0.839913,-0.630195,0.424435,0.152876,-0.517321,-0.02778,32.491755,40.586318,4.468085,7.238778,-39.702852,0.388703,0.426009,2.291736,0.401064,0.337356,1.494368,1.438202,0.946691,1.274761,2.134651,0.350298,0.945535,2.009924,0.792521,greater than 0.02356751225,
0.686487,-1.414942,-1.256492,0.890431,2.186236,-0.245625,2.052236,2.266189,-2.088736,1.017236,0.981821,-1.849108,-19.34997,8.956156,-29.87667,-66.37392,62.58979,0.933469,1.436216,2.202651,1.876531,1.423176,2.047819,0.460968,1.854212,2.353351,2.192729,1.247591,1.847359,1.983581,1.504832,less than -0.023711622,
1.832189,-0.659621,-1.364956,1.179467,0.221932,0.519455,-2.144219,-0.281361,-0.997986,1.780542,1.823219,-1.912365,16.85995,28.41561,-36.31519,33.92559,-32.13181,0.821213,1.563185,2.225941,2.374827,1.594895,1.231531,0.409811,2.011388,0.315911,0.893158,1.991816,0.654316,0.972675,2.131895,0.517821,less than -0.023711622
-0.270832,-1.103415,1.139953,-1.144467,0.078125,-2.235628,0.689655,2.231655,0.168195,-0.245349,-1.693814,-1.032899,-72.19486,21.48597,-33.44727,-11.75958,68.19486,1.381107,0.734494,0.569339,0.595985,1.863531,0.289985,0.289985,0.936516,1.936516,1.189362,2.101966,1.394491,1.877323,1.42329,1.09166,greater than 0.02356751225
2.067969,0.356331,-0.266061,-0.796462,1.910762,-1.595204,-0.788153,1.900542,-0.672388,-0.470631,-0.180885,-0.026348,-14.86446,-50.23537,31.24095,57.92498,-52.38255,0.537804,0.322964,0.307942,0.98273,1.379191,1.524966,1.078517,1.655374,1.435181,2.023955,0.557735,1.494587,2.044221,2.153949,0.300171,greater than 0.02356751225
0.799501,2.064407,1.823219,1.795742,-1.803488,1.451244,-1.770411,0.596406,2.251426,0.911847,-1.830982,-1.519304,49.82497,72.37122,35.50191,-14.85287,-11.43972,1.738398,0.664226,2.263551,0.483495,0.911847,1.646349,2.193774,2.390842,2.078123,0.418058,1.152996,1.479465,0.753224,1.474831,1.693411,between -0.00016276260500000002 and 0.02356751225
-2.09841,1.305355,-0.895833,1.251418,-0.967966,-0.817204,-2.093491,-2.155054,-1.348335,-0.101799,-0.080895,-0.883593,-30.83767,28.48852,-66.49224,-41.21092,-54.67411,1.152295,1.097955,0.354955,1.017492,1.731324,0.515955,1.137671,0.911336,1.255955,2.061524,0.522355,0.682699,1.51269,2.388955,2.435328,between -0.00016276260500000002 and 0.02356751225
-0.04087,-0.555267,-1.861817,0.811419,1.344565,1.204213,0.294515,-0.192739,-1.080664,0.736362,-1.819438,-0.175355,14.40879,25.55512,-45.94051,50.84519,15.64882,1.304759,0.313294,1.718387,0.671205,1.455651,0.823789,2.446407,1.972993,1.046271,0.300171,0.631355,0.690885,1.356355,1.085,0.384665,between -0.023711622 and -0.00016276260500000002
1.813345,-1.430542,-2.05277,0.056799,0.214337,-1.335409,-0.804968,-0.494335,-1.012987,0.429399,2.335129,0.508355,73.97519,-52.91155,55.06146,62.64423,59.62111,0.678342,0.919412,1.550817,2.02168,1.67116,1.294964,1.429505,2.288335,0.309645,1.375289,2.348679,1.730355,1.65519,2.06594,0.371419,less than -0.023711622
-0.439,0.127,-0.251,1.819,1.452,-0.938,0.881,-1.429,1.094,-0.541,-0.275,-0.684,-21.368,-14.119,34.191,-17.492,-51.942,1.039,1.854,1.394,0.827,1.621,1.276,0.934,1.481,1.168,1.432,1.823,0.615,1.352,0.493,between -0.00016276260500000002 and 0.02356751225,
0.186,1.353,-0.963,0.632,-0.297,0.49,0.317,0.216,-0.199,-0.751,0.483,-1.162,13.462,-24.191,40.982,-29.355,-15.638,1.658,0.96,2.082,1.427,0.592,1.435,1.629,0.279,1.048,1.884,1.259,1.469,1.618,1.274,less than -0.023711622,
-0.812,-0.463,0.751,0.216,-1.574,0.937,-0.799,-0.473,0.827,-0.964,0.115,-0.375,4.189,-46.316,51.935,-11.285,-71.462,1.284,1.457,0.601,0.282,1.947,1.084,1.359,1.664,0.826,0.394,1.987,1.731,1.113,1.854,between -0.023711622 and -0.00016276260500000002,
-1.203,-0.114,0.269,1.514,1.296,-0.57,-0.321,-1.849,-0.146,0.854,-0.982,-0.135,-18.336,21.781,-7.305,-40.604,11.759,2.189,1.129,2.375,0.686,1.474,0.762,0.565,1.304,1.673,1.077,1.924,0.699,0.982,0.542,less than -0.023711622,
0.324,-0.941,-0.328,2.197,0.406,-0.822,0.542,-0.809,0.948,0.319,0.205,-1.751,26.191,-32.982,28.475,3.517,-60.451,0.707,1.915,0.939,1.925,0.438,1.958,0.799,0.914,0.295,1.655,1.871,1.355,2.456,1.693,between -0.00016276260500000002 and 0.02356751225,
-0.695,0.493,-0.119,1.098,-0.677,-1.398,-0.966,-0.397,0.156,-0.736,0.474,-0.686,-10.189,-11.319,16.785,-24.983,20.67,1.901,0.781,1.843,0.764,2.077,1.141,1.835,1.037,1.566,1.227,1.551,1.783,1.292,0.885,less than -0.023711622,
-0.322,-0.182,0.836,-0.53,1.484,-0.281,-0.215,0.899,0.619,-0.355,0.962,-0.729,17.797,48.319,13.194,-36.797,-28.396,0.98,2.199,0.618,0.925,0.982,0.646,0.441,0.734,1.791,1.551,1.068,0.526,2.367,0.815,between -0.023711622 and -0.00016276260500000002,
-1.061,-0.815,-0.482,0.688,-1.245,0.694,-1.142,0.236,0.457,-0.836,0.158,-0.517,22.988,-19.23,44.818,-16.646,-50.978,1.354,1.01,1.756,0.499,1.859,0.924,1.855,1.077,1.604,0.79,2.026,1.634,0.991,1.429,less than -0.023711622,
0.107111,1.444445,1.818181,-0.962963,-0.224225,-0.681681,2.224225,0.740741,-0.674674,0.888889,-0.962963,0.888889,9.324324,-30.14014,1.722722,40.16016,-22.68228,1.506506,2.181818,1.831831,1.715715,1.184184,0.474747,1.616616,1.525525,1.999999,0.656565,2.090909,2.201201,0.8080808,2.242424,greater than 0.02356751225,
1.818181,0.666667,1.090909,-0.133333,-0.454545,1.454545,0.454545,-1.545455,0.3636364,1.5151515,-1.394394,-1.313131,-7.151515,-27.333333,-5.090909,19.797979,-21.515151,0.7979798,0.7575758,0.8282828,0.87979798,1.8282828,0.3737374,0.4141414,0.8181818,0.6363636,1.5151515,0.2828283,2.183838,0.5656566,1.8181818,less than -0.023711622,
0.97979798,0.444444,0.6969697,0.8282828,-0.5656566,0.010101,0.4343434,1.2727273,-0.93939394,1.2323232,0.55555555,-0.7272727,15.8181818,4.5454545,-36.060606,-32.1212121,-6.5454546,0.616161616,0.9696969697,0.6868686869,1.4949494949,0.4141414141,0.7373737374,1.129292929,2.425252525,0.7373737374,0.5656565656,0.8080808081,1.9797979798,0.7373737374,0.8181818182,between -0.00016276260500000002 and 0.02356751225,
-0.54545455,-1.6363636,0.5959596,-1.4242424,0.53535354,-0.47474747,-0.82828283,-1.010101,0.8080808081,0.4545454546,0.909090909,2.2424242424,-50.9090909,-29.0909091,-28.84848485,-61.4141414,-42.42424242,1.4949494949,2.2727272727,1.272727273,2.0303030303,0.3232323232,1.1313131313,0.7575757576,0.797979798,1.2121212121,0.4949494949495,0.8686868687,0.7575757576,0.575757575758,2.0909090909,between -0.023711622 and -0.00016276260500000002,
1.45454545,-1.4949495,0.1212121212,2.2323232323,-0.97979798,-0.6969697,-0.2323232323,2.04040404,0.7272727273,-0.09090909,-0.2727272727,0.2424242424,34.5454545,53.51515152,-40.6060606,17.45454545,-12.1212121,0.9595959596,2.2727272727,2.2727272727,0.89898989899,0.5454545455,1.8181818182,1.606060606,0.8484848485,0.575757575758,1.5656565657,2.3333333333,0.797979798,1.0606060606,1.50505050505,greater than 0.02356751225,
0.4545454546,-0.8484848485,-1.595959596,0.8181818182,0.8080808081,2.2424242424,-0.7575757576,0.89898989899,1.4949494949,-1.494949495,-0.9999999999,1.797979799,13.8181818181,-15.5151515152,5.45454545454,20.1616161616,-20.8484848485,1.2727272727,2.15151515152,0.5656565656566,1.79797979798,0.3232323232323,2.42424242424,1.27272727273,0.5050505050505,0.939393939394,0.2727272727273,1.12313131313,2.18181818182,1.475757575758,0.5656565656566,less than -0.023711622,
1.8181818182,0.9090909091,0.2575757576,-0.2727272727,-1.3737373737,0.1818181818,0.3838383838,1.4949494949,1.8181818182,0.0808080808081,-0.030303030303,-0.75757575757575,46.54545455,-30.7575757576,12.6666666667,30.4343434343,21.8787878788,0.838383838384,1.52525252525,2.24242424242,0.80808080808,2.24242424242,1.262626262626,2.24242424242,2.27272727273,2.27272727273,2.27272727273,0.6262626262626,2.25252525253,0.777777777778,1.49494949495,less than -0.023711622,
-0.4646464646,1.9696969697,-0.9595959596,1.0202020202,-1.0909090909,-0.5454545455,-0.6565656566,-0.4141414141,0.5454545455,0.8080808081,-0.3434343434,2.0909090909,24.2424242424,34.3636363636,24.8484848485,-16.5656565657,-1.1212121212,1.8787878788,1.0303030303,0.9595959596,2.0202020202,1.4141414141,0.6666666667,0.8787878788,0.3838383838,1.71717171717,1.404040404,1.89898989899,0.7575757576,0.531313131313,0.9898989899,between -0.00016276260500000002 and 0.02356751225,
-0.452157,0.821131,-1.301012,-0.197542,-0.809531,-0.380764,-0.645372,1.745199,0.486695,0.816411,1.823816,-0.927431,-29.1383,25.48393,-19.34735,31.41971,-50.33585,0.612167,0.951142,0.786253,1.429729,2.110736,1.630361,1.419712,0.517789,1.960625,1.179346,0.686317,2.011395,1.748911,between -0.023711622 and -0.00016276260500000002,,
-0.984521,-1.059406,-1.627689,-0.537411,1.014467,1.790169,-1.964461,-0.366353,1.435378,0.650312,0.745941,0.611461,-20.54027,-44.77381,-10.19231,2.686219,-24.96138,1.426393,2.245812,0.421829,0.849885,0.776125,0.364986,1.935611,0.637751,1.092399,0.943961,2.030411,2.193945,1.597181,0.29350878,less than -0.023711622,
0.824681,-0.335148,-1.445468,0.892426,-0.641379,-0.536923,0.683141,-0.475942,-0.204362,-1.593265,0.979818,0.387191,14.11097,-27.49955,51.39542,-9.324911,-54.38315,1.181398,0.710342,0.985061,1.630361,2.221736,1.630118,1.194911,2.052936,0.761514,2.179729,1.059942,1.181813,2.103964,1.737409,between -0.00016276260500000002 and 0.02356751225,
0.615964,-0.819475,1.470812,0.297665,1.270816,-1.663401,-2.210221,-0.791153,0.820169,0.654482,1.299881,-0.646319,3.778449,-67.98946,23.73493,48.39841,51.64753,0.521061,0.799863,0.557981,1.056542,1.859813,0.635123,0.939061,1.240419,2.012382,0.846485,0.432175,2.241395,1.531475,1.725824,greater than 0.02356751225,
-1.477812,-0.177743,-1.305878,-0.689151,-0.944174,-1.419354,0.959499,0.619598,-0.162655,-0.849726,0.341479,-1.880698,-45.18119,10.78497,-42.16275,31.78087,-49.65429,0.637745,2.136034,1.887459,1.429141,0.941698,1.499982,2.199201,1.699551,1.755151,0.523985,2.356505,1.784199,1.059799,1.225893,less than -0.023711622,
0.975398,-0.688189,-0.269653,2.153201,-1.533361,-0.840267,0.612832,-1.351964,1.451061,-0.816442,2.043182,0.766494,-10.37364,-53.35956,29.14499,-6.259599,36.69939,1.149599,1.494531,1.950631,0.935395,1.930987,2.151231,0.782821,0.387554,0.880335,0.984531,1.351154,1.623695,0.859141,1.981699,between -0.023711622 and -0.00016276260500000002,
-0.821189,-1.523911,0.334832,-1.689523,0.720699,-1.651362,-0.685628,-0.416106,0.832586,-0.377542,1.550592,1.905977,-48.39682,22.41914,13.69641,41.89985,-7.213722,0.869517,1.982721,0.469759,2.114392,1.753467,0.791942,2.338813,2.090588,1.624011,1.945821,1.750671,1.352799,0.927305,2.328156,less than -0.023711622,
-2.007431,1.786427,-0.445899,-1.474911,-0.654235,0.586461,-1.355187,-1.940654,0.621399,0.660698,0.745299,0.239964,-17.44599,14.19528,-24.37581,8.199189,34.67032,0.980985,0.715321,0.435619,0.850689,1.760349,0.370946,0.521499,1.981654,2.391952,2.193399,1.631964,1.797531,0.436751,0.973819,less than -0.023711622,
1.4560378,0.26915413,0.24561175,0.50983235,0.12345651,-0.14130464,-0.22564318,-0.84320156,-1.3706319,0.19117462,-0.95670545,-1.0264206,10.162221,-20.145631,-29.115191,-22.180495,15.216492,1.9821452,1.4211583,0.78319715,1.5948471,2.1278393,1.0013799,0.99172665,1.4926162,1.2740981,0.99172665,1.4926162,1.6399665,0.62483229,0.50983235,0.22023374,between -0.023711622 and -0.00016276260500000002
-0.14130464,-1.3706319,1.4211583,-0.22564318,0.50983235,0.12345651,-1.0264206,1.9821452,0.78319715,1.5948471,-0.14130464,-0.84320156,15.216492,-22.180495,-29.115191,10.162221,-20.145631,0.78319715,1.4211583,1.9821452,0.50983235,0.22023374,1.0013799,0.99172665,1.4926162,1.2740981,0.99172665,1.4926162,1.6399665,0.62483229,0.50983235,0.22023374,between -0.023711622 and -0.00016276260500000002
0.50983235,0.22023374,0.12345651,-0.84320156,-0.14130464,1.4211583,1.5948471,-0.14130464,0.50983235,1.9821452,-1.0264206,0.78319715,10.162221,-29.115191,15.216492,-22.180495,-20.145631,1.9821452,0.50983235,0.22023374,0.99172665,1.4926162,1.2740981,0.99172665,1.4926162,1.6399665,0.62483229,0.50983235,0.22023374,0.50983235,0.22023374,0.50983235,between -0.023711622 and -0.00016276260500000002
1.9821452,-0.84320156,0.50983235,0.12345651,-0.14130464,0.22023374,-1.0264206,1.4211583,0.78319715,1.5948471,-0.14130464,-0.84320156,-20.145631,-22.180495,10.162221,-29.115191,15.216492,0.50983235,1.4211583,1.9821452,0.99172665,1.4926162,1.2740981,0.99172665,1.4926162,1.6399665,0.62483229,0.50983235,0.22023374,0.50983235,0.22023374,0.50983235,between -0.023711622 and -0.00016276260500000002
-0.84320156,1.4211583,1.9821452,-0.14130464,0.50983235,0.22023374,0.78319715,-0.14130464,0.50983235,1.9821452,-1.0264206,0.99172665,15.216492,-29.115191,-22.180495,10.162221,-20.145631,1.9821452,0.50983235,0.22023374,1.0013799,0.99172665,1.4926162,1.2740981,0.99172665,1.4926162,1.6399665,0.62483229,0.50983235,0.22023374,0.50983235,0.22023374,between -0.023711622 and -0.00016276260500000002
1.4211583,0.50983235,0.22023374,-0.84320156,-0.14130464,1.4211583,1.5948471,-0.14130464,0.50983235,1.9821452,-1.0264206,0.78319715,10.162221,-20.145631,-29.115191,-22.180495,15.216492,0.78319715,1.4211583,1.9821452,0.50983235,0.22023374,1.0013799,0.99172665,1.4926162,1.2740981,0.99172665,1.4926162,1.6399665,0.62483229,0.50983235,0.22023374,between -0.023711622 and -0.00016276260500000002
0.22023374,0.50983235,1.4211583,-0.14130464,0.22023374,0.50983235,1.9821452,-0.84320156,0.78319715,1.5948471,-0.14130464,0.99172665,15.216492,-22.180495,-20.145631,-29.115191,10.162221,1.9821452,0.50983235,0.22023374,0.99172665,1.4926162,1.2740981,0.99172665,1.4926162,1.6399665,0.62483229,0.50983235,0.22023374,0.50983235,0.22023374,0.50983235,between -0.023711622 and -0.00016276260500000002
0.99172665,0.50983235,0.22023374,0.78319715,0.99172665,1.4211583,1.5948471,-0.14130464,0.50983235,1.9821452,-1.0264206,0.99172665,10.162221,-20.145631,-29.115191,-22.180495,15.216492,0.50983235,1.4211583,1.9821452,0.99172665,0.99172665,1.4926162,1.6399665,0.62483229,0.50983235,0.22023374,0.50983235,0.22023374,0.50983235,0.22023374,0.50983235,between -0.00016276260500000002 and 0.02356751225
-0.49312155,0.65923514,-0.11176542,0.98216489,1.4365162,-1.6893621,1.2345016,2.2456789,-0.21561281,-0.9842134,-1.542135,-0.6548231,-14.256341,-29.123456,-50.654321,68.421735,-46.219874,1.9456123,1.7214562,1.456789,2.0123567,1.9456712,1.2345678,1.9876543,0.7654321,1.8765432,1.2345678,0.9876543,1.7654321,1.5432167,0.654321,less than -0.023711622,
-1.9564214,-0.7654321,0.5432167,-0.9876543,1.2345678,0.87654321,0.12345678,1.9012345,0.56789012,0.87654321,-0.12345678,-1.2345678,-63.210987,-45.678912,27.890123,-19.876543,53.421098,1.0123567,0.94567123,2.0123456,1.756789,1.9345678,0.87654321,1.2345678,0.94567123,2.0123456,1.456789,0.87654321,0.90123456,1.0123567,1.654321,greater than 0.02356751225,
-0.7654321,-1.2345678,0.5432167,1.2345678,-0.87654321,-0.12345678,-0.9876543,0.5432167,-1.2345678,0.654321,0.87654321,-0.5432167,-29.187654,50.876543,20.123456,45.678912,-50.654321,1.456789,1.2345678,0.90123456,1.7654321,2.0123567,0.5432167,0.12345678,0.9876543,1.654321,0.87654321,1.2345678,0.12345678,0.654321,0.9876543,between -0.023711622 and -0.00016276260500000002,
0.12345678,-0.87654321,1.2345678,-0.9876543,1.2345678,-0.87654321,-0.5432167,1.9012345,-0.12345678,-1.2345678,1.2345678,1.9012345,34.56789,63.210987,10.987654,-40.123456,30.876543,2.0123567,1.0987654,1.2345678,0.12345678,1.0123567,1.2345678,0.5432167,0.9876543,1.0123567,0.9876543,0.12345678,1.2345678,0.5432167,1.9012345,between -0.00016276260500000002 and 0.02356751225,
1.2345678,-0.5432167,0.654321,0.5432167,-1.2345678,0.9876543,1.2345678,-0.654321,0.12345678,0.5432167,0.87654321,-0.12345678,10.123456,50.987654,-20.876543,60.123456,10.123456,0.87654321,0.12345678,0.9876543,0.5432167,0.12345678,0.87654321,1.2345678,0.7654321,0.90123456,1.2345678,1.0123567,0.12345678,0.654321,1.5432167,less than -0.023711622,
-0.87654321,-0.5432167,-1.2345678,-1.9012345,0.87654321,0.9876543,-0.12345678,0.5432167,1.2345678,0.654321,1.2345678,1.9012345,-30.654321,40.123456,-50.654321,70.123456,20.123456,1.0123567,1.0987654,0.5432167,1.2345678,1.0123567,1.0987654,0.87654321,0.9876543,0.5432167,0.12345678,0.9876543,1.2345678,0.90123456,0.23456789,greater than 0.02356751225,
-0.9876543,1.2345678,0.87654321,0.5432167,-0.12345678,0.87654321,0.12345678,0.5432167,-0.9876543,0.87654321,-1.2345678,-0.9876543,50.987654,20.876543,-40.123456,10.987654,60.123456,0.5432167,1.2345678,1.9012345,0.9876543,1.0987654,0.12345678,1.9012345,0.9876543,0.654321,0.12345678,0.654321,1.0987654,0.87654321,0.12345678,less than -0.023711622,
-1.2345678,-0.654321,0.9876543,-0.5432167,0.87654321,-0.12345678,-0.87654321,0.9876543,1.2345678,-0.5432167,-0.87654321,1.2345678,-20.123456,50.123456,30.987654,-40.654321,50.654321,2.0123567,0.5432167,0.9876543,0.12345678,0.87654321,1.2345678,0.098765432,0.87654321,1.0987654,1.2345678,0.654321,0.12345678,0.5432167,0.87654321,between -0.023711622 and -0.00016276260500000002,
0.45213434,-0.98161749,1.20805645,-0.18515733,-0.73921055,-1.05539323,0.81982132,-2.05849377,-0.46261121,0.98291113,1.40016428,0.19542142,23.421105,-31.489153,60.430948,-47.199051,20.616431,1.51406186,1.93992369,0.94119327,2.19364738,0.86416291,1.46025456,1.73614125,0.41973477,2.00842131,0.61219255,1.92892345,0.82218053,1.65035235,1.98174295,between -0.023711622 and -0.00016276260500000002,
-1.65625249,1.47138067,-1.35088769,-0.93715485,0.26938281,0.62839973,-0.23681317,-0.81885581,2.23582192,-0.67849342,0.94528947,-1.43049759,-56.387172,-64.823141,-34.149965,66.059039,44.717284,0.97741287,0.59965449,1.11642947,1.82310121,0.75034827,0.98279129,2.20136233,1.05711072,1.32691173,1.95617168,1.02539935,0.44376067,1.75945095,2.19934927,greater than 0.02356751225,
-0.33381457,0.69014928,1.42949767,-0.46063064,-1.63434316,1.81374328,0.89654324,1.05430972,0.46676549,1.42141925,-1.79456395,-0.20112051,30.499055,-20.641354,-69.235905,-13.696419,51.399331,1.67613842,2.06096139,2.07839516,0.65978908,1.89217241,1.82327302,0.61838817,0.94317997,1.91072167,1.42615341,0.76178969,2.15681646,1.1424684,0.97442168,less than -0.023711622,
-0.19236034,-1.79487613,0.85439821,-0.68617668,-0.43034464,-0.68949316,0.10520131,1.94198114,-2.13536847,2.11066936,-1.02742954,-1.96215415,-16.475851,-50.373139,-32.760171,42.877926,36.436659,1.46718646,0.83766155,1.38263811,2.07595142,1.53463177,2.00269598,1.4813238,1.44255195,0.95590774,2.18642925,1.93479643,1.67052541,1.04456531,1.75582263,between -0.023711622 and -0.00016276260500000002,
1.68519719,-0.37143017,-0.61562509,-0.65484529,-1.01524872,-0.75767632,0.77176234,0.43010199,2.1602552,-0.46072297,0.64575934,-1.15043955,-47.761341,-24.555395,-68.455509,-45.819982,14.255208,0.69053085,0.92419396,1.73415841,2.15479949,0.96215714,0.55974099,2.14144419,0.42579057,1.64615319,1.91106196,0.98719111,0.37185471,0.62346672,0.95022943,between -0.00016276260500000002 and 0.02356751225,
1.10937264,-0.96419554,-1.44576599,0.94485763,-0.24238085,-1.96924988,-0.27051758,0.69198276,0.98445047,-0.24694091,0.9809716,-0.41221315,-13.764171,-26.525963,-60.392291,51.651655,53.743646,1.35721913,0.80225542,1.94311477,2.39688355,0.81625436,1.47566117,0.82179156,0.93355525,1.91489914,0.94318287,0.93234154,1.68416683,2.01539918,0.85972365,greater than 0.02356751225,
0.68901018,-0.63316758,-1.04749375,-0.44974317,-0.83758667,1.06104445,0.81644457,0.59693531,0.42818282,-1.90215494,-0.44445547,2.05711563,35.914302,-54.671987,-38.734773,39.799195,28.363899,0.89055671,0.91524614,1.68645997,2.09839239,1.47458481,2.18281601,1.90072351,0.59781966,0.36912819,0.82179225,0.51542281,2.25972535,2.04973796,1.11829922,less than -0.023711622,
0.49798212,-0.62453155,-0.67839618,-1.32657929,1.16142954,-2.19443967,-1.31134898,-0.39765466,1.82468613,2.13991177,0.93910574,1.77658626,29.451421,-25.824135,-45.980832,-21.335634,49.891641,2.12495033,0.62226154,1.44910887,1.94098584,0.77839441,0.99933272,0.82342111,1.74301132,1.64978427,2.19651151,0.91149174,1.02613619,1.82319449,1.42139445,between -0.023711622 and -0.00016276260500000002,
0.1658744275,-0.99191821,0.5689176850000001,-0.6706535874999999,0.030131285,-0.380937205,-0.6001075324999999,0.0375806499999999,-0.8701730725,-1.8731154,-1.83061735,-0.8669782675000001,-29.01798025,-40.24666475,-6.7053773,-50.20625325,31.72932925,1.376048125,1.404495905,0.646177115,1.27520875,0.4686377375,1.2099397,0.6509784925,1.1829923,1.414337375,0.797087845,1.12215693,0.7846358225000001,1.635185075,0.6185478025,less than -0.023711622,
-1.8978009,2.1496807,0.16092256,-1.3035186,-1.5731952,0.52250256,-2.1924597,2.2109375,2.0389231,-0.31133273,-1.8173504,1.4971899,-28.243685,58.388502,35.556301,-5.2543391,40.322888,1.4765554,0.46677106,0.77123287,1.3608159,1.4833042,1.3934896,1.6300573,1.8733098,1.9670689,0.52686712,0.55569882,1.3800043,2.2321035,2.213173,1.2987168,between -0.023711622 and -0.00016276260500000002
1.9043431,-0.2521022,-0.6439332,1.7722043,-1.5731952,0.77616773,1.1584079,-2.2292927,0.48214932,-1.8253732,-1.3946883,-1.1027458,-0.75115379,-24.641706,-3.1563094,51.907886,15.836791,2.4090755,2.0818061,0.66526573,2.3710921,0.4456484,1.2626153,0.27487594,2.0898719,1.226966,1.8671126,1.3109763,0.82788086,1.6936433,1.8122203,1.2370203,between -0.00016276260500000002 and 0.02356751225
0.452299265,-1.556371,0.54455275,0.83873828,1.9187951,2.3106183,-0.23578252,0.32239102,-0.82139473,2.118509,-1.0308393,2.1389796,-31.340866,54.070169,57.329264,-67.066288,66.900871,1.4190873,2.0996413,1.1714205,2.0650947,1.0474427,1.8688256,0.85175671,2.4750919,2.3696449,0.8720382,1.3460406,0.65490071,1.4162789,2.1491683,1.0718674,greater than 0.02356751225
-0.93296054,-2.1496807,0.20348015,-1.3035186,-0.34022743,-2.0745069,0.72909849,1.747003,-1.0165081,-2.0414616,0.058643953,0.73961811,-16.572299,19.37713,21.424882,-62.00673,52.881877,1.9106357,1.5541639,2.083084,1.8926798,1.2690972,1.2171143,0.53935702,1.223362,2.0452231,2.3151937,1.4608533,2.0616642,1.8902321,0.63014332,1.5687091,less than -0.023711622
1.2069541,-1.556371,0.54455275,0.83873828,1.9187951,2.3106183,-0.23578252,0.32239102,-0.82139473,2.118509,-1.0308393,2.1389796,-31.340866,54.070169,57.329264,-67.066288,66.900871,1.4190873,2.0996413,1.1714205,2.0650947,1.0474427,1.8688256,0.85175671,2.4750919,2.3696449,0.8720382,1.3460406,0.65490071,1.4162789,2.1491683,1.0718674,less than -0.023711622
-1.8978009,1.8216469,0.028036906,-0.02262178,1.4992515,0.77616773,1.1584079,-2.2292927,0.48214932,-1.8253732,-1.3946883,-1.1027458,-0.75115379,-24.641706,-3.1563094,51.907886,15.836791,2.4090755,2.0818061,0.66526573,2.3710921,0.4456484,1.2626153,0.27487594,2.0898719,1.226966,1.8671126,1.3109763,0.82788086,1.6936433,1.8122203,1.2370203,greater than 0.02356751225
0.78854658,1.8645508,0.11836497,0.7318384,0.67267401,0.61092078,-0.54997466,2.2829852,1.8619551,-1.0956981,0.61767877,-0.065767213,65.63133,-34.229496,-45.147254,60.09378,46.168588,1.4569646,1.9540869,0.58891127,1.5816866,1.1574361,1.0290418,0.85595656,1.0618832,1.5716114,0.57223678,0.33357115,0.83031033,2.0257722,1.6531792,1.232045,between -0.00016276260500000002 and 0.02356751225
-1.1859871,0.8778852,0.13150141,1.5102362,1.5177643,-0.99541241,0.55975575,-1.476638675,1.5154482,-0.79859602,1.3315113,0.77874988,22.071614,-22.671057,-53.40752625,32.666362,8.4282118,2.1693254,1.7200018,0.73362878,1.1219273,0.83181592,2.2285348,1.3424136,1.3708807,1.5312605,1.4561222,1.0161091,1.2983908,0.96582458,greater than 0.02356751225,,
2.3156759,-0.055325666,0.84326213,-0.44423805,1.2556885,-0.48210741,-0.91551204,-1.6575476,-1.0972125,-2.0236986,0.40707875,0.013683889,46.616957,41.1943,-47.397745,18.680218,60.268463,1.1058414,0.96616024,0.25474793,1.6010164,1.4784425,0.83790042,1.2172765,1.1831994,0.703517825,0.8671321949999999,0.95732423,0.82708858,0.79383336,less than -0.023711622,,
-2.1858908,0.18454187,-2.06384,1.8318137,1.6124206,-1.8790903,-1.9495983,-1.0607523,2.1709079,-1.2732105,-0.59941149,-0.61626168,-29.346265,-65.784593,-32.458578,-0.066093996,-43.919101,2.2974975,1.88571605,0.3603272,2.0313208,1.2759367,0.48018572,1.1831994,0.46641466,1.98110055,1.0187201,0.39049165,0.73508781,2.2825938,0.30372664,between -0.023711622 and -0.00016276260500000002,
0.69125464,-0.26449201,-0.99541241,0.9366121,2.2603162,2.2795671,-2.1825907,-1.476638675,-2.1273936,-0.32398154,-2.3484872,-0.42497276,10.215042,-54.63921,-71.43687,-39.465928,23.552967,0.50259127,0.52901967,2.2238346,1.1229273,0.35338477,1.5142163,2.0317453,1.1987227,0.703517825,0.9476102125,2.2339386,1.14014672,0.3444378,between -0.00016276260500000002 and 0.02356751225,,
-1.9495983,0.18454187,1.2416354,0.033796226,-1.5178428,0.17769975,-0.054072569,-1.476638675,2.1709079,-1.5793155,-0.08442389475,-1.2879941,68.277141,33.911633,-47.191491,18.680218,8.4282118,2.1014717,2.117427,0.3603272,0.4888901,1.3923792,1.4178147,1.5142163,1.7590782,1.011717,0.815808,1.4561222,1.2995862,1.4271252,less than -0.023711622,,
0.33030159,-0.055325666,1.2413165,-0.44423805,0.84326213,-2.1454678,-1.2785634,1.8865573,-1.0972125,1.708335,1.7212115,-0.61626168,44.496065,-22.671057,-21.210414,66.575706,-62.102586,1.4001438,2.1165949,1.5051476,1.7650904,2.3912791,0.61473647,1.1987227,2.0317453,2.2080632,1.0161091,0.95732423,2.1693254,0.96582458,0.71597031,greater than 0.02356751225,
2.163016,-0.26449201,-0.99541241,-2.2226314,0.84326213,-0.48210741,-0.054072569,1.0599751,-1.0972125,-0.32398154,-2.3484872,0.66680742,15.530337,7.608649,-53.40752625,32.666362,30.767627,1.6390413,2.351937,0.73362878,0.511617365,1.2759367,1.5142163,1.1831994,1.1831994,1.5312605,0.9676102125,1.494021,0.82708858,1.3444378,less than -0.023711622,,
1.4553139,-0.26449201,-2.06384,-0.44423805,0.84326213,-0.99541241,-0.054072569,-1.476638675,-1.0972125,1.0486358,-2.3484872,-0.95427069,68.277141,-30.66309525,-32.458578,-0.066093996,-43.919101,2.2974975,2.0514303,0.25474793,1.2983908,1.4784425,0.35338477,1.1831994,0.46641466,0.703517825,0.9839386,0.39049165,1.4271252,2.2825938,greater than 0.02356751225,,
0.13916763,-0.64745096,-1.6429755,-0.03076998,-0.91119095,-1.2941154,-1.8271693,1.5083541,0.11541892,-0.083149699,1.1832561,0.70388741,3.7018245,-21.649124,43.176742,-28.489385,-21.100538,0.46999548,0.96396612,1.3191544,1.0280057,1.4425647,0.68574062,1.0620287,0.29750652,1.9216386,1.9806824,1.1500636,0.86873142,2.0189674,0.58687564,greater than 0.02356751225,
1.4478503,-0.28922805,-0.52443659,-2.0382949,1.4449653,-1.469961,1.8677352,-0.92762678,-1.8922327,-0.083149699,-0.69359465,1.7212958,-52.933081,-33.769708,32.511531,-28.692898,8.4571706,1.3589572,0.38537218,1.927872,1.2610488,0.53653397,1.2903855,1.1689837,0.77493099,0.51507983,0.52703636,2.292802,1.7141594,1.3169832,0.78301692,between -0.00016276260500000002 and 0.02356751225,
-1.1407802,1.079471,-1.5055752,-0.65925104,-0.81846894,-0.54410203,-0.034592748,0.38645686,0.33620501,-0.083149699,0.62006449,-0.76442169,-30.800955,-62.165999,-73.953591,-38.009537,23.705869,2.2003928,0.70015445,0.25147282,2.1043936,1.5531797,0.77493099,2.4121289,1.7659978,0.62499417,1.7536648,2.1043936,1.632043,0.45187219,0.76049483,less than -0.023711622,
0.2388417,-0.37756683,0.64226823,0.98824626,-0.91119095,0.5272623,-0.034592748,-1.9507338,-0.20987516,0.22493718,-0.01710298,-0.083149699,14.715073,-27.709416,-33.436042,-28.489385,-45.034871,0.46999548,2.2003928,0.80865668,2.4643841,1.2903855,1.2899427,1.1689837,0.51507983,0.44678245,2.1043936,2.1589415,0.58919421,1.4152505,0.53650643,greater than 0.02356751225,
-0.25946575,0.33080167,1.1796281,-0.30909699,0.20815943,-2.1215434,-1.3542246,1.0817226,-0.52443659,0.44316755,-0.68368189,-0.76442169,-36.3339865,-43.430947,-24.853455,9.668737,52.462605,1.234509,1.1358277,0.682253285,0.34285138,0.5069728824999999,0.96833949,1.1689837,1.6082389,0.62499417,0.52703636,1.1500636,0.86873142,2.0189674,0.58687564,between -0.00016276260500000002 and 0.02356751225,
1.1339842,-0.92762678,2.1296003,-2.0382949,-2.1228635,-0.008419865,-0.034592748,0.38645686,0.57186159,-1.6585347,0.62006449,0.70388741,66.289288,-62.165999,-43.92755,-19.119993,5.2516857,0.82374693,2.2003928,0.92548341,1.2610488,0.68574062,1.9336471,0.77493099,0.51507983,1.9216386,2.292802,0.86873142,2.1589415,0.78301692,1.1188347,less than -0.023711622,
0.5490532,-0.74297546,1.8221668,1.5974933,0.20815943,1.9429703,-0.034592748,-0.92762678,-1.8922327,-1.9957259,0.62006449,-0.76442169,-14.233299,-21.649124,43.176742,-59.55523,-49.721778,1.0265169,1.743013,1.06390554,0.65875098,2.0791641,0.98787313,1.0620287,1.6082389,0.62499417,2.292802,2.1043936,0.86873142,1.939908,0.75982442,greater than 0.02356751225,
-2.3047668,1.6185587,1.1796281,0.98824626,-0.81846894,0.5272623,2.0080056,-0.92762678,2.2074649,1.2942894,0.62006449,-0.083149699,-28.489385,32.511531,-21.649124,43.176742,-45.034871,1.3589572,2.2003928,0.70015445,0.65875098,0.5069728824999999,0.96833949,2.2426177,0.51507983,0.44678245,0.52703636,2.1589415,1.632043,1.3169832,1.4152505,between -0.00016276260500000002 and 0.02356751225,
1.5468005,0.27316383,1.3326716,-0.39816636,-1.7678055,1.351734,-0.10711607,1.3998453,-0.17345695,-0.72572325,1.4566107,-1.3175654,21.499549,-10.341542,12.187942,-24.876289,-37.432409,2.0308296,1.9102977,1.654354,0.94401651,1.0610374,1.4215928,0.95661526,1.0297647,0.64082326,0.9874278,0.72617658,1.8993067,1.136819,0.62915673,between -0.00016276260500000002 and 0.02356751225,
-0.7349956,-0.46015545,-0.65053874,1.4210344,1.3565311,-0.38419193,-1.5845231,-0.77614322,0.86140855,-1.4452312,0.6047917,-1.6282732,-29.187611,46.463523,-8.5178195,-0.67621845,53.831306,1.3262972,0.97147893,2.0624256,2.2453514,1.0941297,0.43937258,0.95639077,2.062382,1.9790613,1.4571455,1.3444752,1.6442454,1.3993972,1.5082092,less than -0.023711622,
-0.33338786,-0.90014264,0.66137487,0.15750395,-2.0812452,-0.46015018,-0.38023646,-1.1494458,-0.6514857,-0.68981331,1.4422556,1.7518453,34.649194,3.6844245,-2.6312376,-44.876323,-35.75989,0.9019609,2.1635946,0.42928735,2.4235236,1.5544452,0.52311378,1.4003496,2.3131257,0.36851493,1.0249255,2.4759302,2.428199,1.7964741,0.99301635,greater than 0.02356751225,
-0.16031994,0.9910555,-0.13573407,-0.6127374,-0.75117563,1.1110585,0.94481876,1.7903735,0.2917553,0.12439831,1.4575833,-0.6418507,-38.162355,-25.774663,-13.865201,-16.665234,-18.824549,1.7407076,2.2874493,1.9418249,0.91134195,2.2204495,2.2501498,1.0773195,0.51245414,1.5361297,1.564901,0.81551122,1.9326958,1.8249854,1.4301477,between -0.00016276260500000002 and 0.02356751225,
0.72917916,-0.40650438,2.0626889,0.40387057,0.39433137,-0.89232333,0.67649717,0.78313877,0.41232634,-0.2924919,-0.73498256,-0.32515524,3.1936311,-27.383399,-40.660413,44.586412,15.586395,2.153154,2.2990653,1.5545904,0.93568642,0.45047355,0.64975678,2.1681572,1.4609876,0.74435614,0.65872987,0.89215835,2.1613047,1.2455401,1.6234444,less than -0.023711622,
-0.54161171,0.9005632,-0.65053874,0.74486065,-1.7678055,1.1102415,1.398686,1.9560576,0.99549479,-1.0861295,-1.0497255,-0.70215367,-45.438479,-5.7954113,22.191804,-1.0246098,-3.3326563,0.61522841,1.3842375,1.630517,1.9086367,0.9268162,1.1882377,0.65481477,1.9784607,0.7397755,1.2571957,0.94963266,0.78511635,2.2491426,0.50096472,1.5259796,less than -0.023711622
-0.27717558,2.0626889,0.16835655,1.8873527,-0.30895075,-1.8996289,-0.77448285,0.99095095,0.29634893,0.27874447,-1.0024909,-0.6418507,24.857491,-20.779946,30.222311,-10.624707,-14.976554,0.94201735,2.185563,0.97265493,1.937058,0.67050127,0.42638239,1.536528,0.9798211,1.0405094,1.0354063,1.3943957,2.4194753,2.2405185,0.91134195,1.8701354,between -0.00016276260500000002 and 0.02356751225
-1.6276924,-1.2078482,0.66696993,-1.0097226,-1.0953209,2.2445995,2.310468,1.9507076,1.4532025,-0.33746298,1.9760291,-1.7968658,56.572851,-30.09216,41.060837,-40.507177,45.875133,1.725376,1.8949843,1.7517361,1.6783325,0.98405766,0.8070501,0.34103806,0.32665795,1.6401419,0.36452778,1.3683462,2.0446113,1.0321898,2.0133143,1.5236747,greater than 0.02356751225
-0.33440606,1.42315629,1.35276415,-0.65876463,-1.33549265,-0.87022555,-1.41293653,-0.45922748,0.83140262,2.06046149,0.21639035,-0.78694128,2.13879733,-13.41464367,-3.68481469,-54.29566922,-8.25033214,1.42199146,1.89234821,1.15679007,2.27235545,2.17233824,0.70440817,2.27642149,1.02140842,1.44475531,0.63720917,1.82033955,0.46821985,1.64395273,2.17734362,between -0.023711622 and -0.00016276260500000002,
0.67821356,0.85429744,0.54021956,-0.44573548,0.42550698,0.98139024,0.27516544,-1.89011222,-0.34958469,0.63215421,-2.14940627,-0.27394142,-27.98133649,-5.68678319,22.19619728,26.49443656,50.73434378,1.03434466,0.86631649,2.14463149,0.99315055,0.81132006,2.20371649,0.93870114,0.44652799,2.20543158,0.96111222,1.07869342,0.93812428,2.01860922,0.54041295,between -0.00016276260500000002 and 0.02356751225,
-1.41986265,1.05976095,-1.07743462,0.23091411,-0.53017866,0.47619124,-1.01734856,-0.44517866,2.10642288,-0.45737526,0.98215789,-0.99333538,-35.25094615,-68.18225195,48.44535578,4.1997432,13.46030266,2.45698757,1.33177433,0.63812957,1.39933573,0.98133548,0.98751261,0.57019698,1.72310719,0.73445614,0.95072913,0.53144131,0.47395048,1.44421916,0.68517563,greater than 0.02356751225,
-1.64806122,-0.37304323,-0.33273472,-0.33587918,-0.59636243,-1.82378218,-0.62526549,-2.13763225,-0.51721377,2.02132419,0.44491453,-1.03410355,19.19532667,-19.33554455,-14.36464443,-3.68423994,-59.79484949,0.94553134,2.23046144,0.96484776,2.01232673,1.6703428,1.04342734,0.69981413,0.47563281,0.60418543,0.74821965,2.20297914,1.04421785,1.73915338,0.77775397,between -0.023711622 and -0.00016276260500000002,
0.41184514,-1.61295524,-0.00818157,-0.68696536,-0.14258114,-0.35033485,-1.65427164,0.93541299,0.45474142,-1.89968677,0.18475814,-1.25155543,-45.67105112,-46.19579758,-8.24485512,8.14493432,-10.54032348,2.19350971,0.82512341,1.63042915,0.82937049,0.36934917,0.45990942,1.74210842,0.93619764,1.76415688,1.01739127,2.25937014,0.89262831,0.69475969,0.98213636,between -0.00016276260500000002 and 0.02356751225,
0.63042906,0.86075396,0.44269516,-1.3516997,-0.10235566,0.81513516,0.69053172,-1.85962853,-0.45176526,-0.62334354,0.59574538,-0.542142,21.67841925,-18.30587025,1.35751777,17.38494063,28.40649346,0.33582247,2.39135786,1.4976796,1.92469741,2.23488276,0.97132335,0.86418118,0.53114246,0.68912799,0.92314124,0.93741344,0.61712436,2.01034421,2.27234428,between -0.023711622 and -0.00016276260500000002,
1.47916455,0.94191125,0.60470184,1.21768546,0.53619576,-1.41430425,0.82333887,-0.64411645,-1.66935414,-0.89936447,-0.48087649,-1.02224943,10.48599318,-55.46741917,59.77341916,-28.497111,-22.1113652,0.78710875,1.10549922,2.41484785,1.77310944,1.39932651,1.85328715,2.11165614,2.11784116,1.98511398,0.95898775,0.72211189,2.29279218,1.54943996,1.68991153,between -0.00016276260500000002 and 0.02356751225,
-0.12239266,1.9456174,-0.66034462,0.83767067,-0.67681451,1.19333571,-1.44997642,-0.2092563,1.90994269,1.45920122,1.34260465,-1.56418134,11.69510827,-43.87941117,4.40015407,-54.35533556,-0.62885487,1.91193771,2.19576762,1.02743692,0.62465152,2.19333164,0.96258444,0.97910238,1.64561134,0.68979141,2.26214105,1.74515455,1.40994692,1.68369522,0.90063142,greater than 0.02356751225,
-0.14672349,1.36415535,0.93231645,-0.6862817,-1.23065524,1.3702364,-0.67039493,1.4241592,-1.9691354,-0.9821315,-0.8471593,-0.44736864,-17.415177,-3.9456356,-7.2487955,27.989941,23.469669,0.8921358,0.91076534,1.6881317,0.99342085,0.94179194,1.7495318,0.63626485,0.9211294,0.66181677,1.0941793,1.9623526,0.93380836,2.049565,0.93470514,2.2984113,between -0.023711622 and -0.00016276260500000002
