JessupByun/synth-gen2eval-research/LTM_data/LTM_synthetic_data/LTM_llama_synthetic_data/synth_pumadyn32nh/pumadyn32nh--train--32-seed1_llama_default_0.csv
theta1,theta2,theta3,theta4,theta5,theta6,thetad1,thetad2,thetad3,thetad4,thetad5,thetad6,tau1,tau2,tau3,tau4,tau5,dm1,dm2,dm3,dm4,dm5,da1,da2,da3,da4,da5,db1,db2,db3,db4,db5,thetadd6
-0.9876543,-0.1111111,0.8765432,0.2345678,-1.111111,2.060606,-0.654321,0.54321,-0.7654321,1.111111,-0.54321,-0.9876543,39.4736842,-29.4117647,51.21951,-20.9795918,38.3823529,2.1568627,0.4210526,2.2100526,0.9473684,1.8783783,1.0526316,1.2631579,0.7894737,2.1052632,1.4210526,2.6315789,0.9473684,2.2100526,0.7368421,greater than 0.02356751225,
-1.3953488,0.7608696,0.5217391,0.5217391,1.956522,0.8695652,-1.956522,-0.5217391,-1.3913043,1.3043478,0.8695652,-0.8695652,48.2608696,-10.8695652,-30.4347826,-2.173913,26.087021,0.8695652,1.956522,2.3913043,0.5217391,2.173913,2.3913043,0.8695652,0.5217391,2.3478261,0.5217391,0.8695652,1.956522,0.8695652,0.8695652,greater than 0.02356751225,
-0.7608696,-0.8695652,0.4347826,-0.8695652,1.956522,-0.5217391,1.3043478,-1.3913043,2.173913,0.8695652,-0.7608696,-0.5217391,-11.956522,49.5652174,-50.8695652,8.6956522,-61.73913,0.8695652,1.3043478,0.4347826,0.8695652,0.8695652,0.8695652,1.956522,1.956522,0.4347826,0.8695652,2.3478261,1.3043478,0.7608696,1.0869565,between -0.023711622 and -0.00016276260500000002,
1.956522,0.8695652,-1.73913,0.7608696,1.73913,0.8695652,-0.8695652,-1.3043478,1.956522,2.3913043,-0.7608696,-0.5217391,-3.4347826,-29.3478261,-16.087021,10.8695652,43.478261,2.3478261,0.8695652,0.8695652,0.7608696,1.956522,1.956522,0.8695652,0.8695652,0.4347826,0.8695652,0.8695652,1.956522,1.956522,0.7608696,greater than 0.02356751225,
2.3478261,-1.5652174,0.8695652,2.3913043,0.5217391,1.73913,-0.7608696,-1.956522,-1.3043478,0.4347826,-0.8695652,-0.8695652,-52.173913,6.0869565,-59.5652174,40.2173913,-14.782613,0.5217391,1.73913,1.956522,0.4347826,2.3913043,2.3478261,0.8695652,1.3043478,1.956522,0.7608696,0.8695652,1.3043478,0.8695652,0.4347826,between -0.023711622 and -0.00016276260500000002,
-1.5652174,-0.4347826,2.3913043,0.4347826,-0.8695652,-0.8695652,-1.73913,1.3043478,0.8695652,-0.5217391,0.7608696,2.3913043,23.956522,-30.4347826,-35.6521739,14.782613,33.0434783,2.3478261,1.3043478,0.7608696,1.3043478,0.7608696,0.4347826,0.7608696,0.8695652,1.5652174,1.5652174,1.5652174,0.5217391,1.73913,2.3913043,greater than 0.02356751225,
-1.3043478,-0.8695652,-0.4347826,-0.7608696,0.7608696,-0.4347826,1.73913,-0.7608696,-0.7608696,0.4347826,0.8695652,-0.7608696,50.8695652,-6.956522,15.6521739,-49.5652174,-9.782609,0.7608696,0.7608696,0.8695652,2.3478261,1.3043478,0.4347826,1.73913,0.7608696,0.8695652,0.4347826,0.7608696,0.7608696,0.4347826,0.8695652,between -0.00016276260500000002 and 0.02356751225,
0.4347826,-1.73913,-0.4347826,1.73913,-1.3043478,-0.7608696,2.3913043,0.4347826,0.8695652,1.3043478,-0.8695652,1.5652174,-15.6521739,-30.8695652,13.0434783,-3.0434783,60.8695652,2.3913043,0.8695652,1.5652174,2.3478261,0.7608696,2.173913,0.8695652,1.3043478,1.5652174,0.4347826,1.73913,2.3913043,0.4347826,0.7608696,greater than 0.02356751225,
0.7608696,0.7608696,-1.5652174,-1.5652174,-0.4347826,0.4347826,0.8695652,-0.7608696,-1.5652174,-1.73913,-0.4347826,0.4347826,-60.8695652,-49.130435,11.956522,52.173913,7.608696,0.8695652,2.3913043,0.8695652,1.73913,1.5652174,0.8695652,1.73913,0.7608696,0.4347826,0.7608696,1.73913,2.3913043,1.3043478,0.7608696,between -0.023711622 and -0.00016276260500000002,
-2.3913043,0.7608696,-0.7608696,-0.7608696,2.173913,-1.73913,-0.4347826,-0.7608696,0.7608696,-1.5652174,-0.4347826,-0.8695652,16.087021,-15.6521739,-19.5652174,-40.2173913,10.8695652,0.7608696,1.5652174,0.7608696,0.8695652,0.7608696,0.7608696,0.7608696,0.7608696,2.3913043,0.8695652,0.4347826,0.7608696,0.8695652,0.4347826,between -0.023711622 and -0.00016276260500000002,
-0.8695652,0.4347826,-0.7608696,0.8695652,0.8695652,2.173913,0.7608696,-1.5652174,0.4347826,0.4347826,-1.5652174,2.3913043,-24.7826087,45.2173913,-13.0434783,-23.913,49.130435,2.3913043,0.8695652,1.5652174,0.8695652,0.8695652,0.4347826,0.8695652,0.8695652,0.7608696,1.5652174,0.4347826,0.7608696,0.7608696,2.3913043,greater than 0.02356751225,
-0.4347826,2.3913043,-0.8695652,-1.5652174,2.3913043,-0.4347826,1.73913,-0.4347826,-0.4347826,2.3913043,-0.7608696,-0.8695652,3.0434783,-34.7826087,51.3043478,-4.3478261,-10.8695652,1.5652174,0.7608696,0.7608696,1.73913,0.8695652,1.3043478,0.8695652,1.5652174,1.5652174,0.4347826,0.4347826,0.8695652,0.7608696,1.73913,between -0.023711622 and -0.00016276260500000002,
1.73913,0.4347826,-0.4347826,0.8695652,0.4347826,-1.5652174,-0.8695652,-0.7608696,-1.73913,1.5652174,2.3913043,1.5652174,22.173913,47.8260869,-45.6521739,26.087021,-5.2173913,1.5652174,0.8695652,0.4347826,2.3913043,0.4347826,0.8695652,1.5652174,0.4347826,2.173913,1.5652174,0.7608696,0.7608696,0.7608696,2.3913043,greater than 0.02356751225,
-0.7608696,-0.7608696,0.8695652,-0.7608696,2.3913043,0.4347826,-0.4347826,1.73913,-1.5652174,-0.7608696,0.8695652,0.4347826,-51.73913,-24.7826087,-1.3043478,-53.9574468,-12.173913,2.3913043,0.7608696,0.7608696,0.7608696,1.73913,2.3913043,0.4347826,0.7608696,1.5652174,0.7608696,0.8695652,1.5652174,2.3913043,0.4347826,greater than 0.02356751225,
0.8695652,-0.7608696,-0.4347826,1.5652174,0.4347826,-1.5652174,-0.7608696,-0.7608696,-0.7608696,0.8695652,0.8695652,-0.8695652,62.3913043,-42.3913043,-35.2173913,-9.3478261,30.8695652,0.7608696,2.173913,0.4347826,1.5652174,0.7608696,0.7608696,0.7608696,1.5652174,1.5652174,1.5652174,0.4347826,0.7608696,0.8695652,0.8695652,between -0.023711622 and -0.00016276260500000002,
-0.12973429,1.6333263,-0.93581485,-0.48412114,-2.0364894,1.5648234,0.87345695,-0.11035831,-1.6893862,1.6244936,0.51741342,-0.65030065,27.430441,48.839999,-14.209764,-30.735055,67.199756,2.154768,0.6772597,1.8619832,2.199771,2.2089816,1.9243952,2.154768,0.6772597,0.72303249,0.58611363,1.9243952,0.59668433,0.72303249,0.58611363,between -0.023711622 and -0.00016276260500000002,
0.65063552,-0.12319315,-0.29896034,1.9858448,-1.7601619,1.4507652,-1.0023338,0.62703911,0.8547532,0.19818753,0.62703911,0.02712142,-5.1420115,11.985191,-31.941124,-62.111213,52.399079,1.4198217,1.0111555,1.3541912,1.988395,0.33489401,0.63420315,1.542968,1.3733336,0.89241188,0.72996034,0.76036831,0.93403279,0.95847142,0.96715614,between -0.00016276260500000002 and 0.02356751225,
0.65063552,-0.12319315,-0.29896034,1.9858448,-1.7601619,1.4507652,-1.0023338,0.62703911,0.8547532,0.19818753,0.62703911,0.02712142,-5.1420115,11.985191,-31.941124,-62.111213,52.399079,1.4198217,1.0111555,1.3541912,1.988395,0.33489401,0.63420315,1.542968,1.3733336,0.89241188,0.72996034,0.76036831,0.93403279,0.95847142,0.96715614,greater than 0.02356751225,
-0.12973429,1.6333263,-0.93581485,-0.48412114,-2.0364894,1.5648234,0.87345695,-0.11035831,-1.6893862,1.6244936,0.51741342,-0.65030065,27.430441,48.839999,-14.209764,-30.735055,67.199756,2.154768,0.6772597,1.8619832,2.199771,2.2089816,1.9243952,2.154768,0.6772597,0.72303249,0.58611363,1.9243952,0.59668433,0.72303249,0.58611363,between -0.023711622 and -0.00016276260500000002,
-1.0635236,-2.2783317,0.79590794,-0.51148613,0.07139443,-2.0702362,-0.35012032,0.96950618,0.96950618,1.7567623,0.11028943,-1.0057893,-51.877323,-52.077661,-2.3952615,-20.941784,-3.8279352,0.93304308,2.1513691,0.50539991,0.69582998,0.30878788,0.81952186,0.77458742,0.86473625,0.48670148,0.74111195,2.3241457,2.2195864,0.77239471,0.52536834,between -0.00016276260500000002 and 0.02356751225,
-0.15307849,-0.84077667,-2.2017649,2.1699457,-0.24544058,-0.06289388,-0.37340985,-1.5648995,-0.24954915,-2.1797053,1.1581957,-0.15135073,16.643395,45.381819,-58.493925,-21.517655,-7.4327868,0.79422429,0.45414282,0.84501622,0.70581397,1.2256286,0.45511292,0.66013179,1.9799818,0.79232424,1.3321249,1.3321249,0.66745076,1.5505831,2.1797053,0.68767155,between -0.023711622 and -0.00016276260500000002
-0.16542557,-0.15362549,-1.961047,1.5235817,0.35087767,-1.7834192,-1.0064273,-0.45559985,1.005215,0.18129533,0.79514258,-1.5964997,-18.415864,-23.314907,-19.625,-36.27367,21.270236,1.3847369,0.69072965,0.69072965,1.9384935,2.3465491,0.91279758,1.9384935,1.3847369,1.9384935,1.3847369,1.9384935,2.3465491,0.59096689,0.72996595,between -0.00016276260500000002 and 0.02356751225,
1.3993449,-0.15362549,0.35087767,-1.0064273,0.79514258,-0.45559985,-0.16542557,1.5235817,1.0064273,-0.18129533,-0.15362549,0.35087767,19.625,36.27367,-21.270236,-18.415864,-23.314907,1.9384935,0.91279758,0.91279758,0.72996595,2.3465491,0.59096689,1.3847369,1.9384935,1.9384935,0.72996595,1.3847369,2.3465491,1.9384935,0.59096689,1.3847369,greater than 0.02356751225
-2.0978859,-1.8891936,1.9153157,-0.51148613,1.9937352,-0.43333629,0.29590875,-0.67898214,-0.17018347,0.86044736,-0.17018347,-2.326539,65.009016,-42.048568,-60.276234,-21.982418,51.586578,0.7853207,0.59888521,1.8850331,1.0008123,0.86198914,1.3601724,1.9177412,1.7269653,1.6056098,0.48331213,2.0269586,1.3426119,1.5275731,0.67175618,1.2061421,between -0.023711622 and -0.00016276260500000002
-0.721376,0.81044538,2.3512989,0.1865234,1.1600623,2.0146715,2.0698337,0.83903549,2.2016284,1.0905887,-1.6681191,-2.0754234,-17.120369,-42.048568,-60.276234,37.333149,8.2290327,1.4552796,0.63379256,2.1516033,1.4974314,0.3296239,1.9888821,0.39198837,1.6485707,0.27735049,0.92960707,1.4060082,0.52963506,2.0764869,1.2645773,1.7504082,between -0.00016276260500000002 and 0.02356751225
1.1301716,-1.8516453,-0.17809782,-0.43070731,-0.25953618,-0.25953618,-1.3270343,1.0042093,1.0042093,0.9343068,0.9343068,-0.7128352,-11.429578,55.69599,-47.631103,-17.829056,-26.111734,0.93304308,0.93304308,0.93304308,0.93304308,1.0257597,2.1513691,0.50539991,0.69582998,0.30878788,0.81952186,0.77458742,0.86473625,0.48670148,0.74111195,0.74111195,greater than 0.02356751225
-0.98976887,-0.3123388,0.12312597,0.63938284,1.8604485,1.8570238,0.84619308,-0.022893999,1.6364547,-2.3209676,0.65402085,-1.8749941,-40.768114,10.305333,-48.260594,-65.80974,35.693859,2.2252791,2.2654129,1.795409,2.188369,0.66751415,1.9103287,0.89457716,2.1583705,0.48368678,1.5737383,0.31967143,1.2177957,0.74257145,1.1482909,0.32439519,between -0.023711622 and -0.00016276260500000002
1.1465493,-1.016202,1.1721587,-1.3512323,-1.4738144,0.67991124,1.0781713,-1.1415119,1.3226346,-0.11011133,0.47429912,0.47429912,-27.349249,56.200911,13.689362,-54.40881,66.591396,1.2256359,1.4088665,0.47572996,0.6986559,0.6986559,1.4088665,2.4077252,2.2593325,2.1403455,1.2245867,2.3478196,0.6986559,1.0658232,1.6244936,1.1444493,between -0.00016276260500000002 and 0.02356751225
-0.94176059,0.74441489,-0.0116729,1.7339032,0.29807202,0.42693806,-1.4204858,-1.1420047,-0.11227375,-2.0293715,0.62505132,1.322563,-0.73424204,-40.405975,-53.227862,-0.68223163,-66.267053,1.369548,1.9924257,1.4491401,0.94800927,2.4418222,1.2054189,1.9758707,2.2095097,0.47922355,0.81019012,1.3653221,0.71855319,2.4734348,1.5184807,0.8557116,between -0.00016276260500000002 and 0.02356751225
-0.023143,0.63229016,-0.19412185,-1.0442814,0.71073426,-1.3954691,2.1539813,0.42014263,1.2915846,0.19662785,-0.37340985,-1.0057893,-51.877323,-52.077661,-2.3952615,-20.941784,-3.8279352,0.93304308,2.1513691,0.50539991,0.69582998,0.30878788,0.81952186,0.77458742,0.86473625,0.48670148,0.74111195,2.3241457,2.2195864,0.77239471,0.52536834,0.85929432,greater than 0.02356751225
-0.85020117,-0.16539418,-1.4197454,0.19662785,-0.48664318,2.2357975,-0.15307849,-1.0027487,1.0781713,1.7387645,0.9343068,1.3226346,28.926596,48.839999,-14.209764,-30.735055,67.199756,0.48664318,0.98689491,0.99695019,2.1516033,2.199771,1.5174134,0.59668433,1.1502824,0.48368678,0.72996595,2.0269586,0.73141576,0.52536834,0.52536834,0.85929432,between -0.023711622 and -0.00016276260500000002
-1.0173449,0.63229016,0.35087767,1.5648234,-1.0619111,-2.0978859,-1.0501761,2.2819519,0.35087767,-1.5743625,1.5648234,-2.1000013,-30.473035,6.5300136,-50.061,-25.222481,-14.230268,0.46614967,0.46614967,2.0073384,0.56446776,0.91024324,0.56446776,0.90852095,0.56446776,0.56446776,2.0073384,2.0073384,0.91024324,1.7601072,1.2351064,1.2351064,between -0.00016276260500000002 and 0.02356751225
