JessupByun/synth-gen2eval-research/LTM_data/LTM_real_data/pumadyn32nh/train/pumadyn32nh--train--128-seed0.csv
theta1,theta2,theta3,theta4,theta5,theta6,thetad1,thetad2,thetad3,thetad4,thetad5,thetad6,tau1,tau2,tau3,tau4,tau5,dm1,dm2,dm3,dm4,dm5,da1,da2,da3,da4,da5,db1,db2,db3,db4,db5,thetadd6
-1.034491,2.0245454,-1.626852,-1.2199638,-0.32725583,-0.83087427,-1.6953235,-2.1990715,-0.52765787,0.37021292,1.8150109,1.5935221,57.93535,69.427973,25.936053,7.2387778,12.138291,1.4987939,0.72830465,2.1163296,0.40106352,1.1746072,1.6229588,1.8184557,0.28477933,2.0362429,2.1346506,2.3231581,0.31830491,0.75066749,2.2185134,1.0539691,between -0.023711622 and -0.00016276260500000002
-2.3047668,-0.37756683,1.8221668,-0.65925104,-1.2057764,-2.2118182,2.0080056,-1.5795723,1.7281347,2.3061831,0.62006449,2.3318838,-30.800955,-21.649124,43.176742,-28.489385,-21.100538,0.82374693,1.9647078,1.3432011,2.431501,0.98787313,1.9336471,1.3069285,0.29750652,2.1921026,0.41787152,2.4165564,1.8141364,1.939908,0.78301692,1.4153899,between -0.00016276260500000002 and 0.02356751225
-1.1407802,1.6185587,-1.5055752,1.3258177,-1.869768,1.7305188,-0.034592748,-1.7764696,0.57186159,-1.9957259,0.61943626,1.1978825,47.271246,-62.165999,-73.953591,-38.009537,23.705869,1.7431993,2.2003928,0.25147282,0.25361245,2.4643841,2.4042913,0.42312875,0.77493099,0.51507983,0.44678245,2.3225852,1.9389593,0.58919421,1.8370336,2.0238542,less than -0.023711622
-2.1327251,-2.2795001,0.1639116,-1.8852117,1.3499921,-0.8356097,-1.1731318,-0.19039745,-0.29777363,-0.12429965,-1.5158324,-1.4210318,-28.482893,-61.976689,-42.216345,-30.118252,52.534498,2.0845205,1.2853365,1.9004722,1.736435,1.0132498,0.93986346,0.53512125,2.0328172,0.80789706,1.0758224,1.8468708,0.85687528,0.75274825,1.1897815,2.4082457,between -0.00016276260500000002 and 0.02356751225
-0.35793529,1.9023159,-1.3360619,-0.65948418,-0.41179827,1.4058768,0.65339824,1.7979561,-2.3016122,0.80410239,-0.58277142,-2.2949455,-7.7966715,61.341491,16.443306,62.643061,-8.0801947,0.56751021,1.8940233,1.3498591,1.8323006,1.2268366,1.9430646,2.0864969,0.75345491,1.8167469,0.81517579,1.9094461,1.8112517,0.70696501,1.2109252,2.2700537,less than -0.023711622
-2.2953774,1.919797,0.30069521,2.1033401,-1.5056029,0.86086022,1.4435356,2.1249603,-0.98749981,0.12468692,-1.4000943,2.2855897,-47.405565,54.661526,-53.729623,-33.769637,33.71601,0.84959045,2.0667438,1.763825,2.3571337,2.0958314,2.3887869,0.84188874,0.87409236,2.1203488,0.45186535,2.2508727,0.41778212,0.91411073,1.9589865,1.9360942,greater than 0.02356751225
1.830836,-1.0394278,-0.83771208,1.1913891,0.73653094,-0.57039175,-1.5749723,-1.0702722,-0.87685889,-1.7269794,-1.7391642,0.81584929,-34.15216,54.651456,-72.974075,74.715546,-55.815926,1.401023,2.2432591,0.70619863,1.830316,1.6215943,1.3860883,0.98580728,0.96295971,1.7137838,0.56416817,1.9743785,1.880107,1.4584479,2.1342505,2.3484892,less than -0.023711622
1.8934435,0.34188606,1.6768197,2.2227172,2.1002529,-1.5559137,-1.1959429,-1.8741333,-0.94963318,0.37659156,0.63593299,0.42751595,-36.050793,-55.683008,-14.31138,68.631965,-2.5628674,1.0133207,2.1308177,0.90341857,2.2559062,1.7657721,1.3318739,1.0541727,2.4802139,0.70444353,1.5824505,0.49560682,1.6638449,0.49184558,1.4487245,0.71272231,between -0.00016276260500000002 and 0.02356751225
0.80069,-1.3860364,-1.775425,-0.72146569,-0.6969875,0.73016746,0.86353311,-0.75713591,-1.7330667,-0.37506112,1.5242238,1.0820941,52.415154,-8.508248,-48.124765,-32.926699,-49.037315,0.32264091,1.6258266,0.51743057,1.7055349,1.4258713,1.3688434,1.4011897,0.54509737,0.95146943,2.0967605,2.2541604,1.67389,0.56977294,1.6738033,1.3627065,between -0.00016276260500000002 and 0.02356751225
0.65237533,-1.2569067,0.80883338,-1.1795364,0.55293263,0.3076142,0.5811099,-2.0682916,1.5167006,1.8757177,-0.6941857,0.69599039,43.325633,73.9104,62.088353,-31.05396,-73.897506,1.4443748,1.8570747,1.3541483,1.9198824,1.7137107,1.5865513,1.9173127,1.2738861,0.70402987,1.3800754,1.176879,1.5547954,1.4461044,1.6770159,1.355609,between -0.00016276260500000002 and 0.02356751225
-0.8014063,-1.2279953,1.346801,2.0800842,-1.2382162,-0.7900385,1.3350887,-1.5604321,-1.7368492,2.0244971,2.2745999,2.3007294,-47.89054,3.6873406,23.133743,8.8130333,70.65093,1.827626,1.4105179,2.0742099,1.2457506,0.33024427,1.1654726,1.0975575,0.3996038,1.391129,2.4548262,1.5139631,1.4285737,1.7885904,2.3393444,2.3620571,between -0.023711622 and -0.00016276260500000002
1.445216,2.0929842,-1.1990768,2.0039308,0.62068781,-1.3291539,2.3467496,-0.87528868,1.1016067,-0.27256739,-0.59807852,-0.37996836,-26.77306,25.175142,-31.390996,-38.465874,4.0533933,1.7557118,0.99885775,2.052196,0.25816074,2.4075459,1.123134,0.51305669,2.4437281,1.7382709,0.36893564,1.2013293,0.74152818,1.6141166,1.7084526,0.96299749,greater than 0.02356751225
-1.5038891,1.3905063,1.5026281,0.9781266,-2.1513081,1.1256874,-0.81329708,1.5564112,0.13117903,-0.67213479,-0.97295611,-0.48354451,61.70377,-44.73024,18.864549,-43.532866,43.124793,1.3510012,0.77650647,2.2441778,0.39597185,1.0989648,1.5506608,1.7065329,2.4481426,1.6824569,0.5533998,0.99037792,1.2817284,2.009924,0.79252155,1.409632,between -0.00016276260500000002 and 0.02356751225
-0.98836561,-0.28972505,-1.5110174,-0.60547974,-2.2501106,-0.68666209,-0.089150629,0.1850742,0.36542079,1.3844215,-1.8039455,0.5990626,-61.439068,-6.4096781,-27.460396,23.127755,58.183925,2.0834848,1.8793582,2.3734994,0.40458278,1.8227998,1.2968158,1.3324214,1.2565977,0.38688173,1.3212029,1.7065191,2.2170025,0.41119079,0.38361675,0.44670676,between -0.023711622 and -0.00016276260500000002
0.65072344,-0.74599519,1.7259343,-1.6888227,-1.3235884,1.638475,-1.3511542,0.15378059,2.2011637,-2.0080642,0.59529492,0.71999869,-12.633899,62.054618,1.969024,-56.613754,-57.358506,1.7588304,1.6617631,1.5024926,2.143504,0.37098231,1.8496955,1.082406,2.2478657,1.6291435,2.2648564,1.4418079,1.4649009,0.33944997,0.63564931,1.8580318,between -0.00016276260500000002 and 0.02356751225
-2.1434444,1.343258,-0.91873741,1.2790464,-0.98587387,-0.82248872,-2.1310367,-2.1783732,-1.367712,-0.10206383,-0.077157746,-0.88326415,-31.681501,29.019619,-67.269099,-41.753734,-55.004668,1.17324,1.1452121,0.33050354,1.0229367,1.7472486,0.50802637,1.1491296,0.92129846,1.2632575,2.0684096,0.51040705,0.66133288,1.5216514,2.3945051,2.4467664,between -0.00016276260500000002 and 0.02356751225
-1.613444,-2.0678593,-0.64220883,-2.232994,-0.46365412,1.6565643,1.081554,1.9936954,-1.7590493,1.1874236,0.061107567,-0.26592178,-63.744058,-46.383405,-15.893668,25.119152,-72.407809,1.2544374,2.3291534,2.0809562,2.1314394,2.3522144,0.41706479,2.3580056,1.0007392,2.1732362,0.58012023,2.3307195,1.403472,0.65410144,1.4829128,1.5655769,less than -0.023711622
-2.2840654,-1.1673154,-1.3948738,0.49117895,-0.86087872,-1.7544047,-0.86211672,1.0004081,0.054563017,-1.8752241,-0.43353391,-1.0510181,72.733701,-64.681097,-45.193346,35.432316,10.937279,2.4677258,2.3174558,1.2295923,1.0075769,2.3453567,2.1600852,2.3022372,1.9499061,2.3222576,0.93294419,1.2429419,0.37515764,2.2743933,1.9779067,0.42762678,less than -0.023711622
-1.3548611,-0.886733,1.9648379,-1.3907057,-0.14197498,-1.7047131,0.21130668,-1.7099728,1.3479835,-1.6075571,-2.0855084,-0.39036281,-37.63421,31.834234,-12.024112,-39.253791,-38.462752,2.2228323,1.6429942,1.0534657,1.8474374,1.3807058,0.52176178,0.25030745,0.91728204,1.2592436,2.107926,0.91310114,0.74082901,1.1131813,1.9874095,0.39066514,greater than 0.02356751225
-2.1179076,1.7130127,-2.0914971,-2.0817007,2.3450492,-1.178818,-1.5107566,-0.93420539,0.49013749,0.48481944,0.63976368,-1.1634286,-65.035251,2.5299944,71.615677,44.688416,28.202661,1.4069483,0.58055806,0.68925389,0.54013779,0.84585295,2.2505628,1.9590301,0.41901216,1.3373595,1.0006065,2.1940005,0.81692779,2.1053641,0.6051704,0.34888229,between -0.00016276260500000002 and 0.02356751225
-0.31054093,2.0655686,-0.15894198,0.58674464,-1.6130108,0.50210599,-0.99330255,1.5581199,0.57518768,2.0695131,0.16308865,-1.5795242,-69.262185,60.463498,-39.985752,-40.532627,68.130399,0.88935834,2.1955717,2.4731583,1.371977,2.3181977,2.4485305,1.452611,0.78335521,0.3510026,1.3006215,2.2949875,1.6048709,1.5646837,1.1397111,2.3745258,between -0.023711622 and -0.00016276260500000002
0.98158862,-0.51387097,1.1796281,0.98824626,-1.71619,0.5272623,-2.3061587,-0.20987516,2.2074649,0.22493718,1.1832561,0.70388741,68.099937,55.633769,-63.242644,-19.119993,-49.721778,1.0162371,1.6471297,0.80865668,0.34285138,1.5531797,1.2903855,1.2598903,1.7267044,1.7208159,1.7536648,0.3447509,1.9783506,1.1379078,1.3169832,0.53650643,between -0.00016276260500000002 and 0.02356751225
1.8470743,-1.4401678,-2.0703407,0.064780201,0.19899166,-1.343361,-0.81285755,-0.48119704,-1.0191646,0.43445205,2.3451501,0.51604359,74.769242,-53.34946,55.623442,63.191573,60.775467,0.67401455,0.91261452,1.5621929,2.0263093,1.6807611,1.3016413,1.4350297,2.2935715,0.30549045,1.3780034,2.3532298,1.7333943,1.6580486,2.0728188,0.36526094,less than -0.023711622
0.5490532,1.079471,-0.029178173,-0.30909699,-1.9404349,1.5555014,-1.0225105,0.74864133,0.33620501,0.44316755,-1.9699664,0.019733556,57.125477,-42.104614,47.751353,56.997583,58.376025,1.0128074,0.25317891,1.927872,0.99412086,1.1893547,1.98512,2.4121289,1.6509079,1.3087137,1.051112,0.5399599,2.3560351,1.632043,1.4972531,1.83359,between -0.00016276260500000002 and 0.02356751225
1.8594434,-0.89899318,-1.4593226,1.150418,0.14273508,0.34249856,-2.1659671,-0.20361904,-1.0308578,1.8279262,1.8913442,-1.9547913,19.047367,29.101662,-38.365753,36.795178,-33.44389,0.75317519,1.6153549,2.2702692,2.414041,2.2878662,1.1674365,0.35492749,2.0163194,0.27975369,0.82027008,2.0291823,0.46744804,0.89927307,2.3324052,0.48445524,less than -0.023711622
2.201033,0.50817808,2.1000995,0.57805801,-1.5250782,-1.3052786,-1.6471753,1.2102039,1.2267037,0.50664268,-0.14337123,-1.6094924,-51.772533,9.0457444,-68.17347,58.496435,49.579169,1.7813028,1.3560942,0.87535799,0.89178649,0.25547763,2.3125677,2.3256894,2.3612508,1.5417322,2.3923513,2.2476348,2.2481526,1.9514764,1.7132032,2.0562568,less than -0.023711622
1.0449729,-0.21458748,-1.5941551,1.6781896,1.6849257,1.8011725,-0.08111882,-1.483598,-1.5817737,-2.2847583,1.3246717,-2.2814815,-4.778549,-63.073365,-24.041456,35.25163,-25.848173,0.92131617,1.560908,0.68068383,0.50311944,1.9284877,2.3420328,0.29553971,0.63584912,0.7161312,2.2670893,0.7199685,1.5105239,2.1250648,0.96403439,1.776009,between -0.023711622 and -0.00016276260500000002
-2.039485,0.2925728,2.2492738,0.76110641,-2.2206588,-0.49118293,0.79405053,0.12169333,0.12300764,-1.3493089,-1.8181001,-1.6781322,-22.926874,18.024901,-55.496808,-34.84802,59.328684,0.43296634,1.8652247,1.0817796,0.71945813,1.9327195,1.4663842,0.51913812,1.1543067,2.4319605,1.959776,1.7053941,1.3092829,1.6174691,1.8024298,0.9369805,less than -0.023711622
0.58338697,-1.4966137,1.1454922,2.1790414,-1.5386688,1.183823,0.80610881,0.15247945,-0.81754968,0.76887609,1.1298764,-1.0950867,46.758168,14.531778,35.588214,-68.885861,-64.673403,0.38678521,1.9490137,0.82321067,1.9517592,1.9663842,0.26959204,1.0334984,1.5070692,0.31148366,0.85589391,2.2589157,0.5960568,2.4265833,1.586172,2.2934217,between -0.00016276260500000002 and 0.02356751225
-2.2702745,-0.28922805,2.1296003,1.5974933,-2.1228635,-1.469961,1.4213233,1.0817226,0.11541892,-1.6585347,-1.2112574,-0.083149699,66.289288,74.056949,-24.853455,37.981494,-45.034871,1.3589572,1.743013,1.3191544,1.0280057,1.4425647,0.68574062,2.2426177,1.1754493,2.2767578,1.2185212,1.68654,1.6775608,1.513905,0.45187219,2.3658969,greater than 0.02356751225
-0.21433576,-2.0760103,-0.97675937,1.5685219,1.0440455,-1.6632135,0.2616132,0.27413815,-1.2765779,0.062320219,1.2655694,-1.2985096,-31.092289,31.896823,-10.100212,45.73673,-52.779025,2.0188926,0.77865762,2.3986697,0.44209553,2.2996386,1.025191,1.384534,1.862365,0.26836134,0.59896204,1.7550742,1.5318014,1.9860421,2.160101,0.31743368,less than -0.023711622
2.248111,0.067106597,1.5996046,0.37455658,-0.57917522,1.5977216,1.7137824,1.4188511,1.9418411,-1.4821764,-1.2503562,-2.194638,-44.955187,-11.83178,43.265243,-41.056211,-31.735888,1.5990177,2.191284,2.4108636,0.63369641,0.53550701,1.766291,1.0531239,0.60320326,1.037258,1.6950888,1.358131,1.3584782,0.44380547,1.7884539,2.2943732,greater than 0.02356751225
0.69125464,1.8778852,-1.9653725,1.8318137,1.2556885,2.2795671,0.96191463,-1.3073335,1.5154482,-0.32398154,-2.3484872,-0.054072569,22.071614,7.608649,-71.43687,-39.465928,-3.854489,1.6390413,2.1165949,0.3603272,0.51919312,2.0787085,0.35338477,0.83790042,1.3424136,0.44557078,2.2080632,0.91846816,0.9444325,0.82708858,1.8778019,0.96582458,greater than 0.02356751225
0.68641098,0.58118489,-0.80792384,2.3289846,2.1409343,-1.1201463,-0.30505616,0.00033518342,0.92103884,-0.29802745,0.32207606,-1.4025208,-25.375593,-37.59683,60.070591,-43.578731,22.268118,1.5289671,1.6001784,1.4489712,0.35853989,1.9799815,1.549684,1.0388079,0.74363865,1.0847502,1.1470706,2.3151245,0.29814442,1.6632443,1.6467508,1.1905944,less than -0.023711622
0.61503702,-2.0541447,-1.04872,-1.5015472,-1.6615914,-0.74932951,2.2347441,1.6032365,0.15525563,-1.282053,2.2894607,2.3103574,2.9349928,-21.576144,69.748812,18.281776,61.809834,0.44312851,1.660942,1.2015846,0.53230578,1.9631994,0.74282608,0.92788653,1.7388632,1.3232967,0.89695304,1.5897294,1.3315726,0.49090896,1.456828,1.9079534,less than -0.023711622
1.6915106,-0.62337948,-1.4983009,1.0635802,1.5014387,-0.16275903,-2.3053743,-1.1644083,0.34097399,0.48484781,1.1165968,1.9093454,-31.853652,-14.33666,-56.242447,33.186421,64.179117,1.5012782,1.9828279,2.13927,1.2114475,2.0479705,1.2402225,1.9203684,0.88134101,2.4484086,1.6539767,1.136162,1.2240622,0.31276412,2.1265389,0.98877803,between -0.023711622 and -0.00016276260500000002
-0.15172439,-0.62934344,1.9381398,2.2823807,1.1261568,-2.3492882,0.62027641,1.1811568,-1.593085,0.81452478,0.22800923,0.97886749,27.880773,-7.8486446,-62.170539,-0.24425624,-55.214578,2.2537847,2.1088846,1.2740892,1.8676867,1.9603965,0.88378073,0.70277443,0.52992363,2.4264135,0.98228062,2.4403219,0.74044201,1.3588756,0.37147503,1.1308179,between -0.00016276260500000002 and 0.02356751225
0.42276164,-0.92762678,-2.0405577,1.1139721,0.20815943,1.9429703,-1.3542246,0.38645686,1.5083541,-1.7460271,-1.43097,1.7212958,14.715073,-33.769708,32.511531,-28.692898,8.4571706,0.46999548,0.96396612,0.62854979,1.7862904,1.9326899,0.96833949,2.1317985,1.6373195,2.4281778,1.3842806,2.1043936,2.292802,0.87319789,0.58687564,1.1188347,greater than 0.02356751225
0.57858129,-2.1550532,-0.55766019,0.34690622,1.2276828,-1.8869155,0.98903923,2.1864602,0.62751634,0.34055309,-1.8767773,1.7361328,2.2712125,72.268271,62.837393,-41.940252,-39.818917,2.3270029,1.938421,0.54217157,1.2775716,1.8952737,2.1151515,0.85141368,1.2097442,0.42012918,2.1111073,0.38047083,1.5732822,1.6536958,0.91508275,0.29584948,greater than 0.02356751225
-2.1119816,2.3521017,-0.45706691,-0.72955779,-0.041691661,1.4342111,0.91624682,-0.72692024,1.8760958,0.94770869,0.26525336,0.1932512,36.189803,-7.9814145,-43.634334,-12.244982,-1.4052126,0.36387208,1.59811,0.4347359,2.3562575,0.86972916,0.7879634,1.3009426,0.9418776,0.63685861,1.932651,0.31572008,2.3073742,0.53741625,2.3549646,1.6394627,between -0.00016276260500000002 and 0.02356751225
-1.7854183,0.96749771,-1.7204134,0.23120205,-1.9079856,0.29326842,-0.19657522,-0.45508126,-0.34349525,-0.44820595,2.1125493,-2.2345748,39.529839,27.996669,-9.9854707,24.193247,-34.091608,1.7101247,2.0650066,1.8156879,1.0167031,0.47951351,1.18359,1.8477365,1.9077295,2.2094197,1.2163531,1.2467064,0.64521918,0.69878932,1.0521823,0.52718697,between -0.023711622 and -0.00016276260500000002
1.4556982,-0.80376728,1.5025379,-0.53860025,0.24476553,-0.14135744,-0.75050615,1.3083577,1.5612112,0.69520342,2.2716123,-0.78838909,24.901935,26.829245,19.119354,38.988304,-73.582023,2.2290834,0.95549192,2.2027324,1.323179,1.1695308,1.8048704,1.4574588,1.260602,2.4374726,2.351497,1.8602906,1.4032774,1.8836261,2.1035413,1.4691434,less than -0.023711622
0.34534223,-1.4963829,0.31315795,-0.49287562,0.61923554,-2.1755025,-0.24375515,-1.7268324,0.732114,0.59234119,-1.7994575,0.63020115,-52.832484,44.445289,-8.0261232,-45.052655,0.023826084,0.63167482,0.30865535,0.57049145,2.4997189,2.27598,1.6464634,0.86070711,2.1544206,1.5971963,0.82825481,1.2285191,0.97030413,1.4015478,2.0639314,1.7455209,greater than 0.02356751225
1.6920391,-1.1669057,0.77884312,-1.0002932,1.8766314,0.52371346,-0.69043637,-2.2624609,-0.91438597,-0.98450755,-1.4206542,0.73962799,-11.282456,-24.231864,-14.937846,39.617437,0.25764402,1.0783463,1.5160054,2.003016,1.6892904,0.65302272,1.3529269,1.6422452,1.9655236,1.5545657,2.0859806,1.0762634,0.25969467,1.188293,2.1397185,1.9987341,between -0.023711622 and -0.00016276260500000002
-2.2412052,-1.8100689,1.3547416,-1.1223169,0.91221073,2.1243246,-2.2485558,1.8814711,1.7550977,-1.6283951,1.1185436,1.6433168,-2.7382281,28.600257,-65.483595,-32.773853,-30.148219,1.3583152,2.2031949,2.3461842,0.31726555,1.2821761,0.53345776,1.0746059,1.6505887,0.44399584,0.4880869,1.2765708,0.82605594,0.27211583,0.70067839,1.3016473,between -0.00016276260500000002 and 0.02356751225
0.91166455,-2.342794,1.383199,1.2110251,0.89162205,0.094817439,0.80922094,0.62168351,1.2684596,0.15287588,1.1329272,-1.6567406,21.250447,6.269781,-73.790285,6.6782047,40.586318,0.38870268,0.42600854,1.9255327,2.1781025,1.3685239,0.53080163,1.4329447,1.0020244,1.2747608,1.9043697,1.9913848,1.9540058,1.4754384,1.9430408,1.6873286,between -0.023711622 and -0.00016276260500000002
1.2319832,-0.2957457,0.97242088,0.9128137,-1.8785991,-0.60845908,-0.48768848,-1.7358386,0.16135999,2.3536457,1.9297229,2.1923936,44.243007,42.220202,-55.070019,-61.803326,21.492798,1.8167508,0.88022465,1.6857723,2.2748871,1.2775365,1.305819,1.8993308,0.55316458,1.5370831,0.75649263,1.1215502,0.89463371,0.85883417,2.1759456,1.1175856,between -0.023711622 and -0.00016276260500000002
1.0050152,2.0881129,1.7535354,0.38828963,-0.67485416,0.44646742,1.6546196,1.3847585,-0.85264586,-0.044122978,-1.729825,2.2717386,42.491755,8.9327822,-16.729343,-70.071381,-39.702852,2.337389,0.99753402,2.3043209,0.97125524,1.6368405,1.1281426,1.443459,2.2154982,2.1280834,2.1972913,2.1254411,0.53805576,1.8532247,1.8967779,0.39646277,greater than 0.02356751225
0.56146083,2.2694543,0.64201249,-1.0668136,0.70407669,0.60826909,2.0069295,-0.81685046,-1.6165252,-2.016342,-1.8704182,0.22811422,-62.673785,-58.298171,-17.352581,-44.836257,37.026842,0.77688853,1.9155259,0.49423641,1.131298,0.47630085,1.1884159,1.9555043,1.9109901,0.76083705,2.1382531,2.1202184,0.51045456,1.4598104,0.28294888,0.5218967,between -0.00016276260500000002 and 0.02356751225
-0.29785923,-1.5629496,-1.6385425,0.216956,-1.0095446,1.8963836,-2.0799664,-1.4946644,0.92058585,1.5133533,2.1661188,-1.9579765,-34.980577,-68.549851,32.657779,29.289111,-37.916766,0.36875536,0.42141501,1.2220353,2.2473727,2.343742,2.0223631,0.60625546,0.58543988,1.7380291,0.80512471,1.7309871,1.7003997,0.61771592,1.9514953,2.0313334,less than -0.023711622
1.3872671,-1.1021643,0.32646283,1.639986,0.48227467,0.28141114,-1.5614602,-0.16768974,-0.35282456,-1.7370248,-0.92590082,-1.3067021,-63.950252,-61.878582,-43.331434,-21.414439,-62.468156,0.59061887,1.0314093,2.3953666,1.1760211,0.63615204,1.3072881,1.8411521,1.4938269,0.49845434,2.2721673,0.56595003,0.42219769,0.87661045,1.6918749,1.3415968,greater than 0.02356751225
-2.037643,-1.7354775,1.5176118,-1.6593042,-0.0072987781,-0.14844977,-2.1414611,1.6903374,-1.4922685,-1.2226559,1.5502653,0.51026715,-15.533314,-68.415647,38.213486,-45.936923,-11.862818,0.94918445,1.9429935,0.89233774,0.52043335,0.4232784,1.0400717,1.7352109,0.69016296,2.3188561,2.2641284,0.4555065,0.44773492,0.33075238,0.70524083,1.4825878,greater than 0.02356751225
0.2388417,-0.74297546,0.64226823,-1.4810292,-0.81846894,-0.54410203,2.0242457,-1.9507338,-1.8922327,1.1582195,-0.68368189,-1.8371892,-65.751974,-43.430947,-43.92755,9.668737,52.462605,1.9600991,0.38537218,0.70015445,1.4958372,0.53653397,1.0265169,1.1689837,1.6082389,1.9216386,1.9806824,2.0791641,1.2610488,0.94748238,0.33628341,1.4152505,greater than 0.02356751225
0.48887701,-1.8504909,0.56671845,1.0988102,-0.1498393,-1.9333848,2.235282,1.2195152,2.2120296,1.5448786,-0.48783295,0.54845973,16.863219,70.120064,-42.087808,30.209716,-15.305657,1.4922586,1.1395753,2.3420571,0.70402335,1.2705101,2.4636139,0.70808732,2.0735826,1.9520757,0.53648003,2.3699181,0.96314294,0.29332118,1.5990068,2.0066678,less than -0.023711622
-1.7069709,-0.03648316,-0.56190125,-0.24681974,-1.3970856,1.016929,-0.30860153,1.6743293,-1.934042,0.61585429,2.256777,-0.36735888,-30.910776,-67.40518,71.142856,47.97425,53.221886,2.1285439,0.93749031,1.1496523,0.7067521,2.1325331,0.48371437,2.0374096,1.4930455,0.86620783,2.3549747,1.8100795,1.2566494,1.2565537,1.8988747,1.8866254,between -0.023711622 and -0.00016276260500000002
0.26782894,1.069559,-1.6850232,1.2721188,0.3925208,-0.24742416,-2.1307079,-1.3641967,-2.2818426,-1.5067063,1.1651156,2.1221042,-59.414689,-32.676113,-37.425399,-58.686002,64.359908,2.079562,1.1990727,1.0643401,2.3643652,2.1354857,0.6076363,1.2932524,2.193686,2.2799199,0.36392193,2.4359267,1.1207255,0.53380114,2.3456766,0.787112,greater than 0.02356751225
-1.6466372,0.82921183,2.0290224,-1.7803392,1.509498,-1.3696824,-0.23239423,0.72059314,0.16927742,-1.2373326,-0.076817516,0.12258231,29.503566,-33.562624,62.984031,22.610037,56.895846,1.3522626,1.7277182,0.75921706,1.9111108,0.53923826,1.4773796,0.81849962,1.5230584,1.2917585,1.8348053,0.57206524,1.9505363,1.663372,1.5430113,1.3901569,greater than 0.02356751225
-2.1859871,-2.1007731,2.2377064,-0.44423805,-1.8848431,-1.8790903,0.55975575,1.8865573,-2.297014,-2.0236986,1.7212115,-0.95427069,-69.005427,25.788503,-72.630456,-0.066093996,-60.841786,1.1064717,1.7200018,1.5710739,0.53894942,1.1229273,1.5390703,0.40436709,0.44774299,0.46641466,1.5312605,1.8952427,1.594021,1.4604835,0.34595782,2.0131199,between -0.00016276260500000002 and 0.02356751225
-0.93296054,-2.1496807,0.20348015,-1.3035186,-0.34022743,-2.0745069,0.72909849,1.747003,-1.0165081,-2.0414616,0.058643953,0.73961811,-16.572299,19.37713,21.424882,-62.00673,52.881877,1.9106357,1.5541639,2.083084,1.8926798,1.2690972,1.2171143,0.53935702,1.223362,2.0452231,2.3151937,1.4608533,2.0616642,1.8902321,0.63014332,1.5687091,greater than 0.02356751225
1.4553139,2.1611742,-0.2398417,-1.9268877,-1.6647271,-1.6149294,1.2413165,1.0599751,2.1709079,-1.5793155,1.3315113,-0.42497276,46.616957,41.1943,-47.397745,36.104615,60.268463,1.1058414,2.3772498,0.43672466,2.0313208,0.40819793,1.8326337,2.3239272,1.9945575,1.2775073,0.81450102,1.8187201,2.4789518,1.9930889,1.3444378,0.71597031,between -0.023711622 and -0.00016276260500000002
0.35555674,0.53283817,1.8721442,0.50636837,-0.041278686,-1.0496928,0.9969002,-2.3535373,-0.10839675,1.8702967,-2.2700619,-1.4295178,-68.342127,73.87197,16.206273,-21.173378,-60.959102,0.78066728,2.4249511,1.1532295,2.327649,1.5461583,0.28295176,0.57019909,2.0861697,2.0047124,0.95198427,1.7495455,0.86062031,0.6955756,1.0390642,0.551691,greater than 0.02356751225
0.67275248,1.9297816,-1.5334314,-0.3261623,-1.3013888,-2.2435896,0.52580176,1.4208776,-1.6973204,1.9380928,1.4937196,2.0494945,-54.411639,53.580854,-66.593336,65.804463,25.616159,1.836879,1.6751044,0.7292163,1.688314,2.2431162,0.55467331,2.1442554,1.7506761,1.8637825,1.5926237,0.47715534,2.0497761,2.3363648,1.7825994,0.64764111,less than -0.023711622
-0.15894579,0.52264564,0.21221157,-0.63852765,-1.6244294,1.7962905,-2.0216489,-1.5285985,0.79041168,0.22459817,0.19791542,-0.58207754,-1.83395,-73.198359,55.181185,-19.824367,-38.135624,1.4434919,0.51821987,1.4712954,2.0619607,2.3737079,1.6586635,1.1578407,1.0787088,0.85936216,2.0498861,1.9359784,2.239609,2.3590408,0.39854672,1.6247581,less than -0.023711622
1.3047159,1.6134786,-2.06384,0.9366121,2.2603162,-2.1454678,0.32336036,1.333021,1.3873602,0.46298722,1.2720188,-1.2879941,44.496065,-54.63921,-21.210414,66.575706,-62.102586,0.50259127,2.0514303,0.88871588,0.39774132,1.5883775,1.1102883,0.61473647,1.3757884,1.1251322,0.34656872,1.0304867,0.39049165,1.2431661,1.8931142,1.8203836,greater than 0.02356751225
1.1468356,1.1941797,0.51341304,0.5488076,1.6640394,-0.51861796,1.5076419,0.42181379,1.9913366,1.0084754,-1.016528,2.3356431,30.361894,-7.6548358,45.175304,-38.666167,-62.269554,1.1590355,0.91016079,0.82247841,0.89465068,1.1439645,1.8606432,0.58068384,0.55323645,0.49497759,2.3383324,1.1023592,2.3507193,2.289571,0.57040632,1.068996,between -0.023711622 and -0.00016276260500000002
-0.76080306,-2.1056672,0.092376743,2.1999449,1.0700097,1.1760429,1.9943274,-0.56264544,1.3827813,-1.0966432,-1.1287974,0.38016253,-19.348323,12.733104,-44.728042,55.801881,62.212055,0.59505137,1.2784405,0.75031182,0.74081469,0.87253214,0.64773073,2.4104156,2.1054081,1.3442164,1.4951011,1.6641125,0.4883706,1.5447198,0.85541096,0.89201791,less than -0.023711622
0.97023882,1.937968,-0.60443457,1.1787983,1.1803406,-1.1724397,2.0164692,-0.70409586,-0.93042372,-1.924837,-0.18448213,0.16085715,-44.090661,-31.736626,2.5305039,-69.821492,-39.817577,0.41478512,2.2935884,0.59007485,0.88794031,0.8628568,2.2841538,1.7735272,1.1714918,1.0133569,0.48914966,1.1383843,0.32419245,0.70255132,1.2800871,1.4232872,greater than 0.02356751225
-0.2403638,-1.2770708,1.203612,-1.1790047,0.063510688,-2.2881573,0.74623259,2.2640992,0.17466537,-0.21739904,-1.724135,-1.0563398,-74.271297,22.318944,-35.512757,-12.910089,70.131702,1.4278376,0.66703179,0.55323932,0.54327998,1.9066764,0.25950644,0.27467102,0.89576853,1.9317645,1.1666061,2.1493215,1.3963163,1.888271,1.4202305,1.0642563,greater than 0.02356751225
0.39759728,0.24991335,1.5551624,-2.0070767,-1.6574889,2.2281625,-0.62761957,-2.0755042,-1.8961019,2.1017937,0.77920596,0.38561093,45.45612,31.014858,16.717279,17.304632,-11.043029,0.62218755,0.60623509,2.4931497,2.1170958,2.0285558,1.1881424,1.8588879,0.32822227,0.93168284,0.29350878,0.25208071,1.4705638,1.0158757,2.3222627,1.019811,less than -0.023711622
-2.0835986,-1.2791622,-0.9607736,1.6352167,0.43402962,-0.042402273,-1.0842622,-0.38695383,-0.43617708,1.6490945,-1.9400098,-0.7252257,66.270989,66.51116,53.069892,45.679985,43.516052,0.98938608,0.36178497,0.27000601,1.2409978,1.4501638,2.4031179,0.95280895,2.109973,1.5666973,1.2318338,0.43018689,2.401051,2.2142305,1.0714446,0.26959243,less than -0.023711622
-1.6161973,-1.2183931,-2.2031662,1.3382769,0.18724828,-0.79394309,1.6841429,-1.9313462,-1.2001126,-1.2682343,-1.0785557,1.274443,55.863348,45.296319,45.230328,-13.885157,32.160576,2.4670696,0.28943627,1.5553866,2.3821517,1.8242153,0.33735629,1.44717,1.5868675,0.48268917,0.5569259,1.7536652,0.35029784,0.70575791,1.1731799,2.3852642,between -0.00016276260500000002 and 0.02356751225
-0.66074536,1.9534785,0.89885729,-0.8246007,0.071945852,-1.8900303,0.47406597,-1.0229594,-2.0843954,-0.53341182,-2.0886226,-0.89478814,-46.822099,-39.020274,-13.75262,9.7174476,-28.858473,0.25964319,0.32311131,0.53185263,1.0971815,0.82869928,1.9488375,2.361198,0.65411623,1.7314157,2.153426,0.63141574,0.45439612,2.0355246,1.3116758,1.3352084,between -0.023711622 and -0.00016276260500000002
1.73104,-0.70096923,-0.21736317,-1.1212798,-0.50647472,-1.746154,1.1491131,1.7742664,0.09798215,2.1622388,-1.196262,2.1884206,18.727512,53.295796,-57.552236,69.565895,-55.997463,0.63451302,0.76032512,0.28422842,1.7770631,2.0988276,0.99550355,1.9281421,1.0344579,1.883888,2.0064023,2.3537746,1.8898413,0.81309557,0.69721155,1.534467,less than -0.023711622
2.1794873,1.2440255,-0.5340426,1.4469832,-1.1933317,-0.39788387,-0.35416942,-0.77823789,1.7475246,-1.6752502,0.59358758,0.29900372,62.033709,-49.448652,66.507489,-8.6343769,-67.972403,1.192226,0.74282201,0.85956232,0.91397268,1.8888339,1.8813013,1.2817468,2.317876,1.5414094,1.4678497,0.40033049,2.3546087,2.407802,0.92754121,0.43519752,greater than 0.02356751225
-1.6276924,-1.2078482,0.66696993,-1.0097226,-1.0953209,2.2445995,2.310468,1.9507076,1.4532025,-0.33746298,1.9760291,-1.7968658,56.572851,-30.09216,41.060837,-40.507177,45.875133,1.725376,1.8949843,1.7517361,1.6783325,0.98405766,0.8070501,0.34103806,0.32665795,1.6401419,0.36452778,1.3683462,2.0446113,1.0321898,2.0133143,1.5236747,between -0.00016276260500000002 and 0.02356751225
2.3156759,-0.055325666,-1.5178428,-2.2226314,-0.65916873,0.17769975,-1.0548851,-1.4469004,-2.1273936,-2.2085489,0.40707875,-0.61626168,10.215042,-65.784593,8.3377561,32.666362,23.552967,1.4456345,0.52901967,0.73362878,1.598919,0.53181592,0.48018572,1.2314021,2.1754596,1.9487227,0.43257122,1.9744819,1.3675845,0.49202907,2.2825938,0.30372664,less than -0.023711622
-1.8311114,1.1239651,-1.4864099,-1.7165112,-0.15786788,-0.21053459,0.54927542,0.10193658,-2.0614917,-2.0066501,0.80010031,-1.8722986,51.284641,40.959215,51.523911,12.370401,9.3219424,2.4832844,0.56050696,1.1904385,2.2003703,2.1238935,1.5287924,0.9134175,1.5580017,1.3341434,0.94846618,1.1210929,2.2079495,1.2571338,0.3975411,0.47321675,between -0.023711622 and -0.00016276260500000002
-0.019098282,-0.54237141,-1.8759895,0.83898633,1.3753488,1.219682,0.30336324,-0.17894891,-1.0900829,0.74486716,-1.8351137,-0.17072542,14.727578,26.405873,-46.495442,51.113585,16.019948,1.3341043,0.29132117,1.7349425,0.67926873,1.4694818,0.83006817,2.4556571,1.9791486,1.0508295,0.29098751,0.62714548,0.68408166,1.3603906,1.0856416,0.37810312,between -0.023711622 and -0.00016276260500000002
-2.2474592,1.4630325,-0.059119384,0.69458175,1.2480323,0.83558988,0.83991289,-1.9015068,0.79688144,0.57696264,-1.0853592,0.024993796,21.266768,-19.430847,-24.237665,37.571028,-43.725016,0.82990587,1.9778837,2.2917359,0.95535158,2.0939449,2.182095,0.97037581,0.35627256,2.122967,1.7061744,0.92235284,0.98419625,0.88635956,1.295043,0.78836693,between -0.023711622 and -0.00016276260500000002
1.2069541,-1.556371,0.54455275,0.83873828,1.9187951,2.3106183,-0.23578252,0.32239102,-0.82139473,2.118509,-1.0308393,2.1389796,-31.340866,54.070169,57.329264,-67.066288,66.900871,1.4190873,2.0996413,1.1714205,2.0650947,1.0474427,1.8688256,0.85175671,2.4750919,2.3696449,0.8720382,1.3460406,0.65490071,1.4162789,2.1491683,1.0718674,between -0.023711622 and -0.00016276260500000002
0.78741159,1.6383483,1.230441,2.0589525,1.7417537,0.29454161,2.3523493,-1.0094014,-0.40963755,0.022055808,-1.5867574,-1.2228084,-32.237553,-16.545744,15.686794,-52.05335,-60.661108,1.6564749,0.37444912,1.6163122,0.3596154,2.0560301,1.6974642,0.78153046,1.1824335,0.41036345,2.2284263,1.1602505,1.0796239,0.48824233,1.6387742,2.1278356,between -0.00016276260500000002 and 0.02356751225
1.0345915,-0.33617482,0.064239821,0.54159075,-1.8197589,-1.2832849,0.43518791,0.57558601,-0.6604602,2.0338726,-0.3726274,0.016255418,-3.6208152,44.958979,-74.438877,55.789828,9.6343128,2.4834269,0.70604511,1.5000912,2.283217,1.7788484,0.6050393,0.39544433,1.232878,2.2304384,1.2284949,0.56349337,1.883089,2.0770864,2.3409886,0.7449536,greater than 0.02356751225
1.3724486,-0.40094987,-0.048210815,0.25173141,-0.87547974,-2.1096129,-0.25001213,1.497033,1.1893204,-1.0454366,1.8448093,-1.8095908,-1.1005328,-46.655036,68.813354,46.040794,-42.380994,2.1646172,1.9718027,1.3378665,0.52243088,2.495767,1.1058557,0.36733538,1.3056826,1.8579871,0.93896988,1.2667921,0.7254066,0.65872678,0.47099427,2.0006947,less than -0.023711622
-1.850778,0.45357408,-1.4257977,-0.88478971,1.6390254,-1.5257239,1.9786888,0.49375065,-0.049886935,0.35551471,-0.17346787,1.4943014,-73.510598,57.384589,-37.217313,-11.374286,-67.632188,1.4623107,1.8056975,1.8579124,1.933812,1.8282498,0.64405691,1.4144945,1.4089107,2.0617077,0.37149474,1.4620318,1.6186924,2.1123448,0.92989043,1.6684693,between -0.023711622 and -0.00016276260500000002
2.25144,-0.53065989,1.7516185,1.1574843,1.0967252,-2.2058319,-1.0533195,1.3053792,-1.3755892,-0.5472264,1.3492094,0.14599402,-45.619217,-72.187778,-59.977072,-34.654661,9.1095585,0.69024739,1.4878336,1.0187677,1.428559,1.5418661,2.3934577,0.59317621,1.2625809,1.9475716,1.3364673,1.7559796,0.99878137,0.76847578,2.2724606,0.99457281,between -0.00016276260500000002 and 0.02356751225
1.9221564,2.2562549,0.28271625,1.52386,-0.31867299,2.0494108,1.5961014,-1.9546924,2.2610921,1.4708023,-1.4185759,-2.0301033,-71.639252,9.0945968,2.8885815,-51.610802,27.249053,1.7474785,2.1217953,2.2636069,0.69039164,1.6622862,1.2947787,0.84526862,1.4297333,1.0282632,1.2699169,1.4937918,2.1595631,0.27706737,0.67128413,2.2723462,greater than 0.02356751225
2.0621438,-1.1704734,2.0775373,-1.633634,-2.1092341,1.404053,-1.7259354,1.6696446,-0.5597171,-1.2368265,-0.99593878,-0.33739154,-48.881749,-5.5613968,-20.396742,-58.037925,6.5880159,1.7467501,1.1283093,1.9947514,2.2860083,1.4410566,2.3390107,1.252728,0.59961818,1.5327063,1.4448866,1.4590039,2.4780608,0.51818435,0.87444475,1.2929302,less than -0.023711622
0.38106775,0.46902112,-0.98876948,2.3473084,-0.90886274,2.3090226,1.2204233,-1.3756582,-1.70761,-1.3530081,1.9826372,0.88013843,9.4736176,73.091012,-59.368655,-8.9784657,-1.0726998,0.94201735,0.73557355,0.5346017,2.3008254,0.72325224,0.45047355,1.3589194,1.1081614,0.86839359,0.84108525,0.86981351,2.2057435,2.4303003,1.0573159,1.3075196,between -0.00016276260500000002 and 0.02356751225
0.53215275,-0.22293643,-0.5432686,1.8945538,0.15358419,-1.0996765,-0.27408793,2.1205234,-0.16030926,1.1687932,-2.0427212,-2.2620616,34.562289,-61.606863,23.460685,-46.272761,43.704496,1.2469306,2.1622248,2.2629384,0.70597314,0.29064716,1.6568952,0.68818565,0.58622757,1.4767945,2.2344984,1.964194,1.708906,1.8330656,0.58376125,0.52529254,greater than 0.02356751225
0.84940484,2.120924,1.8601675,1.8473303,-1.8504371,1.4707799,-1.7955356,0.57239542,2.2638639,0.93132006,-1.8598686,-1.5358405,50.795704,73.391236,36.501745,-15.172955,-11.850661,1.7641237,0.6269728,2.2817998,0.45914681,0.88049204,1.679744,2.206679,2.4039888,2.0894206,0.39195803,1.1385868,1.4791151,0.73670087,1.4814493,1.717719,between -0.00016276260500000002 and 0.02356751225
0.78854658,1.8645508,0.11836497,0.7318384,0.67267401,0.61092078,-0.54997466,2.2829852,1.8619551,-1.0956981,0.61767877,-0.065767213,65.63133,-34.229496,-45.147254,60.09378,46.168588,1.4569646,1.9540869,0.58891127,1.5816866,1.1574361,1.0290418,0.85595656,1.0618832,1.5716114,0.57223678,0.33357115,0.83031033,2.0257722,1.6531792,1.232045,less than -0.023711622
2.2440718,-1.8467404,2.340498,-2.2731221,-1.0263043,-1.7525402,2.2011363,2.2443463,-1.9460669,1.1461004,-1.7373228,-1.2218638,23.123241,-17.681768,-27.470823,-2.1273489,-54.352186,1.4171941,1.781271,0.82143971,1.4371299,1.5920034,1.3010403,0.33512753,2.238355,1.5318164,2.2380317,0.59803474,1.9197951,2.49548,0.78172672,2.2310662,between -0.00016276260500000002 and 0.02356751225
2.0509369,-1.0284912,-0.80859759,0.43011032,0.059439246,-0.031063773,0.98635117,-0.58025173,2.3542843,-1.4744762,0.93179214,1.3618927,40.036497,-6.6005221,65.02582,-11.045669,55.446382,0.4350337,0.61139282,1.4290781,1.2648242,1.4006105,2.0610819,1.1036175,0.99970174,0.48718114,1.8034276,1.9576141,1.370565,1.0865604,2.3200599,2.2468973,between -0.023711622 and -0.00016276260500000002
2.0511099,1.8789036,1.0146959,-0.14122312,1.5070841,0.47250059,0.94194452,2.3470156,-1.1170492,-0.087785494,-0.43304385,-2.2394437,-15.247074,-57.575813,-26.681615,62.096406,-45.707469,0.54358625,0.30407746,2.3798837,1.9561774,1.9728721,1.3106187,1.5687143,1.3816446,0.55088443,1.4645656,1.4542176,0.78474591,1.2244837,0.64817774,0.92324292,between -0.00016276260500000002 and 0.02356751225
-0.89294318,1.2628363,-0.10944411,-1.5954931,-1.9589426,1.5136466,-2.3297117,-0.22524808,-1.6960787,-0.75453875,-0.4940352,-0.020180544,3.7433319,64.179904,21.651372,-5.3859445,-71.569897,0.99609333,0.59064575,1.4831062,0.31592481,1.2482902,0.26385347,1.3352035,0.76585126,0.91209055,1.7558722,1.4444061,2.382766,0.8987245,2.1126703,1.8990844,between -0.023711622 and -0.00016276260500000002
-1.5549207,1.3578929,0.0065388346,1.513246,0.36223732,-0.28392799,1.6723433,-2.3260423,0.1855242,-1.4961918,-1.1875319,-1.8820649,-73.548214,25.167349,-12.358633,38.45667,-8.7490167,0.70413494,0.89586864,1.3641776,1.7331944,0.54751912,1.153888,2.1461876,0.4743777,0.36603128,1.8877359,1.4280786,2.466227,1.8767622,1.4914693,1.3739557,between -0.023711622 and -0.00016276260500000002
1.0977303,0.55059069,-1.3541523,1.6007235,0.33090159,0.84403361,1.3820598,0.9132368,0.52001755,-1.5465455,0.74776996,-0.17162626,-17.206936,3.0262565,12.292836,55.694963,65.244411,2.3171523,0.62896156,1.9570216,0.4112558,1.4761701,0.74039376,0.54789543,0.72856095,1.9239241,2.1419686,1.5659167,1.6123188,0.74209116,2.0761384,2.1577843,less than -0.023711622
-0.47989841,1.9574308,1.3512988,2.2757853,-1.3372333,-1.4969876,-0.42522203,1.9874185,1.1290156,-1.425779,-0.57038007,-1.3785815,31.740456,61.839818,-8.178588,-57.528433,19.619369,2.0160256,2.0926608,0.8504513,0.78499268,0.87202704,1.1584308,1.9968122,0.92329788,1.1175309,0.84203574,1.0946463,0.96970082,0.26172531,1.5673421,0.81799964,between -0.00016276260500000002 and 0.02356751225
-2.2561538,1.4164235,-1.1589442,-2.0714561,0.16648573,-1.0334666,0.39335219,-0.41141529,-1.5821521,0.78105239,-1.568235,-0.93396229,-4.3429654,57.78053,17.366419,-22.600832,-52.190831,1.8055708,1.9784512,0.5801117,2.1873444,1.4469621,0.34240149,0.74182104,2.0361711,0.92841147,1.5615605,0.3980216,1.7990848,0.96804721,1.7193763,2.3074934,greater than 0.02356751225
1.3231929,1.1395909,1.9556738,0.0970537,0.69495101,-1.970576,-0.80037449,1.9765302,1.9136412,0.5124547,-1.4209086,1.1758246,-53.340063,63.565052,37.832754,5.1010879,-66.015055,1.8994352,2.3069659,0.42560592,1.9086367,1.7063003,0.78890636,1.3991995,0.84518733,2.3134078,0.69409363,0.88166945,1.2184232,2.2884475,1.937058,2.3839466,between -0.00016276260500000002 and 0.02356751225
-2.0364453,-0.4547395,0.68816784,1.8342498,-0.21296475,2.1170646,-1.7450436,0.9616964,-0.26282343,-1.764876,2.2183385,-0.80715924,33.184549,32.721808,55.432885,10.489832,52.611082,1.1419367,1.5296676,2.1232664,2.2377237,2.1717367,2.3790195,0.93022274,0.50367361,2.2423797,1.6756483,0.8711004,1.3344217,1.1249057,1.0406464,2.3946861,between -0.023711622 and -0.00016276260500000002
-1.8978009,1.8216469,0.028036906,-0.02262178,1.4992515,0.77616773,1.1584079,-2.2292927,0.48214932,-1.8253732,-1.3946883,-1.1027458,-0.75115379,-24.641706,-3.1563094,51.907886,15.836791,2.4090755,2.0818061,0.66526573,2.3710921,0.4456484,1.2626153,0.27487594,2.0898719,1.226966,1.8671126,1.3109763,0.82788086,1.6936433,1.8122203,1.2370203,between -0.00016276260500000002 and 0.02356751225
1.0158388,0.21664421,-1.5375253,1.5534184,1.6681482,-2.1477774,-0.79470799,-1.7468007,-0.29597859,1.7706772,1.035723,-0.16912925,-31.34549,-23.644504,-43.17633,35.425114,39.888391,2.187801,2.3714959,0.48168578,1.6929628,1.6262102,2.4650342,2.0801943,0.57515922,2.2010135,1.6839624,1.1057894,1.5029289,0.47560669,0.77165308,1.6733726,between -0.023711622 and -0.00016276260500000002
1.2376726,1.078939,0.45508044,0.32966492,-1.0911928,0.94109842,2.2637941,-0.24149244,-1.3964662,2.0020053,1.2461576,2.314373,51.18296,-17.992298,3.4498772,-67.914261,65.017882,1.4581554,1.7177254,1.5599777,0.79523572,2.0266916,1.3551556,0.85098987,0.83673462,1.9987753,2.4170206,0.61522841,0.64387987,0.68892259,1.7220498,2.2405185,greater than 0.02356751225
-2.2968073,1.4504081,-0.17991932,1.449708,2.1916885,-1.0360041,0.15659597,-2.316999,1.3806718,1.1474247,1.6717011,1.0171189,-58.224297,24.246117,-45.511861,-67.844172,43.004634,0.30819761,1.8771861,1.8670498,0.25547296,2.2340829,1.7318654,0.71217847,1.0835467,1.1693027,2.4701745,0.72298009,0.37637943,0.30902137,2.2222231,0.40406639,less than -0.023711622
-1.5842304,-1.1624904,-0.41147674,2.097498,-0.7323011,0.97536129,-1.5041336,1.9927038,0.42443533,-1.0723848,1.3172354,-0.02778005,-11.8661,66.454002,-7.5801504,-49.586984,-8.4383736,0.26881633,1.4959901,0.85480205,1.9080383,0.65019255,1.0362679,0.80400706,0.94669129,0.54048143,2.1213613,1.719012,0.68457054,0.57711573,1.334044,1.5269533,between -0.00016276260500000002 and 0.02356751225
-0.01475345,1.7953784,1.4976986,-1.7610224,1.0115822,-0.63794034,-1.1782937,-2.1233238,0.21790569,0.81467649,-1.9346559,-0.27724105,30.632468,39.884415,-12.641851,-71.586115,2.1600277,1.4287906,0.93375713,1.4060922,1.9410934,0.45619622,0.78981653,0.94642515,0.56744726,0.83603711,1.5256979,0.65473434,0.87004041,1.5191849,1.4410309,1.9063847,between -0.00016276260500000002 and 0.02356751225
1.803016,-2.083795,0.13150141,0.033796226,-2.1858908,-0.48210741,-2.1825907,-1.5658535,1.3932831,1.0486358,0.087238637,0.66680742,30.917569,31.577037,15.264356,48.026463,30.767627,2.2974975,1.0401008,2.2238346,0.4888901,1.2759367,1.4178147,0.96243985,1.9766149,1.2172765,1.0161091,1.7450934,0.28420649,1.4083941,2.3797793,2.4511962,greater than 0.02356751225
-1.1498515,-0.047668576,-0.059629562,1.5448095,-1.6499869,1.0798184,1.0985228,-0.26785194,-1.4561446,-1.9863769,2.238671,1.6305887,-62.051628,48.293876,25.173656,-56.361027,-9.7789449,2.054094,0.65702331,1.0907933,1.4629363,1.0704403,1.3893583,1.9453917,0.6977892,2.2430546,1.7692447,1.1948841,0.41654973,0.45132904,2.2371141,0.92680413,between -0.023711622 and -0.00016276260500000002
0.33030159,0.18454187,0.84326213,-2.1594158,1.5177643,0.90299609,-1.9495983,-1.6575476,1.2416354,1.708335,-0.59941149,0.77874988,68.277141,33.911633,-47.191491,52.609394,-43.919101,1.4001438,0.96616024,1.5051476,1.7650904,1.12512,2.3912791,2.2285348,0.73508781,1.3708807,1.8920933,0.41144666,2.4339386,1.4561222,1.2955862,0.91751949,less than -0.023711622
0.02242514,-0.091796519,-1.8728976,0.96910743,1.7723239,0.43718243,1.110758,-1.9751581,2.2990174,-2.0037819,1.8810909,0.077170642,35.014507,38.818638,74.852162,-9.7071035,52.711875,1.8021306,0.40948133,0.90265519,0.67569494,2.1548995,0.64659752,1.3645156,0.66338337,2.2343621,1.9233081,0.7896719,0.76568595,0.38370794,1.9793525,2.2271122,between -0.023711622 and -0.00016276260500000002
2.1359736,0.32971686,-0.21818507,-0.79785258,1.9508051,-1.6209371,-0.76841416,1.9214215,-0.67126439,-0.48142619,-0.15813698,-0.020776155,-14.898683,-52.172778,32.124056,59.007937,-53.597172,0.50984968,0.29364432,0.28016463,0.97686094,1.3518495,1.5353628,1.0917425,1.665775,1.4303285,2.0309266,0.53388464,1.4991403,2.0509708,2.1657212,0.27647284,greater than 0.02356751225
1.448404,-0.87500689,1.1252042,0.49078698,1.9760123,-2.0792997,0.28637537,1.761624,-0.32501985,-0.94979119,-2.2789805,-0.52754388,72.765356,17.334354,38.492598,-4.8992354,8.5500789,1.3926419,0.88190751,0.71943924,1.6153465,2.1288839,2.1510138,0.58881943,2.2881408,1.2815918,1.9638786,0.90700062,1.7094437,1.8697868,1.2566096,0.58836769,between -0.023711622 and -0.00016276260500000002
1.5759545,-1.2709519,0.36992995,1.7716451,-1.5460753,-0.77498093,-0.061299915,1.7455158,2.2626097,-1.2972938,0.60622075,0.56710595,-57.71383,53.662365,-46.62379,-6.0317902,23.701652,0.67993028,1.3382246,2.040314,0.80797719,2.4226192,2.4613745,1.3209425,1.8313752,1.423448,1.1403454,1.7849681,2.2090452,1.6724261,0.71517065,1.8731365,between -0.023711622 and -0.00016276260500000002
1.4478503,-0.75734438,-0.52443659,-2.0382949,1.4449653,-2.1215434,1.8677352,1.8032371,1.6330248,1.2942894,0.7348371,-0.76442169,-52.933081,3.7018245,-33.436042,-59.55523,5.2516857,2.3512134,1.5940786,2.429525,1.5260412,1.9251007,1.6681628,1.0620287,1.7659978,0.62499417,0.52703636,1.1500636,0.86873142,2.0189674,2.0358934,0.76049483,between -0.00016276260500000002 and 0.02356751225
-1.7085239,2.1369823,-1.5676826,-1.0750442,-0.96784891,0.53019931,-0.067698052,-2.1154083,1.30723,1.4570845,-1.0669067,-0.86100102,28.72516,-66.235351,-67.550903,21.971382,-26.986811,1.8649403,0.80188521,1.2847675,1.3381301,0.45285047,0.80783472,2.2781905,0.54720326,0.34515024,1.9400766,1.366957,1.1957832,2.0286661,0.7918238,0.93266291,between -0.023711622 and -0.00016276260500000002
-1.3349201,-0.31747565,-1.3888419,-1.8028391,0.34496521,1.5918514,2.0147136,-1.9349216,-0.030206585,1.2559319,1.6564581,-0.70215367,-40.576567,-70.362673,14.549815,38.744584,30.222311,2.0707473,1.549624,2.2810082,0.6555439,0.9763125,1.1342453,0.51115478,1.9784607,0.7397755,1.4068758,1.6122389,1.6490803,2.0930397,0.46779163,2.1738657,less than -0.023711622
-2.3374336,1.9404249,-1.7231988,0.5403262,0.48883192,2.1041063,1.9477643,-0.89243402,0.39556963,-0.8421233,-2.262229,-1.729165,-24.589535,-26.312594,-35.768139,44.880088,-50.366313,0.52562617,2.1990841,0.7566614,1.7082021,1.2528706,0.74665312,2.248961,2.0372512,1.0807965,2.1960419,1.3761556,0.54660392,1.5221023,0.97389564,1.0140447,less than -0.023711622
-0.77177252,2.026201,-2.0749553,-2.095345,-0.77993919,1.4281733,-1.6001904,-0.79697792,-2.1984681,0.188151,0.24080555,-0.72325086,72.776837,60.299749,57.889499,48.803741,44.472757,1.4294247,0.34050153,0.30916616,2.4056389,0.57372925,0.66756986,0.59665205,1.1809372,2.262302,1.2595197,2.2477206,1.4398462,2.2445458,2.0807034,2.3823959,less than -0.023711622
1.8871737,-1.3625752,1.4094983,0.25902368,-0.83643715,-0.94290256,0.40082047,-2.126545,-2.0836888,1.9167581,1.0619116,1.7311703,47.396927,-49.839893,-59.086654,-69.396549,52.201824,1.4657505,1.1180991,1.3922802,1.5536948,0.94818914,0.96495688,1.5303028,1.5495043,0.26854348,1.4102386,1.8793686,0.29797266,1.0264939,0.78224753,1.9842067,greater than 0.02356751225
1.8062084,-0.26449201,-1.5344437,1.5102362,1.6124206,-0.99541241,-0.91551204,-1.0607523,-1.0972125,-1.2732105,0.10878923,0.013683889,-29.346265,-22.671057,-32.458578,18.680218,8.4282118,2.1693254,2.351937,0.25474793,1.2983908,0.80380647,2.0752969,1.5142163,1.1831994,2.0317453,0.79383336,0.95732423,1.4982999,1.4271252,2.1936553,1.7651816,greater than 0.02356751225
-0.15427136,-1.0247982,-0.00091310336,-1.2093612,-1.2006844,-1.4534008,1.7166303,2.1604268,1.3359501,-1.21945,-1.115745,-1.7298279,70.758542,38.817698,59.056593,14.151977,-47.729646,1.4926993,1.7973277,0.68698809,0.70874482,1.8741772,0.79703132,0.70545709,0.61736497,0.55296818,0.48616126,0.41224082,2.281512,2.37248,1.2706863,0.92414738,between -0.00016276260500000002 and 0.02356751225
-1.8014684,-0.18039739,-1.8728488,1.7883059,0.44036828,-1.8934869,-1.0723491,1.9166975,0.043888219,-2.2157671,1.6129139,-2.129328,-55.194797,-58.959581,-33.679382,50.633074,40.06973,0.65426525,1.9860436,2.1854232,0.65794722,0.86887732,2.221102,1.8110611,2.003229,0.77004213,1.5980051,0.92235885,1.0852034,2.0130533,1.6373313,0.37696954,less than -0.023711622
0.16035107,-0.46606458,-1.1569189,-1.0186608,-0.5221402,-1.1420283,-0.50925972,-1.4297274,-0.95684161,1.7465836,1.3598143,-0.68826705,38.534798,-45.654087,-58.243917,-5.5132559,38.7074,1.454025,2.0482918,2.1398773,2.4180798,0.41688835,1.6425767,0.7868517,0.61654449,0.26317164,1.1257378,1.5251141,2.0931674,0.36424579,1.1289885,2.1598944,between -0.00016276260500000002 and 0.02356751225
1.9043431,-0.2521022,-0.6439332,1.7722043,-1.5731952,0.52250256,-2.1924597,2.2109375,2.0389231,-0.31133273,-1.8173504,1.4971899,-28.243685,58.388502,35.556301,-5.2543391,40.322888,1.4765554,0.46677106,0.77123287,1.3608159,1.4833042,1.3934896,1.6300573,1.8733098,1.9670689,0.52686712,0.55569882,1.3800043,2.2321035,2.213173,1.2987168,less than -0.023711622
1.9923732,-0.41920895,-0.62333269,-0.71181578,1.2677782,-1.8750078,-1.5102041,-1.0738489,0.27121367,1.408051,-0.50434288,1.0970614,-40.322757,-4.5832818,68.783492,-5.8415705,70.724971,2.4937632,1.1786797,0.3192127,0.25786718,1.9736403,0.72207944,0.9891345,0.63357333,0.71688609,1.4544713,0.5490919,0.58757152,1.5644768,2.1619739,0.29567978,between -0.023711622 and -0.00016276260500000002
0.66971756,-1.9543046,-0.64627824,0.058177545,2.3254722,-0.3427719,2.2843978,2.0416077,-2.3156135,1.1044396,0.21685363,1.9822768,-14.770104,8.8689552,-39.46982,-69.270805,65.577446,0.77701537,1.7973996,1.8944599,1.937544,1.5522988,2.2360098,0.36676314,0.68802963,2.4639693,2.1818415,1.2099743,2.03823,1.7817503,2.1271098,1.585159,less than -0.023711622
-0.27717558,2.0626889,-1.4334835,1.8873527,1.6467216,0.58871111,-1.5492872,1.7907871,-0.27027196,0.28210805,0.72661814,-2.2412105,-60.45256,73.82834,32.906779,14.22876,42.772512,0.28925679,0.78880255,1.9043965,2.4422365,1.4184829,0.94233275,1.536528,0.42638239,1.4587533,0.5159441,1.4725257,2.4902633,0.85585463,1.5987067,1.4628624,between -0.00016276260500000002 and 0.02356751225
