JessupByun/synth-gen2eval-research/LTM_data/LTM_real_data/pumadyn32nh/train/pumadyn32nh--train--128-seed1.csv
theta1,theta2,theta3,theta4,theta5,theta6,thetad1,thetad2,thetad3,thetad4,thetad5,thetad6,tau1,tau2,tau3,tau4,tau5,dm1,dm2,dm3,dm4,dm5,da1,da2,da3,da4,da5,db1,db2,db3,db4,db5,thetadd6
2.0520381,-1.3712134,2.3114292,-0.74479443,-1.6549317,-1.9172756,-0.33453412,-0.63483803,-0.87405786,-1.7739541,0.43785417,-1.7365765,60.362052,55.001356,-42.214778,-3.7758673,-11.001281,2.1471261,0.49853451,1.3695629,2.2430945,2.4400721,1.0419725,2.182235,1.0740742,1.7149098,1.4897613,1.9175239,0.32494856,2.160413,1.0607176,2.2305617,between -0.023711622 and -0.00016276260500000002
-0.94176059,0.74441489,-0.0116729,1.7339032,0.29807202,0.42693806,-1.4204858,-1.1420047,-0.11227375,-2.0293715,0.62505132,1.322563,-0.73424204,-40.405975,-53.227862,-0.68223163,-66.267053,1.369548,1.9924257,1.4491401,0.94800927,2.4418222,1.2054189,1.9758707,2.2095097,0.47922355,0.81019012,1.3653221,0.71855319,2.4734348,1.5184807,0.8557116,between -0.00016276260500000002 and 0.02356751225
1.2516317,0.070082855,-0.21470895,1.0765812,-1.4738144,-2.0822809,2.0179281,0.25473944,-2.1557579,1.7363871,-0.36679903,-0.98644555,-32.021835,9.0205984,-40.802105,39.014031,58.817444,2.0465936,0.59888521,0.46379956,0.32925121,2.4750318,1.3601724,1.9177412,1.7269653,1.6056098,0.48331213,2.0269586,1.3426119,1.5275731,0.67175618,1.2061421,between -0.00016276260500000002 and 0.02356751225
-0.721376,0.81044538,2.3512989,0.1865234,1.1600623,2.0146715,2.0698337,0.83903549,2.2016284,1.0905887,-1.6681191,-2.0754234,-17.120369,-42.048568,-60.276234,37.333149,8.2290327,1.4552796,0.63379256,2.1516033,1.4974314,0.3296239,1.9888821,0.39198837,1.6485707,0.27735049,0.92960707,1.4060082,0.52963506,2.0764869,1.2645773,1.7504082,between -0.023711622 and -0.00016276260500000002
-1.0273457,-0.40566181,0.86879094,-1.924092,-1.8002529,1.3998135,-2.2930703,-1.7150189,1.3612989,0.70174281,-0.91818142,1.198818,-52.243397,45.232853,28.55333,45.816783,-57.335755,0.74454159,0.51055959,0.9749697,1.0656867,2.4962646,0.46857978,1.9202911,1.832917,0.33608898,0.39750457,2.1093379,2.1414983,0.41265534,2.4982916,0.78650689,between -0.023711622 and -0.00016276260500000002
-0.363544,1.8845531,1.7179639,1.0122934,1.8904908,-2.159646,-2.3507467,-0.33011317,-1.7302633,-0.38349532,1.1423612,1.3927354,40.337544,-46.893884,-45.513011,62.825479,57.821699,0.76441826,1.5777735,0.6400545,1.6460583,0.80161911,1.3124025,2.2992868,1.8637914,1.7425848,0.87271395,1.4533546,2.0315425,1.8856354,2.1246103,2.3261104,greater than 0.02356751225
-0.024143159,-0.50862401,-0.17018347,0.1465619,-1.3135039,1.4819498,2.1539813,1.3913777,2.0115658,1.7080268,-1.0677189,-0.37408076,-27.004968,27.50942,50.81753,-9.7700102,45.43826,1.8374465,2.2139556,0.95212973,1.9443545,1.2664183,1.1917282,1.3759246,1.164081,2.4602002,1.8355492,1.8246373,0.67921492,0.56524263,2.0328706,1.705744,between -0.00016276260500000002 and 0.02356751225
-1.5984157,0.75644497,-0.45488006,-1.6743117,2.2296424,0.68180554,-1.4242987,0.74815462,1.5809108,1.9191029,-1.9400281,-1.0325911,30.882031,34.297884,-5.4600252,33.356497,72.637224,0.83226513,1.1300466,1.943452,1.8471596,1.2109578,0.56701708,0.35612132,1.8310425,0.33084778,2.3086584,1.8725114,2.0485123,1.3456553,0.92922778,1.7813424,greater than 0.02356751225
-1.3793793,1.725314,2.0235164,-0.071375264,2.0551337,-1.1795749,-0.095322885,0.12052202,-0.7136106,-0.62332619,-0.60261145,-1.1666858,-7.5794975,-38.615197,44.386824,59.355607,-60.314053,1.400654,0.54128803,2.1779046,0.29296653,2.3884772,2.3862536,1.0139179,0.91854131,2.1737927,0.93419677,2.0451083,0.38455952,0.54177635,1.3850678,1.8350762,greater than 0.02356751225
-1.3152995,-0.42276366,0.89373324,-2.1215529,1.7073771,2.1505268,-0.11970542,0.30104222,-1.4891667,-0.92719776,0.45767424,1.512158,29.448072,-66.261962,-64.803253,1.7230325,9.0065075,1.7105677,0.5108656,1.6181093,1.3137384,2.250673,1.5606865,1.4573845,2.2617482,0.95261857,1.1602344,0.80873953,1.7352036,0.56626371,1.194132,1.2762727,between -0.00016276260500000002 and 0.02356751225
1.4438298,2.3559392,-1.934824,1.608928,1.5643871,2.2357975,0.45927682,0.17242207,-0.22151679,-0.24541271,-1.3111104,-0.7024142,-29.956769,66.591396,51.586578,15.612653,51.852876,1.2442881,0.50078811,0.99571909,1.0506984,0.33853568,1.0191485,1.0790401,1.927503,1.5431007,0.64290199,2.2538172,0.40500281,2.1322925,0.94036548,2.2226145,between -0.023711622 and -0.00016276260500000002
0.46201337,-0.95840844,-1.025169,-1.5217644,-2.1592567,-0.51976392,1.0969611,1.7600077,0.78402604,1.2860629,-0.86978087,-0.57641414,27.986425,-32.158942,-45.338782,-8.915375,9.2919396,1.6694428,2.3259293,1.8931712,0.52847211,0.53069313,1.8594105,2.3618093,1.929196,0.74694419,0.39102679,1.2372903,2.1386662,2.3125914,0.47388917,1.1552582,between -0.023711622 and -0.00016276260500000002
-2.2701796,1.3057601,0.31402908,0.011156917,-0.98126233,1.28545,-1.7457266,-1.0929628,-0.53295678,0.84686922,1.9162173,1.3981672,-53.734289,37.805448,-3.8438579,46.281109,-53.395696,1.8031368,1.5707959,0.36661284,0.41205917,1.4784238,0.36959639,1.0565834,2.4963962,0.43066392,1.4184208,2.1492088,1.7526265,0.89332293,1.3285576,1.5670483,less than -0.023711622
1.1514858,-0.75935965,-1.4083543,0.11839052,1.1613164,-0.46987803,0.72390955,-0.64051734,-2.0784266,0.82393264,-1.8753355,-2.3057557,58.90346,-9.5526849,-51.975641,45.400655,-1.1878977,1.1500398,0.46862981,0.51127755,1.7917108,0.78378811,0.87675547,1.8792176,2.2603448,2.115413,0.74587502,0.42144427,1.7138111,1.0229441,1.8708662,1.3973901,between -0.00016276260500000002 and 0.02356751225
-0.98976887,-0.3123388,0.12312597,0.63938284,1.8604485,1.8570238,0.84619308,-0.022893999,1.6364547,-2.3209676,0.65402085,-1.8749941,-40.768114,10.305333,-48.260594,-65.80974,35.693859,2.2252791,2.2654129,1.795409,2.188369,0.66751415,1.9103287,0.89457716,2.1583705,0.48368678,1.5737383,0.31967143,1.2177957,0.74257145,1.1482909,0.32439519,between -0.023711622 and -0.00016276260500000002
-0.96970037,-2.3129485,-1.2290769,2.0178738,-0.65857907,0.66326119,-2.081585,-0.42272072,1.6154186,2.2677471,0.22271404,1.5180369,24.58491,-51.413818,37.955864,-25.796669,-64.621365,2.2558247,0.3961888,2.4951,1.1452098,0.29172779,1.8189654,2.1006798,0.62594775,0.80385185,0.5880098,2.1807064,2.3831699,0.93636434,2.4753799,0.46060844,greater than 0.02356751225
-1.3182126,-2.2584112,1.176895,2.1778649,2.2505793,-0.85943441,-1.04186,0.69592536,0.26807577,0.5056808,-2.1724657,-1.041373,-17.289783,-39.385795,-7.0553003,71.56781,-9.8114728,0.6036575,1.9216425,2.04552,0.55396997,1.5733405,0.3845003,1.7964617,1.8826296,1.1060288,1.0253227,1.347974,1.6494165,0.99327522,0.4766349,2.3028164,greater than 0.02356751225
-2.1379175,-0.012645112,-0.46890028,-1.6925517,1.9764538,0.62941149,-0.79438941,-1.1048212,-1.916651,0.73713852,0.21648661,0.52607771,42.855177,-33.037201,43.762912,73.255018,-2.9167056,1.8089235,2.0765138,1.7168201,2.0957272,0.63660568,2.1816881,0.88225003,1.976176,0.59041084,2.035059,2.4867759,0.74328499,1.8908791,0.2548384,0.56899171,greater than 0.02356751225
1.338301,0.59172107,1.9153157,0.38149018,-1.855963,-1.8678926,0.26516039,-1.3692817,1.7897422,1.0183714,0.37211494,0.79554244,52.017713,61.703198,-54.344934,-25.308185,45.328818,1.2465659,0.53273375,2.4061004,1.5795125,0.61640176,2.3644462,1.2473209,1.9719999,2.4029463,0.31854143,2.4758331,1.3260981,0.73141576,0.40464891,0.68419514,between -0.023711622 and -0.00016276260500000002
-0.86563021,-1.502218,1.2024133,2.2360868,0.60801125,-2.326539,1.263344,-1.0027487,-1.6951968,-0.068535869,-2.0594413,-0.5333756,-47.103267,35.389009,33.07672,20.436394,-25.51934,0.5718195,2.320303,1.8318218,2.1795133,0.33008656,0.76484566,2.011007,0.99468811,1.7230993,1.8796267,2.3856967,0.65499882,0.81514618,1.4119121,0.75675274,between -0.023711622 and -0.00016276260500000002
-0.43053556,2.2183742,-0.20585311,-0.87967006,-1.8504682,0.94862013,1.4465667,1.2314153,-0.41544864,1.315157,-1.9737201,-1.807634,-4.2035096,1.6141607,-20.801365,41.46508,3.5999783,2.1975406,1.8151059,2.4846846,1.594638,0.58128757,1.7001731,1.3094164,1.6110915,0.36496126,1.9038194,1.7431403,1.2093573,0.66732027,0.90177486,1.6301415,between -0.00016276260500000002 and 0.02356751225
-0.088713281,-1.8891936,0.39995358,2.153176,1.9937352,-1.0903986,0.15116472,0.64775945,1.2745194,-1.6726441,1.9830931,-0.8815269,-2.2833243,24.167864,-10.706996,47.509959,49.887588,0.7853207,1.8850331,1.0008123,1.1531423,0.86198914,1.2014972,1.3130536,1.9926935,1.4500851,1.0799704,1.8126165,1.1462881,0.41410648,2.137567,1.8380085,greater than 0.02356751225
1.3461836,1.1279795,0.0098716194,0.97869337,-2.0503775,1.0056863,-0.76884747,-0.64887574,-1.1864967,1.3802161,-1.7994633,0.53276182,18.742075,-1.9438968,28.926596,19.291158,-73.501716,2.2249537,1.2973459,1.2430069,1.467799,1.7978804,0.97583966,2.1872071,1.3905096,1.0445068,2.0254555,0.83100544,2.4584362,1.4372119,0.7202505,1.7501457,greater than 0.02356751225
0.068833729,2.3531914,-0.99208609,-1.558642,0.073891661,-2.1735405,-0.25545308,-0.41353732,0.4519529,-0.39866433,0.66575355,2.1084776,0.58765988,-23.200454,69.97035,-8.3332231,43.51982,1.939339,2.4712031,2.2606061,2.0060355,0.68829004,2.3407156,0.65775814,2.1910094,2.2954932,1.1035037,1.3370995,1.1311681,0.54149357,1.1323623,0.36266168,between -0.023711622 and -0.00016276260500000002
-1.0356969,0.60679485,0.79121871,-0.34877091,0.41920345,0.53079852,0.57840592,-0.3901117,-1.6742741,-1.8497229,-0.66313059,-0.43587436,64.444151,-37.148604,-56.591937,9.3158941,-27.768346,0.58612747,2.0444166,2.2598302,2.4662203,1.7652599,1.7226016,0.2649304,1.4352184,0.96522325,1.507211,0.44603359,0.98649205,1.2218901,2.0562264,0.49762893,between -0.023711622 and -0.00016276260500000002
1.0326037,-0.75886009,2.2754878,-1.6262627,-0.74041396,1.2818745,-0.57795963,-1.5337927,-1.686176,0.74718105,-0.64464819,-0.81992017,-43.702962,34.312152,-65.660854,-11.968576,-5.8512528,2.2449219,1.6532104,1.7570496,0.98220483,1.1665334,0.92619498,0.30905638,0.5606037,0.56632566,2.2352837,1.6626516,0.68578628,0.75996189,0.92942561,0.60617774,between -0.00016276260500000002 and 0.02356751225
2.2819519,-1.368719,1.8232545,-1.2272786,-0.74517587,1.3590614,0.79476934,-1.9345091,2.1900909,0.38756209,1.2344148,-1.839968,-52.358684,57.59483,46.309753,-21.982418,-8.4946183,1.8392549,1.1064104,0.68922206,2.2551487,0.2843844,2.1486522,1.3972997,0.41577257,0.88951984,0.41001481,0.86883338,1.4826899,2.3194031,2.4577839,1.7240827,greater than 0.02356751225
-0.83560202,-1.043938,-1.241864,-0.83760771,-1.7669813,-0.17924505,-1.3549184,-1.850062,-1.6496883,1.3848172,0.13395499,-1.1403631,-25.365933,-25.236452,50.946957,65.511802,56.84991,1.0215214,0.46030042,2.2691225,1.1417026,2.0959016,1.3176964,1.2735301,1.4705906,1.4656708,2.0291385,1.9799869,1.6394564,2.3430068,0.91448689,1.5310885,between -0.00016276260500000002 and 0.02356751225
-2.0978859,-1.0731601,-2.2886342,2.155501,-1.3417553,-2.1000013,1.0718089,-1.5711848,1.3245447,0.29779022,0.4031561,-0.57073729,65.009016,6.5300136,-50.061,-25.222481,-14.230268,0.35326208,1.0257597,1.9438825,2.3327456,1.7047407,1.5769596,0.45952386,0.46757954,0.85929691,0.95321221,2.137646,0.91603379,0.52997995,1.1230207,0.85929432,between -0.00016276260500000002 and 0.02356751225
-1.5368983,-2.0452906,1.6785032,2.2421898,-0.49006994,0.65048519,-0.037838877,0.21450961,0.28547342,0.73985746,-1.2101656,-0.58198871,45.684242,-34.940758,0.67515821,-52.615887,-65.215314,1.0182081,1.0243135,2.3873709,1.7933536,1.3934931,1.6892423,2.0949481,1.0434167,1.7038273,1.9747399,1.2041111,2.4952524,1.4578781,1.5579618,0.66456622,greater than 0.02356751225
0.94503181,-2.3135873,2.172098,-0.42592724,-0.44032785,-2.1394453,-2.1289136,0.51890451,-1.4039759,-1.6916759,-2.1544159,0.72958129,13.896627,10.61229,10.762669,-11.817034,-8.8963387,1.8135205,0.58843892,0.39290724,1.3420419,0.9476041,2.3821883,2.4386401,1.72449,0.50419961,2.0827745,1.1901967,0.38576696,0.58535031,2.482625,0.72869092,between -0.00016276260500000002 and 0.02356751225
2.0125907,0.084578587,-1.6291568,-2.2578162,1.7515238,-0.43333629,2.2703279,1.187241,1.7044159,-0.49484078,0.57749305,-1.5956189,20.342058,38.971731,-52.125244,-68.979345,14.154011,1.1718919,0.98645852,0.65837386,1.2895201,2.4643189,1.30804,0.97783686,2.0040431,0.95312612,0.69068727,2.1309174,0.32899923,0.49000539,2.0205235,1.1878804,between -0.023711622 and -0.00016276260500000002
0.19731383,-1.2683817,1.1567279,-2.1917106,0.66424465,0.31038065,-0.046960235,-2.291717,2.1806853,-2.183458,-2.0054551,2.0348847,-70.411742,-60.146802,-37.296993,-0.55920052,51.516838,2.0273471,1.1230674,1.6441422,2.3478862,1.9232713,2.4208624,2.1845064,0.99879662,1.0247092,2.2867599,0.57392015,1.6259019,1.7831012,2.3322112,1.72407,between -0.00016276260500000002 and 0.02356751225
-0.023272439,-0.011598844,-1.7338293,0.94496171,1.2205677,1.0518792,-1.9491041,1.9358257,1.088854,2.1634808,0.82825303,0.051634891,23.810694,-13.66918,62.092858,44.670859,33.125453,0.46720624,1.3353213,0.49438284,1.342431,0.73704042,0.43836924,0.42187735,2.2426456,1.6445443,2.3558191,0.25142164,1.6434847,0.29704497,1.1848754,0.9503177,between -0.023711622 and -0.00016276260500000002
-1.2650145,1.2011315,-0.45648882,-0.43839556,2.0621366,-1.2910371,2.0915357,-1.9814001,1.0608782,-1.4992457,-0.67780638,-2.0477254,-49.130265,17.637986,41.636759,39.016797,-44.699793,0.33371705,1.0325329,1.03074,2.3964732,1.7752428,0.75622519,1.1267861,1.1446408,1.977343,2.2040181,0.43227563,1.5065903,1.2636849,0.25199525,2.2842411,greater than 0.02356751225
0.41616287,1.2641698,-1.2594585,0.33305207,-0.71198431,-1.5646378,-1.736424,-0.25265251,-0.46822016,0.31331407,2.1311633,-0.40764775,15.211934,66.976466,73.459414,-17.623879,45.464662,1.7437384,2.2608513,1.6284327,1.5676298,1.1543847,1.4943839,0.86031421,2.3008863,1.7465305,1.9374288,1.8657831,1.466285,1.1027671,2.4572997,0.33577202,between -0.00016276260500000002 and 0.02356751225
-0.6339934,-0.81554654,1.4487687,0.54220909,-0.85216415,-1.3727328,0.33575067,2.2318666,0.36539143,0.89084451,1.1638289,-0.6545598,71.353603,-10.000421,72.92101,-66.587064,21.208048,2.0299364,1.8905489,1.4548176,1.8686412,2.252039,2.0200666,0.25903236,1.306801,0.40441574,1.2653442,1.1402975,0.98025691,2.1778994,2.4553953,2.0792812,greater than 0.02356751225
-1.7854183,0.96749771,-1.7204134,0.23120205,-1.9079856,0.29326842,-0.19657522,-0.45508126,-0.34349525,-0.44820595,2.1125493,-2.2345748,39.529839,27.996669,-9.9854707,24.193247,-34.091608,1.7101247,2.0650066,1.8156879,1.0167031,0.47951351,1.18359,1.8477365,1.9077295,2.2094197,1.2163531,1.2467064,0.64521918,0.69878932,1.0521823,0.52718697,between -0.023711622 and -0.00016276260500000002
-1.2087107,0.30839565,-0.42221667,0.66218252,-1.3610918,-1.9331653,1.2131586,-0.95033346,-1.9681727,1.8914755,0.25205088,-0.21860032,52.45129,-1.1741671,65.772933,-54.319043,-40.149924,2.1284972,2.4031003,0.65637347,1.4189404,1.8817112,1.420112,1.321919,2.49343,2.3288244,1.0519961,1.8992768,1.8944351,1.5200796,0.72802591,1.9314199,between -0.00016276260500000002 and 0.02356751225
1.224704,-0.11567888,2.0016807,0.5033457,0.99304074,-1.2459906,0.49215259,1.3658605,1.9704936,-0.58391307,2.0792337,-1.3960478,-12.419682,62.405573,50.457396,-62.553686,10.192507,1.4570912,1.8313821,1.5395287,1.3588191,1.6731069,0.90780187,1.6760914,1.5678223,2.1388842,1.4774277,1.6279829,0.75937045,2.2391344,1.1326126,2.3206226,greater than 0.02356751225
-2.1455383,-0.86158596,0.49612313,2.1253354,0.60394152,-0.040715192,-1.0038254,-0.94169518,1.8437238,-1.2046086,-1.4335824,0.22494631,42.546692,32.254565,2.4801879,-15.48143,53.598415,0.30352597,2.1109307,1.9125414,2.0830714,1.6811037,0.30941701,2.1217354,1.2563531,0.77705761,0.25731974,1.7728001,2.4518137,0.38245292,1.1361564,1.130856,greater than 0.02356751225
-1.2029967,2.0958145,-0.75394973,-0.019169224,-1.7346939,0.55017038,1.0064588,-1.9238652,2.0112771,1.5684757,0.26685441,-1.1722276,27.684214,-11.408415,-41.233834,-17.05631,-15.395297,1.3936056,1.3290052,2.340811,2.2601192,0.57333163,0.73465272,0.80820107,1.6853282,1.5612779,2.3974115,1.795913,1.6596722,2.3599737,0.32800055,1.7052843,between -0.023711622 and -0.00016276260500000002
-2.1855641,0.29695842,0.56021363,0.15727338,-0.35645986,-1.5745204,1.8118161,-0.26520657,0.59312327,1.9200791,0.32934544,-1.7482566,-38.299603,-51.429154,-69.795433,-51.85004,56.379061,1.5680788,1.9506874,1.9527784,1.0960545,2.1378389,1.9083518,1.4192741,0.74040633,0.75926023,0.38672089,0.86795927,0.2914189,1.1275057,1.9883242,2.2642801,greater than 0.02356751225
-1.3614647,1.2230036,-0.41880251,1.4953579,1.310364,2.294028,-1.0388657,-0.81412075,1.8501493,-1.595763,-1.7829039,0.81648819,7.6484736,-2.1038566,40.481882,-21.005468,61.105214,0.55497119,0.4008347,1.8287469,2.2498253,0.81324103,0.89191495,2.4145049,1.0831472,1.2046007,1.7238814,1.5252563,2.232507,2.2459703,1.2724201,0.81394478,greater than 0.02356751225
1.2578682,1.2134013,-1.5846911,0.51925403,-0.2418651,1.7649029,-1.7654779,1.5258014,-0.67612931,-2.1355392,2.2589101,-2.2152153,46.515292,-17.483681,1.7739172,-35.774035,-54.213487,0.38393668,1.3238216,0.71940388,1.021014,0.93213671,1.1717476,0.8124637,1.3273235,1.0757219,2.4074844,2.3401178,1.8602085,2.2749423,2.2047206,0.98892694,greater than 0.02356751225
-1.7551744,0.33830136,-2.0225177,-1.9928365,2.0576183,-1.8313901,1.1508575,-1.8952419,-2.2940283,1.0326697,0.3506648,-1.5753893,42.811389,-18.982791,6.2388783,6.8271978,-5.2870085,0.49373036,1.6261673,1.7446365,1.6056402,0.99426447,1.3529953,0.54167669,1.9600859,2.4136179,1.9255808,0.73573684,1.0290335,0.71642022,0.37465844,0.63432195,greater than 0.02356751225
-0.97567268,0.98290216,-1.9991327,-0.089155487,0.1034199,-0.69327841,1.8076726,0.78130845,-1.9770291,-0.87288672,-0.94017573,-0.89324489,28.791377,-3.3268167,36.192387,35.446717,-47.024817,1.4336142,1.0036649,1.8453027,1.5017646,1.158083,0.65181749,1.3465967,1.0001374,1.0587359,0.4240444,0.41421826,1.7663417,1.9048168,0.50569126,2.4030379,less than -0.023711622
-0.7995875,1.0661804,-1.9213551,1.7863583,0.69359919,-1.1287384,1.3720005,1.4926384,-1.9847774,0.84733877,0.38325042,-0.54595405,-26.366997,-50.112686,6.0904462,62.12856,44.707633,2.1428423,0.50028487,1.5378871,0.76765672,2.0065247,2.159981,0.5498446,1.9881852,2.1790715,1.9052179,0.49677203,0.9974459,0.82318247,1.4777336,2.2685164,less than -0.023711622
0.34931085,-0.76925248,1.9689427,1.6248843,1.1356608,1.8750287,1.8619372,-1.3959824,0.70876425,-0.71859007,0.50973008,-0.089741101,-10.001517,54.503998,-1.3101229,30.763859,-1.8280177,1.7726027,1.3834585,1.787778,2.185263,2.4655334,1.4691914,0.45046976,1.2953145,0.85055715,0.31394011,1.6414631,2.3204751,2.4744362,0.34870434,0.92376186,less than -0.023711622
0.65868115,1.0522906,0.25201534,-0.81584956,1.0684592,-1.3214265,0.27449595,0.024647662,-0.43697773,2.3296764,-0.36894004,0.72860279,-59.584168,-31.115684,-61.301925,48.539028,-54.551679,0.62395912,1.1309017,0.56474383,0.39947318,1.4457209,1.9808386,2.4537116,0.78080482,2.4865632,1.667411,1.9268231,1.3664235,1.2297283,1.0433913,1.2781041,less than -0.023711622
-1.8465278,1.201831,1.8744083,0.859195,1.7305432,0.37526465,1.8965531,0.76952536,-2.0950816,-1.0661412,-2.1317141,0.57473065,-28.626216,-70.809882,-1.6866488,2.4939411,65.668038,1.1156483,0.70116747,0.52170051,1.4704433,1.2412781,1.6605013,0.54571637,2.3550973,1.6204593,0.30917821,0.35818147,0.4559175,0.60550561,1.4827412,0.93065785,between -0.023711622 and -0.00016276260500000002
1.1650077,0.30785917,-0.014006467,0.21276357,-0.78598992,-1.3061931,1.8320458,0.44474518,0.98327713,-0.40935097,0.12620124,0.48913537,-70.683795,17.454268,-46.110096,-72.384673,-69.191786,2.0297983,1.8200793,0.57274428,2.1131436,0.85448706,1.1139691,1.728781,0.62212226,1.7587688,0.6266162,0.78848165,1.0111692,1.9699336,1.4238064,0.41458551,greater than 0.02356751225
0.5518499,0.95980398,0.91799891,0.44614997,1.0315969,1.1695931,1.9769521,-0.42104265,1.5444962,-2.2033785,-2.2297654,1.9623397,-30.806357,37.555992,3.5658254,-69.172968,59.921498,1.3842024,0.7892407,0.26846019,2.2603496,2.1953946,1.7463009,0.33003444,2.1388343,0.6377268,0.77427083,0.66984549,0.59316771,1.1197516,2.1658225,1.9782386,greater than 0.02356751225
2.0509369,-1.0284912,-0.80859759,0.43011032,0.059439246,-0.031063773,0.98635117,-0.58025173,2.3542843,-1.4744762,0.93179214,1.3618927,40.036497,-6.6005221,65.02582,-11.045669,55.446382,0.4350337,0.61139282,1.4290781,1.2648242,1.4006105,2.0610819,1.1036175,0.99970174,0.48718114,1.8034276,1.9576141,1.370565,1.0865604,2.3200599,2.2468973,between -0.023711622 and -0.00016276260500000002
-1.4610224,0.85529749,2.1985383,0.99096814,1.6188197,-1.8320143,0.085712753,-1.4167846,-0.19690197,-1.2343315,-1.4731967,-1.1253078,-71.047017,62.793504,-29.584555,22.380134,-57.09614,0.40269947,1.6700453,1.2008543,1.7575808,0.91126256,1.3397992,1.5046554,2.4926671,0.75516382,1.2882523,1.4056551,1.3449384,2.3794268,1.0267834,1.1486213,between -0.023711622 and -0.00016276260500000002
0.4798812,-2.2466139,1.5336407,-0.86834239,0.038101114,-0.51948397,1.0897631,-1.4070206,-1.0264974,-0.285375,0.91439826,1.1910774,6.6935365,-1.7316481,-3.8092089,28.626376,73.49824,1.8987531,2.0940135,1.0847842,1.7175425,0.73604008,1.6256845,0.38001032,0.583453,2.094645,0.44873789,1.4377598,0.92848656,0.57362128,1.1028931,2.3243287,less than -0.023711622
1.5039587,-0.2198329,-0.21863764,1.0205725,-0.33453594,-0.66552293,1.7675202,-0.18883875,2.3373722,1.7395572,1.0761713,1.062903,-14.531443,-29.967316,39.325306,40.415803,68.405733,0.55243494,0.52410364,1.3598913,1.6932106,1.290588,2.4130696,1.7108116,2.3610926,1.1337798,1.686431,2.0961375,0.78359946,2.2061426,2.3891384,2.2489212,between -0.023711622 and -0.00016276260500000002
-1.8067184,1.1179284,0.72772414,2.2101475,-1.812979,-0.43045288,-1.1044901,-1.064893,-0.0026048408,-1.3680593,-1.2264455,-0.87992045,-42.858759,-27.163231,67.570691,10.606658,66.10195,0.25722393,2.4125677,2.2753611,2.4932406,1.3940889,0.45197823,1.8980492,1.5128148,2.3779547,1.0348283,1.3597726,1.948408,1.8931861,0.77843656,0.93322419,between -0.023711622 and -0.00016276260500000002
-0.83556292,-0.38686796,1.0070462,-1.4765123,-0.30260478,-1.2107788,-1.463946,-1.1578946,1.4312514,-1.7028984,-2.2758001,1.0886561,-37.053219,46.554498,41.455131,-13.614705,-72.353421,1.4657315,0.79979288,2.1188987,0.82963579,1.9386737,0.28864409,1.7412357,0.69791823,2.1616437,1.4961168,0.73459779,2.1349791,1.0932255,1.8406558,2.1518995,between -0.00016276260500000002 and 0.02356751225
1.0864834,0.0197916,-1.9422026,0.11939661,-0.77886489,0.63439779,-1.8125248,-2.2220655,-0.57228978,-0.4884544,-0.47146901,2.258561,42.69242,-68.489436,-1.9506387,65.615247,-4.5362466,0.76454119,1.3938411,0.78767084,0.88385391,1.9326453,2.4698725,2.3969672,1.0779367,1.3814614,1.9722979,0.66156827,0.97797494,2.0748649,1.0043999,0.69842433,between -0.023711622 and -0.00016276260500000002
-0.81303876,1.1855306,1.2329678,2.1162462,-1.3613529,-1.6103406,-1.7440766,-1.6357394,0.2056451,2.0960082,-2.2094974,-1.397743,-19.33896,20.092432,43.501701,33.091531,-30.640453,1.0136351,0.66476158,0.64781672,1.6056662,1.4324022,0.88433556,1.0277251,1.2264338,1.9222945,1.7534896,1.8992029,0.65332942,2.0076359,0.58603222,0.44349951,between -0.023711622 and -0.00016276260500000002
0.89244638,-0.18785642,-0.0022292556,0.23201218,2.2830733,-1.3712518,1.6660872,0.91294423,0.31518728,0.62737492,-2.0362731,-2.2740066,-55.826304,-22.689078,-35.339068,56.279078,-17.540736,0.51774383,2.4706192,1.4470845,2.3986783,0.58566441,1.0117087,2.0381226,2.2272165,1.0777599,0.66041513,1.847163,1.2691566,2.2148942,0.97619849,1.468086,greater than 0.02356751225
0.97203535,-0.85447574,2.1878418,0.28563619,-1.2368542,-1.460048,-1.6169276,0.64440585,1.4592567,-2.2567342,1.0870527,0.16243446,49.743777,-56.341702,15.006379,62.212415,-45.940139,0.38620087,1.1279905,1.1368835,2.1014322,2.0212258,1.7425595,0.44732534,2.4470713,1.676564,0.51035246,1.9937635,1.4327161,1.6598269,0.4613121,1.2724458,between -0.00016276260500000002 and 0.02356751225
1.28724,0.064424223,-1.071549,1.2267479,1.2503091,1.4021044,-1.4883051,-0.5838184,-1.0420028,-1.7033245,-0.011226886,-0.19472193,-73.004054,20.872677,-42.925891,44.544722,13.151027,0.31465024,2.3266097,2.0793222,1.6681384,0.65136147,0.4322939,1.8136266,2.3726515,1.9043903,2.3375666,1.7321043,2.4767537,1.0496637,0.94734924,0.3485953,between -0.00016276260500000002 and 0.02356751225
-1.6685921,-0.59988006,2.3283132,0.28152256,0.31113041,-1.5830314,0.1402286,0.6276439,-2.2278756,0.73718649,1.0226292,1.2469471,46.025058,-6.8496636,-72.295785,74.739232,42.266477,0.9651314,2.213401,0.63078894,1.1696492,1.5434922,0.4728926,2.4059318,0.99611833,1.0107692,1.9973426,0.8374229,2.3166969,1.9755414,1.1738052,1.644372,less than -0.023711622
-1.2213758,-0.49680308,0.58391701,-2.0131062,0.67624987,-0.55068707,-0.265546,-0.39926166,0.05110898,1.3338267,0.79145694,-1.0573698,-25.314217,-56.037534,27.159474,19.276379,-21.903632,0.85977891,2.3041207,2.106975,0.67842478,0.78521861,2.4191623,0.61017982,1.2921922,2.3751034,0.36364065,2.2083849,1.8251843,0.87211326,0.35753787,0.88905146,between -0.00016276260500000002 and 0.02356751225
-0.43011003,-0.054534086,-2.3509272,1.3486746,0.58245499,1.6891461,2.0473697,0.27898061,2.2293774e-05,0.37469147,1.6877828,-2.0156262,23.402291,22.312273,2.378025,67.466765,63.913654,2.076629,1.4030717,0.67605158,1.3989221,0.68297611,0.77955303,1.6978328,2.4755069,0.34487695,1.8468763,0.95043365,0.43835216,2.3847044,1.9765853,0.71845698,less than -0.023711622
-2.1182616,0.47621811,2.1612936,1.7668479,-2.0632979,0.62351772,-0.89073915,0.60697047,-0.96951838,0.74573173,-1.4415026,-0.94249173,-67.457082,-51.17761,-42.085067,-73.725449,46.384685,1.9360432,1.07776,0.66272196,2.3679261,1.2338253,2.4020205,0.50934172,0.75630616,2.4876176,1.3892831,0.68065431,2.2569942,2.0507906,1.3872509,0.27570188,less than -0.023711622
-1.3385663,-0.33908071,-1.6512128,-0.67542916,0.20708597,-1.9616284,-1.2155944,-2.2881283,1.2348676,1.0584586,0.24494482,-1.8403559,40.088351,-35.08539,-30.153263,64.114012,-35.800618,0.61024988,2.469781,0.85974307,1.7017407,0.65649717,1.2479861,1.9018647,0.39043312,0.25952652,0.61217145,1.0155755,1.7778762,2.2655701,2.187284,0.43278793,less than -0.023711622
1.3332033,-0.26181213,1.0947763,-1.97366,-0.79787189,1.6261426,-1.2776349,1.1464591,-0.42116046,-0.43560225,1.8855255,-0.7884498,-7.5767143,8.1622296,-67.407223,36.805834,-4.3405598,0.5981733,1.9986995,1.1424044,0.39086028,0.68879787,1.8757998,1.0674222,2.4142545,1.3754504,2.1949079,0.31780573,1.3608427,1.9330817,0.80440531,0.8901212,between -0.023711622 and -0.00016276260500000002
0.49903961,-0.69357682,1.504776,-0.62137389,-0.77699101,-0.85799435,-0.40082741,2.0100014,-1.0237101,-0.56344543,2.074575,0.41546324,-34.051247,-49.308192,27.210859,-17.099818,3.3655004,1.5844786,0.83149545,1.6941089,0.63859937,1.9395857,2.1166685,1.5975764,0.46639175,1.1461797,0.84145269,0.29535301,1.9980425,1.3495754,1.564275,1.0192018,between -0.00016276260500000002 and 0.02356751225
1.2319832,-0.2957457,0.97242088,0.9128137,-1.8785991,-0.60845908,-0.48768848,-1.7358386,0.16135999,2.3536457,1.9297229,2.1923936,44.243007,42.220202,-55.070019,-61.803326,21.492798,1.8167508,0.88022465,1.6857723,2.2748871,1.2775365,1.305819,1.8993308,0.55316458,1.5370831,0.75649263,1.1215502,0.89463371,0.85883417,2.1759456,1.1175856,between -0.023711622 and -0.00016276260500000002
0.98964658,-1.7429598,-1.7152426,2.3134223,-0.23256235,-2.1049261,-1.5885625,1.425431,-0.56646734,-1.5908076,1.3925462,-1.9127033,35.430724,-15.826556,-46.925727,19.310076,-55.549986,0.94575025,0.47441441,0.98297419,0.59715304,0.60112053,2.0328138,0.75212831,2.0204285,1.8422461,1.8806977,2.3866063,2.4413596,2.4300717,1.7154529,1.6173114,between -0.023711622 and -0.00016276260500000002
1.4713265,-2.0328397,-1.1170907,-0.78494508,2.1172574,1.4955701,0.16450521,-1.3332647,-0.76989406,0.61070552,0.54447215,-0.51589704,3.6333686,16.026631,-40.407023,-70.832497,68.217119,0.25181802,1.5554467,1.1430682,0.29723422,2.1156136,1.8674103,1.8153896,0.5028688,2.2159131,2.3514136,0.45844694,0.36774079,1.3695252,1.6092115,0.26711258,less than -0.023711622
-1.4073929,2.1408464,2.1162323,-1.5953991,-0.37948133,-2.0804217,0.27872903,0.48420092,-0.3308553,-0.065994223,-1.7534965,0.26428094,-64.075214,-62.125861,0.6469594,73.446583,66.716994,2.3128056,1.8236062,1.3491857,1.7638504,0.53396625,0.62083673,0.40294747,1.3381211,0.30049454,0.66171294,1.1593833,2.2550851,1.4653395,0.96159632,1.2994131,less than -0.023711622
0.53024522,0.70392406,-1.9570554,0.24482644,0.88245624,1.5538467,-0.55895406,2.1628051,-1.1025232,-0.99401456,-0.98373593,2.1231818,67.063149,30.338052,41.638971,-73.808732,-3.3598917,0.32951547,2.4164573,2.3972547,1.4100603,1.1335812,0.59900498,2.4767574,1.1114372,1.925111,1.8414034,1.2167381,0.96760725,1.0749894,1.3462201,1.4211326,greater than 0.02356751225
-0.89558234,-0.68205859,1.8837302,2.024721,1.3250581,-0.49884958,-0.82496343,-1.3119667,-0.95587793,-0.90639479,1.3763225,-1.2646401,-61.472397,33.428116,-73.647618,4.4785647,-28.763324,1.7471793,1.5926409,0.76478615,1.010797,2.4653634,0.86292276,1.1427669,1.9827555,0.92098609,0.51319397,0.25109633,0.67608682,1.9911239,2.0685604,0.79527023,between -0.023711622 and -0.00016276260500000002
-0.62583631,-0.37872528,1.2017443,0.41787102,1.6986263,1.1603939,-1.8379562,-0.82017266,-0.90405912,-1.7794842,1.741202,0.44617142,44.313336,24.241838,32.572806,-48.848751,-50.960218,1.5492267,2.3537437,1.3702604,0.46664743,0.943279,1.6901838,2.1699255,1.1875756,1.3323455,2.2313651,1.0539128,0.36220174,0.52469846,2.356955,1.3418909,between -0.023711622 and -0.00016276260500000002
1.9831363,-0.15475196,0.32247343,0.56359357,0.41525434,0.1315393,0.67061866,-0.94658966,-0.30728559,0.22934157,-0.1903618,0.30128277,-68.712659,-3.6631831,-67.118924,-67.7473,21.13284,1.0695825,0.47231742,1.7389375,0.32211518,1.789887,1.6307681,0.31919804,2.2615302,1.788874,0.35566202,0.86156968,0.90158397,0.67175661,1.2134148,1.3624123,greater than 0.02356751225
-0.085336038,-1.6765393,-2.2219489,1.3873766,0.7385244,-0.05303322,-0.68781427,-0.60424121,-0.28383047,-1.4010955,-0.40448423,1.8108885,-54.643381,58.689188,-10.815803,18.806779,35.540286,1.7588232,1.5414562,2.2536133,1.4784912,1.5011544,2.151722,1.2417938,1.3280253,1.6207158,2.3705059,1.8426115,1.2709657,1.1209785,0.28634888,1.4155488,less than -0.023711622
1.3114404,1.5360269,1.5369061,2.177066,-1.7514649,1.4231827,-0.65541115,2.070162,1.6455776,0.21155507,-2.2475549,-0.14582288,-12.821654,56.463707,-64.479632,40.818007,-71.752521,2.2056878,1.495509,1.7694778,0.61332998,2.4868994,0.5681044,0.63062702,0.69828557,1.5855279,0.46817358,1.8433473,2.3874353,0.62463692,1.2727652,2.1149514,between -0.00016276260500000002 and 0.02356751225
-0.092535906,-0.16260109,0.34912816,0.87276501,-1.1054232,2.1023527,0.74861925,-0.034816809,-0.8298783,0.90675254,-0.076055881,-1.2137788,-1.5167832,7.4254858,0.13982862,-49.900382,-25.726151,2.4336549,1.1882902,2.0935116,1.649633,2.3810108,0.64825279,2.1845993,0.31026881,0.6878572,1.8159137,0.31100325,1.7816988,1.2609421,1.4035318,1.6589075,between -0.00016276260500000002 and 0.02356751225
0.49084312,-1.792779,-0.2211593,1.0505758,-0.29474349,-1.0329659,-0.61623791,0.72048265,-1.6878232,1.3366489,1.0994239,0.74111695,35.282668,45.807122,-69.706699,-60.482941,13.212922,2.4185777,2.0345958,1.4522191,0.94577498,0.89011788,1.4612448,1.8905454,1.3968652,2.1142044,0.68352951,1.0805022,1.7508311,2.218766,0.80079383,0.94183199,greater than 0.02356751225
1.1585558,0.25636905,1.6711203,0.68114642,1.635101,-1.5103681,0.88250446,-2.3480846,1.9993757,-0.53760469,-1.8722966,1.6451218,62.904647,38.399172,74.886126,-38.884209,23.097216,1.2987129,1.7178481,1.3723473,1.7912472,1.9909725,1.7739945,2.2759402,0.97619946,1.4843394,0.79231851,2.4972606,1.4597002,0.68062337,1.7370434,2.2391819,between -0.023711622 and -0.00016276260500000002
-0.7776544,2.1294507,-0.91682494,0.43516792,0.23952729,1.3549081,1.6771644,-1.4093628,2.0187036,-0.84938262,-1.7474312,-1.4681885,-56.53767,21.384141,3.2556141,-32.894335,44.904349,2.235807,1.4584067,1.4416755,1.490772,0.90466429,0.69276664,1.0789413,0.26604504,2.1689402,0.37795454,2.0319737,2.3813644,2.0913667,1.6005505,0.95158671,greater than 0.02356751225
-1.9740956,1.3052737,1.5637507,0.964673,-2.0713466,2.0069531,-0.41971697,0.26325962,-0.3287912,1.6385235,-0.53711906,1.5772043,28.165939,-15.061896,54.71845,2.9923652,42.681464,2.0853884,2.372642,1.7443919,1.9947947,0.76469999,1.8127817,1.6726456,2.1552235,1.5919837,0.97040755,0.88972963,1.6859135,2.3983431,1.7033199,2.4482491,between -0.023711622 and -0.00016276260500000002
-1.3111109,-0.71067552,1.5825317,0.88758066,-1.8553572,-1.1110721,1.4081943,1.9033896,-2.1405329,-1.5596321,2.2838936,-1.7205694,73.886466,-40.166287,-74.78938,14.895774,3.2669702,1.4945276,1.025117,2.3908045,1.0018778,1.0596834,0.5985849,2.166349,1.8279663,0.37909525,0.95390369,0.25927605,0.9026257,2.4300803,1.8600431,1.7450629,less than -0.023711622
2.1934318,-0.011453247,0.7132182,-1.2592898,-1.5450032,-1.6047153,-1.4486375,1.6625678,-1.6901085,0.62707334,2.3198526,-0.54379584,-71.763088,27.773826,-5.2999583,23.600883,60.048233,1.8348188,0.79899669,2.2373568,0.50639303,0.69757397,0.87578111,1.2531739,1.3432161,0.43275097,0.49548589,1.8813055,1.3521137,1.4741292,2.4388613,0.94118585,less than -0.023711622
-0.90094788,-1.3251432,-0.93102276,2.1442141,2.1680122,1.5891539,-0.91161882,-1.6008864,1.642712,-0.82587919,2.1464536,2.1083629,-60.810207,62.851563,46.21773,-68.618163,-65.457678,0.66708788,1.4959901,0.85504858,1.5514787,1.9517602,1.983747,1.836175,1.0939057,2.0223868,1.0055999,0.61684878,0.87739677,1.4074312,1.9456597,0.70236168,less than -0.023711622
-0.34481715,0.89668705,0.39923098,-0.56681455,1.9983431,0.95580146,-0.37894132,2.2830616,-1.5679007,-0.027952411,1.4427207,-2.1470521,62.733482,11.626187,-48.667926,-11.826855,-23.954466,1.3342414,0.34476252,2.1736733,1.1764865,1.7090092,1.3178488,1.5854588,1.5565036,0.90656872,1.2005605,1.320893,0.99852432,0.94818495,0.89437868,1.0725293,less than -0.023711622
1.1440776,1.9650527,2.2180162,-1.5109512,0.50806516,0.20239294,-0.72675022,0.021275558,-0.563257,0.52900103,-1.35773,-1.9811482,18.525968,-34.047996,5.3241696,-66.682119,73.632031,1.8781585,2.4595653,2.4147173,2.4035447,1.3750894,0.62747213,1.6740899,1.6789817,0.64573234,0.32338172,0.57664483,2.4196007,1.2283112,1.9770707,2.1278813,greater than 0.02356751225
-0.18483111,-0.99218097,1.5590908,-1.9566001,-1.5275712,-0.79456973,0.57695393,-1.2317764,-0.94113514,1.8314669,0.13871995,-1.1663962,-2.6244299,-8.7939715,-50.278504,69.182573,-48.503806,2.0730444,1.9072014,2.3341408,0.40499853,2.0602175,2.32599,0.66430108,1.9083045,0.62389588,2.3180729,0.3515762,1.9411138,0.79915554,0.40723075,1.3272491,greater than 0.02356751225
-0.7018147,-0.29003674,-2.0373385,-1.3292038,1.5085575,1.6726476,-1.9244894,0.94535791,-1.5452907,-1.7250146,-1.7034333,-1.8405931,63.196687,-3.2827812,26.296126,58.997591,72.510686,0.43139509,2.4573565,1.2908845,0.64601717,0.61053114,0.44686502,1.4603237,2.1605173,0.56360321,1.4791632,1.5461314,2.0798813,2.064759,2.1551665,0.63391286,between -0.00016276260500000002 and 0.02356751225
1.2770444,-1.646736,-0.83094483,1.8311233,-0.9225585,-1.6809703,-1.2962864,-1.3106518,2.2928616,-1.7927969,-0.52299255,-1.3303972,9.5244968,28.217726,-44.676109,28.636539,-55.695947,2.3983064,1.0859192,0.54387142,0.59698513,2.2790316,1.1835162,0.60691263,0.38064611,2.2692176,0.48983744,1.4478182,1.229982,0.80715622,2.1245111,0.65782001,less than -0.023711622
1.284919,-1.2458305,-1.5285211,2.0912378,-2.276146,-0.012638163,-0.35209848,1.0414588,1.9861396,-1.5148772,0.49605536,0.98626894,-62.463965,18.147596,56.648575,42.60579,-24.482911,0.86065525,1.2827587,1.3260419,2.0354953,0.82007611,1.0192374,0.32217051,0.46980054,2.1876797,0.33237061,0.90290513,0.37648886,2.1482632,1.6087791,1.9995128,between -0.00016276260500000002 and 0.02356751225
-0.70686217,-0.29984569,-1.9626212,0.94771639,0.39455778,1.0013563,1.8544427,-0.12180068,-1.9271842,-1.9355004,-0.33431401,-1.6478887,-43.146171,-57.690298,-0.84028171,-22.614652,15.539747,1.7730365,1.9239857,0.92683373,2.0445673,0.29286201,0.63173513,1.3224069,1.6930741,1.2460042,2.3422306,1.3699172,1.448852,0.60532003,0.61368843,1.7615269,greater than 0.02356751225
-2.1262853,2.2811284,-1.0723623,1.6946745,0.71547612,-1.0095822,1.2651671,1.3636397,2.3455115,1.8771637,0.046535981,-0.12633591,62.384695,-0.42495673,57.752265,-7.6793252,-66.419325,1.2310306,0.43198326,1.0926537,1.2312968,0.40505265,0.71989795,0.32483482,2.4988144,0.57442584,1.1250102,0.5464376,0.9766915,0.75403335,0.28847105,1.0829314,greater than 0.02356751225
-1.6129431,1.6384433,-1.8849314,1.3488057,-1.9260792,-2.2123902,1.819446,0.73741697,0.18398831,0.96439144,-2.0911454,-0.884553,28.806367,-51.384251,-65.100602,-45.823841,-61.303003,1.8314615,0.62336507,2.3967457,1.8547606,0.71181039,1.6472127,2.2035094,0.88225875,2.1228265,1.5954851,1.3175863,1.6729479,0.48577962,0.7481125,2.026857,less than -0.023711622
1.8164856,-1.8944891,0.93440225,-1.8938675,1.9564332,-1.277516,-1.5667641,0.22605831,1.176482,-0.051025817,0.063885477,-0.70147363,23.232208,13.719162,27.952051,-9.8729545,-34.746584,0.8373942,1.834395,0.4264626,0.55692362,1.7153296,1.7953271,0.81198847,2.3401712,0.50814354,0.86845151,1.8145467,2.0858628,1.3458301,1.6156717,0.84503146,greater than 0.02356751225
-1.9819479,1.2789305,1.7796095,0.36362765,-0.47865336,-0.67895746,2.1680135,1.6109505,-2.1423403,1.0509889,1.9359544,-1.4599909,-20.944391,37.616502,-29.453057,-17.52206,-43.257045,1.8076151,0.33705559,0.89325687,2.468254,2.1956578,1.6703107,1.1626537,0.97041013,0.93313663,2.227371,1.4243614,0.74161412,0.80853962,0.62532563,1.5978538,greater than 0.02356751225
-1.1900686,-2.1042532,0.29559625,1.2281209,0.76415086,1.8235643,-0.7323801,-0.35224034,-1.3427805,-0.48027807,0.28872395,-1.1772124,60.854368,-70.641747,-25.848067,-28.454133,-28.606428,0.80155759,0.2783474,1.9347973,0.38839907,2.0732295,0.51785449,2.0803406,0.78514752,1.2243516,0.67663739,2.2445807,0.41737589,0.83653293,0.85894393,1.770611,between -0.023711622 and -0.00016276260500000002
-0.68936334,1.6349091,-0.022918466,1.2252327,-0.6543737,0.65711937,-1.6345254,1.76015,-1.5373007,0.61634237,1.0351955,0.39128842,-67.183189,52.136261,-45.85502,14.683226,30.97942,1.6915595,0.54097687,1.4481975,0.85544021,1.3836,1.9150377,1.2884115,1.8321501,0.94676318,1.7488337,2.3981616,0.9027323,1.9716889,1.674736,1.2876171,less than -0.023711622
-1.0107285,0.84766332,1.1255829,2.1420122,-1.8520726,2.2575974,-0.71730349,-1.4287609,1.1490389,0.52662256,1.0789362,0.40713528,10.624872,72.228427,-6.8196318,-17.552492,45.271723,0.35273407,1.1515903,1.7780094,2.2533111,0.89916774,0.56222723,0.85311078,0.48286279,1.2249857,2.3350899,0.60577693,1.542783,2.0544573,2.2631468,1.9586804,between -0.023711622 and -0.00016276260500000002
2.3164355,-1.4262072,1.6574967,-2.0969403,0.68157743,-0.54582639,1.3172763,0.65886848,-0.51161316,1.4274548,0.46003197,-1.2730696,-71.118715,57.754124,23.560802,-13.607283,52.386383,0.74396964,2.147802,0.60783838,2.4396873,1.3251043,2.0273102,0.50228568,1.41544,1.5504337,2.3887947,0.9731663,2.2560662,2.2051219,0.9845157,1.7553213,greater than 0.02356751225
0.31008535,-0.29781787,-0.86781851,-0.5818792,-1.4365613,1.9954822,-0.0032240173,-2.3497794,1.7895239,2.0618489,-1.4146556,-2.1141314,-25.250849,-41.013466,-63.323322,-25.071338,-23.976291,0.33204747,2.2218353,0.63609585,0.36295252,1.8929814,1.8389468,0.42954886,0.67772573,0.2863083,0.73352179,2.0507246,0.27807436,1.8457529,2.3184413,2.0422245,greater than 0.02356751225
1.2564091,0.25327511,1.5075851,-0.53218435,-0.30814848,-0.1360188,-0.55924943,1.9109148,1.8149289,0.21620507,0.50675834,1.8005839,-17.440449,-21.633396,7.5162774,26.074044,-73.54074,1.3867086,2.412116,1.4331685,0.26302532,0.91654192,2.3199771,0.85553125,0.6637804,2.1572243,1.4685858,1.5213432,1.7159531,1.0231078,2.3733454,2.3167155,less than -0.023711622
1.5149106,0.065124361,1.2708918,-1.3806878,-1.416434,0.98313296,1.8799631,-0.027804376,-0.78164615,1.0136694,1.4554864,0.34898824,-47.077466,19.023477,-72.4263,-18.817544,-66.457377,0.63794265,2.152198,2.4917304,0.76258053,2.1910425,0.60106755,1.1422395,2.1199088,2.057408,2.3557594,1.4976017,0.9423552,1.9139136,0.3956422,2.3084882,greater than 0.02356751225
-0.39394642,-0.15104281,1.4011219,0.84738691,1.1923066,2.0197462,-2.1763084,0.34805438,1.6752076,-1.3106997,1.4881573,-1.9011795,50.473884,64.567875,-57.728468,-42.355248,35.351713,1.468719,1.5109332,2.2536392,1.9143045,2.4657716,0.97298977,1.5390525,2.3548324,1.6677463,0.81172095,2.3440865,1.0611488,0.47856223,0.94540942,1.4960815,between -0.023711622 and -0.00016276260500000002
0.11313199,2.3165812,1.0229055,1.1785268,1.3290875,1.2501767,-0.82306757,2.2773186,0.8699097,-1.9706237,-1.6020176,1.4800184,-64.679394,-16.578183,70.470215,-7.1034454,12.393232,0.52063262,1.5224675,0.36074744,0.83217245,1.8223428,0.36574891,1.6419685,1.8139132,0.43864504,0.55712868,0.66170461,1.0193715,0.32693967,1.8750268,1.5753987,between -0.00016276260500000002 and 0.02356751225
0.19368932,-0.92438643,0.58378155,0.42273565,-1.3644441,-1.7274796,-0.72120215,-0.98012836,1.4945398,1.6965625,-0.53921866,-0.72393565,6.4276225,29.051883,24.999678,19.588457,-26.803612,0.80049952,0.49549422,2.0214054,0.2600592,0.56500178,2.4848728,0.25750276,0.34895653,0.66232779,2.493243,1.4351715,2.4267126,1.5092867,1.5820198,2.2563757,less than -0.023711622
1.3099284,-0.31429345,0.25800609,0.91045139,0.82951051,2.3364553,0.46655795,0.024146585,0.56619509,1.7275681,2.2091988,1.0913427,50.276714,50.730125,21.207958,42.143326,2.8852459,2.009922,0.75878207,1.3502273,1.2703956,0.53863225,0.29217784,0.38293015,2.4069777,0.5739989,0.69948963,1.5722942,0.79869553,1.6757308,2.2572893,0.26149756,less than -0.023711622
1.5383311,-2.1469245,-0.59689753,0.61933152,-0.56247958,-0.54203887,-0.99937371,-1.5196078,1.1007866,0.080659621,-1.5217831,2.2385751,0.58613961,-48.751593,-68.023491,29.191141,-34.498377,0.41176392,1.0161496,2.4269443,0.90226954,0.94417571,1.0112353,0.83164586,1.9719988,2.3837874,2.3140361,2.2540043,1.3005752,1.5172186,2.1425608,0.26897465,between -0.023711622 and -0.00016276260500000002
-1.0826271,-1.1798198,0.50156376,-0.6817203,-1.855415,-2.0821461,-0.42945748,1.4880707,1.3561844,-0.43507256,1.3632058,-0.23496487,-2.3128054,-21.321139,5.618102,73.440727,-31.694512,0.78001052,0.38685904,0.93989041,0.98817411,2.4922972,1.2887883,1.4146592,1.9267101,1.7162534,1.5714917,0.81051161,2.2685868,1.1380694,1.781937,0.76502216,greater than 0.02356751225
-0.76701989,1.7930079,-0.64307697,2.0257418,-0.36820562,-1.0651552,0.30310713,0.22907067,-0.030993228,2.1719982,-2.1032335,-1.4161079,55.732125,-60.167886,58.338703,-51.415194,14.83716,2.3973107,2.3505571,1.8124668,0.87947449,0.32777316,2.3835488,0.55527189,0.95469504,2.3094804,2.1865207,1.1039678,2.3867476,0.31641805,0.53821729,2.3180728,greater than 0.02356751225
-0.48463304,-2.2193418,-1.9190579,-2.0166345,-2.0737364,-0.45815311,-0.13571359,-0.14202207,2.2162856,-2.3232893,-0.66855206,-2.0191636,-69.077189,19.683172,65.068156,-49.498394,-19.507232,2.0042758,0.36414089,1.6159071,0.30043935,1.9842119,0.6489949,1.1572531,2.4528678,2.3494824,1.7509812,2.4906335,0.32765383,0.37798693,0.32629569,2.3016453,between -0.023711622 and -0.00016276260500000002
-1.8872012,0.90001497,-0.21697595,0.67426039,-1.0011805,1.0998646,-1.2778664,1.9683192,0.56969739,-0.67043488,-0.67691361,-1.1800841,24.582301,54.734252,-31.424881,-7.9774603,22.824455,2.2842056,0.39293507,1.8097633,0.44178356,1.5563546,0.65248666,1.3433241,2.2478327,1.0748898,1.9231224,2.1673967,1.4358707,0.67965549,1.2197725,2.4671173,between -0.00016276260500000002 and 0.02356751225
-1.6870641,-0.042162098,-1.7600371,-1.2780088,-0.42432897,-1.8524978,-0.17694126,-0.33436315,2.2386264,0.87965681,1.6277444,2.0828475,-61.126758,-7.4191693,-43.977869,63.958319,47.459864,0.74402501,0.82831424,2.2273908,1.7566671,1.3032142,0.87161869,1.0452646,1.2615625,0.58151338,0.99531848,1.0676827,2.2938183,2.2049708,0.69385905,1.4391164,between -0.023711622 and -0.00016276260500000002
0.31669567,-2.2954734,0.30633154,-2.1269188,1.0589079,-1.6279902,-1.5005288,1.3187352,1.6166342,-0.86325087,0.78836781,-1.1400252,5.419675,38.47765,43.867268,27.166674,-9.7111259,1.1516096,2.1022676,0.31118052,0.26107426,1.875168,1.6989076,0.29039115,1.8540024,1.4686068,1.8748153,0.27150121,1.6207808,1.2125662,0.59941781,0.41520353,between -0.023711622 and -0.00016276260500000002
2.0164381,-1.2256655,-1.9077728,-0.84318574,-1.2691123,-1.6971034,0.87296633,2.2782515,-2.2994381,-0.35459764,1.449602,0.40930855,-26.710842,20.882948,-20.288708,-42.3093,57.590134,0.88570054,1.4690557,0.41905769,2.1025729,0.94342,1.8098715,2.2602639,0.75604307,0.31591464,1.0774269,1.8137472,2.1487107,2.3808336,2.1709552,0.4936561,between -0.00016276260500000002 and 0.02356751225
-1.9212353,-0.91285009,1.2671138,1.0960622,0.78814101,-0.239535,-1.4845813,0.74093625,-1.9284828,-0.19907982,-0.13836588,-2.3075754,-14.596699,73.285993,67.691421,-60.288933,-26.101333,2.3485153,1.2473399,2.2916269,1.3733296,0.30099855,2.3825583,1.9068822,1.4698456,2.445014,0.84951586,0.81311797,1.0738047,1.6855258,0.38236246,1.8658901,greater than 0.02356751225
0.13792431,-0.40157837,-1.1865641,0.24712429,1.8033224,-1.6458406,0.079847111,-1.0404687,0.51724318,-1.0515047,-1.1814326,1.6695084,59.346763,-58.948545,1.8067438,65.942735,-50.453449,1.0581268,1.4376699,1.668821,0.87486185,1.5531696,1.1217938,0.48862704,1.3546563,1.4589991,2.3982201,1.8854386,1.0667504,2.3736094,2.2534569,1.0994885,between -0.00016276260500000002 and 0.02356751225
-0.29587449,-1.1921558,0.51544664,1.7406808,1.1120684,1.1996721,-1.4229585,-0.28900418,1.1798003,-0.82869731,1.9060893,0.82242226,32.276246,66.860679,-72.564172,63.969438,-65.657004,2.1660977,2.1037167,2.1669806,1.1925715,2.0498334,1.0504932,1.3898363,0.97838099,2.1493082,1.1735583,1.9939759,0.50374754,1.2348765,2.0689339,0.32194011,less than -0.023711622
0.86428653,-2.2315422,0.37458065,-0.17462867,0.83430579,-1.8922359,1.1045209,1.5828851,2.11486,-1.0976972,0.0064214815,-0.45910745,-64.875444,-11.591559,30.671571,-52.903662,48.156573,0.88780235,0.79406011,0.26828278,1.5286672,1.0604056,1.4862564,1.5114244,1.5094922,0.53587871,1.2634301,0.46887772,2.4277685,1.254949,1.9278425,0.4982245,greater than 0.02356751225
-1.4819388,-1.9700931,-2.1104332,0.10022753,2.2011721,-1.865999,-0.89589379,-1.2040646,-1.7149224,-1.7289945,2.0918887,-0.76134943,-59.3251,-26.948017,-65.327185,45.999882,20.013378,2.3476371,2.2361774,0.93439694,0.90944136,2.2308553,1.4850363,1.255253,0.28657347,0.6903906,1.6447473,1.2685955,1.7837416,1.8447877,1.8468842,1.0823804,between -0.00016276260500000002 and 0.02356751225
1.8158159,0.98637016,-0.26115822,-2.052068,0.86874804,2.0672017,-0.98422625,-1.4052811,-0.065898013,-0.13649053,0.93713162,1.567238,-53.668254,-52.339476,-69.568612,10.33999,-65.782671,1.9847456,0.61867735,2.3602927,1.1896544,0.27126537,2.1570789,1.2749566,0.69486686,0.37730278,2.3277548,1.0756164,0.63522851,1.5354906,0.99071477,2.4431811,between -0.00016276260500000002 and 0.02356751225
2.0962606,2.0315475,-1.7517756,0.91367931,-1.4675802,-0.97573275,-0.026749254,-1.8977607,-2.2158586,0.075091202,-0.86241263,0.73944507,40.857797,-3.0041379,59.454225,-52.834614,8.6361279,0.58601676,2.4336386,0.91416575,0.63382855,0.50651908,0.56615257,1.576187,0.97487876,1.7873024,0.94200035,0.44982694,1.7413033,1.8338081,1.8129481,2.2190602,greater than 0.02356751225
0.36159011,-1.7368384,2.2059142,-2.2757778,1.4646568,-1.0332918,-1.3825061,1.0106307,2.2205753,-0.91161884,-1.601329,-1.0831857,-36.378131,-7.2464967,8.1302471,-4.9367424,-21.828746,1.7389186,2.2547246,2.1564266,1.5625318,0.97174802,0.91898423,0.61803167,0.50829606,1.1818418,1.7151417,0.88605463,0.67016427,1.4508594,0.59472747,0.33453353,between -0.023711622 and -0.00016276260500000002
1.3765831,-1.5972382,1.697473,0.62623588,-2.3305947,-0.92769984,1.4439556,-0.24121976,-1.5259613,-2.0099801,1.3806803,1.2903382,9.5512566,27.969427,-17.835116,-54.797137,24.515192,1.027585,1.1218197,0.923736,1.7308726,2.0257879,1.9169669,2.2131944,1.6574541,1.080809,2.4071073,0.50299511,2.0887355,2.3781851,0.40713779,2.0148612,less than -0.023711622
