JessupByun/synth-gen2eval-research/LTM_data/LTM_real_data/pumadyn32nh/train/pumadyn32nh--train--128-seed2.csv
theta1,theta2,theta3,theta4,theta5,theta6,thetad1,thetad2,thetad3,thetad4,thetad5,thetad6,tau1,tau2,tau3,tau4,tau5,dm1,dm2,dm3,dm4,dm5,da1,da2,da3,da4,da5,db1,db2,db3,db4,db5,thetadd6
0.45726358,-0.67745462,-0.84806979,1.467636,1.914831,1.6605321,1.7955917,0.37005901,-0.77174145,-2.1640651,-1.2245258,-1.6026821,-8.3385894,-46.672824,69.844483,-23.773833,33.190092,1.0130747,2.4964638,1.567223,1.0662061,2.2264073,0.97742214,1.7838826,1.9647747,2.468543,0.30275146,0.34374357,0.79814118,1.3588452,2.1104699,0.91690113,less than -0.023711622
0.95580188,-0.37189707,-1.8463223,-0.057030857,-1.9026576,0.3048783,1.7227834,1.9026031,-1.2220693,1.9846729,2.1087819,0.42034678,28.561818,38.474667,-6.2641494,18.441612,48.17782,1.7442966,0.39375435,2.0793795,0.3820203,0.61515806,1.7114661,2.1112366,0.30326855,2.2845999,0.27017151,1.7726205,1.6833278,1.6910152,0.39208425,1.0100005,greater than 0.02356751225
-1.1529117,0.35628257,-1.405161,1.9534786,0.90048005,-1.8252168,1.234182,-1.0389455,-2.1565854,1.9656574,-1.754702,-1.1457984,66.873356,-9.5088778,-65.708388,-60.872219,70.618664,0.44340066,1.7348248,0.94996233,1.5169003,1.2939731,0.80533088,0.6960808,0.52994893,0.60169648,0.46280387,1.5946287,0.4239482,1.0473647,0.5589203,1.5235019,greater than 0.02356751225
1.3667,1.9423717,-1.9900019,-2.1372095,-2.2512604,-1.1628064,-1.0108957,-1.9621078,0.15299439,-1.587709,1.6336788,-1.8515222,66.32596,-59.591818,-9.693148,-12.738882,-52.397983,1.3314023,2.1276846,2.2449159,1.5511643,1.1687144,1.5833101,1.4421257,2.3073782,0.60496565,1.407614,0.51899859,1.0592721,0.43565467,2.0480734,0.71974059,greater than 0.02356751225
-1.0176035,-1.6028491,1.6427556,-0.093719634,-1.2079652,-1.2993719,-1.3335233,-0.40428751,0.40472439,2.2255043,1.8188632,0.36578062,-63.428463,7.8229213,-70.162012,-62.941666,-60.586137,0.30702757,2.4624414,1.2519254,0.61048335,1.893721,0.76962001,1.2534523,1.5224027,1.5220682,0.39969058,0.5996042,1.2977978,2.0881755,1.9652582,1.5943511,greater than 0.02356751225
-1.6881854,-0.037932783,-1.3637715,0.15302797,-1.0233206,1.2697502,-1.7184182,0.77821283,-2.1688519,-1.5654208,-0.75946724,1.4959118,38.028261,-9.0130399,17.838166,-43.944449,25.651362,1.7115767,1.7197782,2.31201,1.9527708,0.96963711,1.4408315,0.80448375,2.2083557,1.3344122,0.96626327,0.98679633,1.8359039,1.0363995,0.76683079,1.625142,greater than 0.02356751225
1.4147566,-0.89981856,-1.1943146,1.9307639,0.83895047,0.77264121,-1.5631431,-0.17812657,-1.4063184,1.3500214,-0.34380295,-0.90733001,-6.5148184,5.4479509,63.710053,74.862008,5.7607346,2.4350053,1.3848863,1.0337314,0.9236837,0.8519909,1.9110239,1.3282977,1.7000047,0.72861079,0.51158234,2.414318,2.4424526,0.5506011,1.2027032,1.3325909,less than -0.023711622
0.3509989,-0.67244059,-1.4001413,1.4956378,1.30099,0.25453535,-0.87355041,2.042401,1.5926057,0.55535479,-1.3945321,1.522547,37.404855,13.405765,10.694797,47.446992,41.600849,1.9071365,1.242873,1.4663932,0.67101859,2.3095078,0.39774433,1.6388986,1.9695952,2.4859926,1.0770525,2.2708415,0.78285626,0.96524555,1.8819552,1.0212899,less than -0.023711622
-0.12869939,-0.064174556,0.55532087,-1.9647845,2.2893457,0.376397,2.0783142,1.9993431,-1.0867981,-0.5961969,-1.7423922,-1.6010349,-27.140674,-3.300416,29.908783,26.922383,-65.502703,0.56604279,1.9811165,0.37555511,2.2047923,2.1940743,2.0572234,1.5036468,1.2920132,1.6165141,1.501736,0.67724266,1.1674207,2.339009,1.2240072,1.6388201,greater than 0.02356751225
-0.59720971,0.085007314,0.86405936,-1.3372111,-1.1238635,-1.5194263,-0.56177358,1.8989477,-1.3968407,0.41963669,-1.6123997,1.3474774,-21.899505,35.025647,-73.950739,9.9348007,24.196034,1.5662558,0.56101523,0.73291862,0.91324413,0.89416809,2.0331243,1.4698611,0.45513899,1.0209804,0.36721177,1.4782394,1.7701957,1.4288384,1.7377992,1.4407571,between -0.023711622 and -0.00016276260500000002
-0.71082778,-0.97637548,-1.404312,2.0838708,1.1409633,1.4589308,1.6902718,2.1166072,-0.007608984,-0.6496918,-0.7648925,-0.15110765,9.9122341,-55.080777,57.384065,-46.026674,-20.30862,2.4702572,2.1134833,2.063661,1.7010104,1.8825118,1.3763702,1.9035408,1.5596394,1.8598343,0.48568172,1.352591,0.49651767,1.2224463,2.4042806,2.4936897,between -0.023711622 and -0.00016276260500000002
1.7123886,1.5548989,-1.7227925,-2.0558432,-1.3203104,0.1824901,-0.65405869,1.2390199,0.16101614,1.2870564,1.6910993,1.8872631,4.4747849,57.710428,39.162485,3.8893991,-30.869239,1.8353813,1.2538514,1.480959,2.4783131,0.25833513,0.83846049,1.7553758,2.1002775,0.61359491,2.4397357,2.1372818,1.5455058,0.56679381,1.1035553,2.2041125,between -0.00016276260500000002 and 0.02356751225
-1.672475,0.11363113,1.2808057,0.30835008,-1.1880485,-1.1387549,-2.0421044,-1.3205047,1.6293339,0.52226876,-1.4095459,-1.0577532,69.542949,8.344104,-10.644572,46.680934,66.461129,0.80799538,0.47833482,1.6233394,1.4649395,0.98749095,2.2604676,1.9288215,1.2035278,1.6923317,2.268455,1.1727451,1.827163,0.37812696,0.42978275,2.3587623,less than -0.023711622
1.7732249,1.4425739,0.097857437,0.066186826,0.27818071,0.69329117,-1.593247,-1.9089819,-2.3143398,-1.0503947,-1.3749347,1.0285343,48.818424,-8.7536025,28.203143,10.227833,-0.81340451,1.061657,2.2695103,0.90976121,0.85661421,0.86499606,2.2388503,0.85722626,2.151698,0.83799421,0.66873047,2.1030185,1.6816118,2.100189,1.3764869,1.6157661,between -0.023711622 and -0.00016276260500000002
-1.1407802,1.6185587,-1.5055752,1.3258177,-1.869768,1.7305188,-0.034592748,-1.7764696,0.57186159,-1.9957259,0.61943626,1.1978825,47.271246,-62.165999,-73.953591,-38.009537,23.705869,1.7431993,2.2003928,0.25147282,0.25361245,2.4643841,2.4042913,0.42312875,0.77493099,0.51507983,0.44678245,2.3225852,1.9389593,0.58919421,1.8370336,2.0238542,less than -0.023711622
1.0927053,0.91766763,-0.40925932,1.6665319,-1.0389896,1.8145345,-1.7005995,-1.3370467,1.6392163,1.6828772,0.35777151,0.057504279,13.836131,43.849528,29.01605,22.749998,9.2148263,2.4787944,1.5980617,1.8731747,1.9466626,1.8091402,1.218546,2.1026837,0.55483192,0.31009679,2.2966868,0.91544455,1.8765099,1.7518644,1.5847007,2.3146736,between -0.00016276260500000002 and 0.02356751225
-1.1044055,0.35775073,-0.29175781,2.0234393,-1.3669274,-1.0523188,-0.7260455,-2.2716653,-0.10339098,1.1793686,1.3404282,-1.3555294,64.241602,8.613211,12.238094,35.639124,36.753872,1.7098173,1.3999433,2.0974072,1.8728859,1.5937248,0.98227283,2.3094846,2.2574687,1.0269018,0.8878946,2.3445265,1.7064162,0.48783666,1.5707407,1.6881257,between -0.023711622 and -0.00016276260500000002
-2.1964415,1.263665,-0.3192782,1.3023269,-0.83823984,1.7460534,1.8730981,-2.3103243,0.46417968,-2.2482201,-1.8995708,0.34877187,-12.828294,-55.132492,-61.800766,64.528828,36.016383,0.28511394,0.9099412,1.6317388,0.8833626,0.42513703,0.77805609,1.2887831,1.3275458,0.3124747,1.7623134,1.7015358,1.7115838,1.8386236,1.7462074,1.0084897,less than -0.023711622
-1.40444,-0.066838705,-1.8095368,0.87288019,0.83052883,0.6018112,1.8540169,2.145723,-0.74587413,-0.95177252,2.1198907,-1.3706172,-57.476507,-7.6504553,-31.202432,-19.269994,-20.783932,1.891913,1.8816204,2.1442458,1.5899382,0.34068962,1.2205165,1.4707459,1.8262541,0.85259596,0.83027156,1.3740861,1.764636,2.4880764,2.3508845,0.5657877,greater than 0.02356751225
2.0559229,-2.052085,0.58306861,-2.1348683,-0.60170148,-0.010045827,0.80579501,-0.40913662,-0.98362492,-0.72343954,-0.88474146,-2.2624264,-10.632447,-49.542715,-14.418319,71.314482,-67.495268,2.2304732,1.812614,1.103427,2.2974097,1.81502,1.040561,0.9590854,1.8483348,0.71316806,1.9655773,2.4572905,2.4306162,1.8665467,0.80051125,0.69252503,less than -0.023711622
1.6936882,-1.7245453,1.4715999,-2.1495002,-1.4762665,-0.88296878,-0.74345028,2.0867579,-2.1718579,-0.25117535,0.79635777,1.2003729,29.595565,12.659889,74.751877,-45.206509,-35.803099,2.2347841,2.2657126,2.3325052,2.1651602,2.0976095,0.7724729,1.9519872,1.2997066,0.41918897,2.0589869,1.8924222,1.4401074,2.1347809,2.2619979,0.64920385,between -0.00016276260500000002 and 0.02356751225
-1.3013272,-1.2087854,-0.94795208,0.35649101,2.0980447,-0.96875698,-0.59457559,1.9450762,1.0531324,0.26276589,0.79789574,-1.2252841,-6.6987181,64.644115,23.648535,-39.068835,70.091289,2.4893077,0.54501791,1.8659954,0.5345518,1.462093,0.39734141,1.6171072,2.4709065,1.775246,0.80979278,1.4371771,2.3852685,2.458171,1.4793746,0.59842646,between -0.00016276260500000002 and 0.02356751225
0.71537077,1.9322287,1.8959996,0.89094971,-1.7803424,1.4552462,1.0238042,2.1453408,2.2552106,1.5801373,-1.6565613,-1.031691,62.402139,-7.2483816,-23.550113,43.250633,13.38754,1.4408834,1.6772198,0.28307158,0.33400217,1.3244369,2.0601664,1.4674295,2.337404,1.2488544,0.74577375,0.96936157,1.3098768,0.34967043,1.4108504,0.91221407,between -0.023711622 and -0.00016276260500000002
-0.89031582,-1.7029294,1.9163469,-1.1357779,0.86851053,-1.9245283,0.29083264,1.2768357,-0.44160958,-0.11955812,-1.935606,-2.1081745,11.596625,54.476587,-11.999566,73.287046,-64.612376,2.2720576,0.97139024,1.6557147,1.0973476,1.37087,1.7120555,0.76616821,1.7391068,0.91848742,1.2680568,1.7303972,0.78567728,1.1281047,0.80534968,1.0121331,less than -0.023711622
0.098122467,-0.19183815,-0.94968612,-0.5130863,0.23036888,-1.7740524,-1.2133036,-1.4857604,-0.22553962,-1.8836856,-1.2754118,0.81079312,-39.121469,-64.531055,-73.444428,-30.505166,-0.32841327,1.8303728,0.32524526,0.39711132,2.2499221,2.4401847,0.6844297,0.45998143,1.4079089,0.97472213,1.4047955,0.39831381,2.2101335,1.9629915,1.747955,1.1299379,between -0.00016276260500000002 and 0.02356751225
1.1209685,-0.013908501,1.8592743,0.9717965,-0.15635103,1.7212556,-0.21241147,1.9913251,0.81514578,1.2403036,-1.8258626,-0.19593604,27.466387,-72.432906,20.152104,-3.5964278,4.8384594,1.6747996,2.3572255,1.3882503,1.3231897,1.3498856,2.2774293,1.2543062,2.3735671,1.5420751,1.4064664,1.4799489,1.2512453,0.42965038,2.3839818,1.0827681,between -0.00016276260500000002 and 0.02356751225
1.943078,0.45607422,-1.8173814,0.97698481,2.2205107,-1.9971711,-0.10870904,1.3340178,-0.70923296,2.2658299,0.98729858,1.205687,22.559808,-37.30017,-53.956561,52.072784,-62.722198,1.7952537,1.8291064,1.5410584,2.3184421,2.0571572,0.39121256,2.1094599,1.9427212,0.81597202,1.7916923,0.47289537,2.4525437,1.4023001,1.2071668,2.1028658,greater than 0.02356751225
-0.97463361,-0.40306993,2.0190132,-0.35809842,-0.83944682,0.30993618,1.9075553,1.8998296,-0.71091162,2.3269051,0.17777083,0.13979775,-60.520571,-19.236761,-62.241785,2.3259429,-57.87781,1.339795,1.4339715,0.25913344,0.75569641,1.2395858,2.4683504,1.5650471,0.49597549,1.110093,1.833132,1.6996822,2.0579305,2.1376031,2.4450726,1.8347051,between -0.023711622 and -0.00016276260500000002
1.2591911,-0.11482158,2.2731424,1.3660511,0.46183743,0.7970178,-1.8437212,1.2476486,-0.9009409,-1.2078988,-0.18350353,-2.2415156,-73.674621,0.6414988,-18.329728,32.267444,68.929387,2.0680386,1.0244676,0.47615388,0.9683022,1.5051528,1.8539295,2.4934376,2.4561927,1.9808448,0.30919149,0.58134452,0.40729307,2.374564,0.29726536,0.38885723,less than -0.023711622
-0.19834459,-1.918441,-1.0726066,2.3011133,0.23502931,1.1556664,-1.1814442,1.4741872,-1.076691,-0.37122619,0.0044592958,-0.45083945,8.3689315,-43.367999,-35.953084,-63.476729,-53.379079,1.4924143,1.5063043,0.95556276,1.1433873,1.1601559,1.7407163,0.96937795,1.5851635,1.092715,2.2613546,1.0866169,1.019872,1.9886353,0.7428074,0.61403542,greater than 0.02356751225
-1.3651684,0.2360411,-0.68873519,-1.9449906,0.38455873,-2.1191767,-0.76646502,1.6938965,1.7770745,0.16983767,-1.2460858,-1.1081095,-20.21744,-44.516747,7.0298459,-49.380633,9.6982029,0.59043529,2.4459375,0.62200012,1.9559962,1.1788175,0.38522711,0.51205455,1.3508082,2.0330438,2.3674821,0.52130787,1.6214171,0.6563782,1.4983409,2.1154564,greater than 0.02356751225
1.4053399,1.0537528,1.2658401,-1.4623038,-1.8321516,-2.2231051,0.80457273,-2.1024981,1.5197834,1.8509391,2.2535575,2.0701005,19.442695,73.375717,-74.32062,-56.654393,9.6213352,1.4617013,0.56351197,2.1957075,0.25538043,0.67887966,1.6804857,1.1728878,1.9752193,0.26006299,0.6286419,1.0843971,1.9621802,1.6125043,1.6091188,0.95986663,between -0.00016276260500000002 and 0.02356751225
0.44791432,-2.3016315,0.48135766,-0.99361653,0.99347958,1.4170989,0.76740633,-0.010449805,-1.2714784,0.94716531,0.55732562,-1.2575262,-5.6780754,-31.414086,23.460867,-43.209911,71.017886,2.0890732,1.3031618,2.2398138,1.3011367,1.9543055,2.0124994,1.327912,1.9672,0.47986485,0.33845651,1.938517,2.1558378,0.66622873,0.55632117,0.58996441,greater than 0.02356751225
1.7003242,1.4222478,-2.2306862,0.62365556,1.4258606,1.9409848,-1.7371522,1.6445563,1.8971476,1.3353396,-2.0557118,0.88723251,54.685905,56.005461,33.783691,52.489684,44.126805,1.9631737,0.31071071,1.3648742,2.1911101,1.7382253,1.8526656,1.5009144,0.36893872,1.2530127,0.88419663,0.94276309,2.0192613,2.4746416,1.5505558,2.1913736,between -0.023711622 and -0.00016276260500000002
-0.95764312,-2.2995702,2.1382621,1.0932123,0.013962584,-0.95030773,-1.5357442,-1.4987775,-2.2341927,-1.7605091,0.21457355,1.3601459,5.4917,49.001749,72.403841,-58.636115,2.8188038,1.0095391,1.5734776,0.43720205,1.0548715,0.72514447,0.75311874,0.6665994,2.2861326,1.2810553,1.9462987,2.4426976,2.4180853,0.50919647,0.56501897,0.52382433,greater than 0.02356751225
1.4431718,0.72245985,-1.4437153,-0.43149401,0.24677707,0.67993655,0.15037475,1.5079513,0.90893044,-1.1710995,0.97986359,-1.232126,-66.969529,43.119052,51.900944,49.172626,-55.677479,0.30407261,2.2984054,0.54914945,1.554764,0.91875779,1.3121974,1.1022955,1.2811462,1.2237145,1.2191605,1.1806795,2.4302305,2.1341822,1.2007659,0.27219857,less than -0.023711622
2.1067408,-0.89773289,0.87288979,0.99173522,0.37407074,0.67998791,1.0134615,-2.0389785,-0.61906164,0.38581387,0.12640244,-0.84157047,73.746768,11.934675,36.074353,1.6452469,51.665133,1.1634357,0.61322225,0.67634322,1.8004265,1.0175878,1.8474413,1.4464414,0.59052885,1.7683099,1.2344026,0.85446248,0.70087181,2.3025939,1.1953022,0.69351798,between -0.023711622 and -0.00016276260500000002
-2.2476117,-1.0998948,0.77038527,-1.779658,-1.1786955,0.5487833,1.2556572,1.7530923,-2.3458325,2.1516809,0.42861485,-1.5129835,-21.112394,63.994347,52.996619,14.179651,-32.600303,1.9256597,2.0625823,1.5708308,0.95361989,2.2394366,1.7111084,0.59942865,0.5972664,0.25646774,0.95329731,1.3179287,0.67700809,1.7249204,0.98726746,0.75427406,between -0.023711622 and -0.00016276260500000002
-1.2604923,1.8071326,1.1310256,-0.63070736,-2.1358098,-2.2882093,-0.12751272,1.0306837,-0.040634831,0.34678986,-0.72803739,1.9497719,-4.3717072,24.717845,-67.185358,15.680251,-12.025969,0.31797864,2.0169986,0.44553068,1.5341893,1.6202957,2.0593755,1.6747796,2.020359,0.67300417,1.9311092,1.4015823,0.39361299,1.9535286,2.4556737,2.2574993,between -0.023711622 and -0.00016276260500000002
2.3136928,-0.39849572,-1.2128918,0.72280899,-0.28816924,1.0754456,-1.7098641,-1.5384692,-0.17332649,-0.84192518,1.0675627,-2.2512858,-50.612378,7.7615122,-52.263676,4.4007324,13.109926,1.2027917,0.57008627,2.4399089,0.549601,2.393963,2.3357691,0.77070867,1.5506212,1.0401958,1.5708601,1.4453252,2.0811678,1.1877846,0.34660447,1.6312995,between -0.00016276260500000002 and 0.02356751225
-0.019590715,0.60607527,-1.8779868,0.25682806,-0.039096152,-2.0669546,0.42529005,-0.84429508,-1.0642509,1.3643363,-0.085400851,1.9465355,64.25658,-39.657883,69.963488,26.343269,-48.672916,2.1894809,1.3558567,1.3840799,0.98078036,1.9755739,1.7209271,1.3722966,0.93858575,1.5606832,1.402056,1.605355,0.70079331,0.98312672,0.91075464,1.8032358,less than -0.023711622
-0.78454449,-0.57487609,-1.5450361,-2.1578919,-1.1436723,0.13468119,1.6400014,0.74114169,1.5242329,1.2365513,1.0823938,1.9715113,-74.111891,1.4518429,-48.876464,-66.729367,29.536909,0.27746277,0.5666934,1.6659475,2.0793174,1.5876461,2.3180949,0.72045646,0.71168232,1.7448066,2.2138987,2.24545,1.5282075,2.3330438,2.2169021,0.97435777,between -0.00016276260500000002 and 0.02356751225
-2.1682562,-0.97729358,2.0147932,-0.59762026,-2.1027243,-2.2831534,0.024951528,-0.042284604,0.89340208,1.7374552,-1.2646525,-2.1395525,24.883333,14.18262,17.289279,30.918055,39.745419,2.1438076,0.97451857,2.4836547,2.2849828,2.2056423,0.73082379,1.705465,0.25081826,0.50244715,1.879214,2.1996278,0.89525256,2.2597854,1.7137208,1.7555832,greater than 0.02356751225
-1.9668693,0.2362666,-1.6110957,-0.29913816,0.50392378,1.2839079,0.61136883,2.2679778,-0.61238632,-0.51928204,-0.22891954,-2.1412609,10.906235,1.0921315,55.45403,65.874303,-0.58223979,0.83943805,2.4353745,0.83891767,0.43934814,1.1241343,1.5747553,1.6618338,0.44119289,0.62891829,1.2297386,1.2163326,0.90149312,1.394922,0.95363262,2.4535132,less than -0.023711622
-1.8404792,-0.81237166,-1.7395857,-1.5550698,-1.1485697,-2.0651216,-1.7538613,-1.1533407,-2.1416543,-1.556878,1.4478152,-1.346111,2.9191774,12.614529,62.388769,68.042469,-10.215722,2.1904125,1.2629467,1.3453764,0.74172957,0.49889417,0.66433547,2.4862604,1.0778213,1.6932024,1.1525309,1.8364868,1.8329281,0.5227655,1.3697118,2.4963842,less than -0.023711622
-1.1767251,0.67760159,-1.3942949,0.79565518,-1.1832639,-0.83451955,-1.7004429,1.2961755,-0.5520547,0.3106016,-1.0459593,-2.2269829,51.033949,27.5758,-33.525706,-66.532414,39.722484,0.86178383,2.2508608,2.4666836,0.55064439,1.9302327,2.4209544,1.4810635,1.9838049,0.55902013,0.95135411,2.4085543,2.3222734,1.1991444,2.2706145,1.4678828,between -0.023711622 and -0.00016276260500000002
0.81399053,0.67369043,-1.1557359,0.013758162,0.3263676,0.039465788,-1.145347,0.26177321,-1.7488959,2.1894379,-1.1624558,0.17050381,16.709971,44.487768,-44.091023,-37.827106,-60.176229,2.3967516,1.9547464,0.42282281,2.3830064,0.43826977,1.0001003,0.43591146,1.8639795,0.40377665,1.7741807,0.90487171,1.9289035,0.33071838,2.3838357,0.87579099,greater than 0.02356751225
-0.29956344,-1.9312418,0.55405343,0.29541861,-1.7574245,0.21992659,1.7932306,-1.6127926,-0.54373181,-1.1782825,-1.9351206,1.3363106,4.0258322,12.161472,-52.14298,-67.058357,50.185896,1.7403351,1.312716,0.81755838,1.4537688,2.2426871,2.3424549,0.63942341,2.2893244,0.92501136,0.66586578,1.2060968,2.1186852,1.7415585,1.6243216,2.2226306,between -0.023711622 and -0.00016276260500000002
-1.7661948,-1.0971555,-0.31375403,-0.10063619,0.355129,-1.9436709,-0.99647755,0.032241249,-0.046060736,-1.3109988,1.1735326,2.2142673,46.298413,-62.569379,46.442298,-44.295237,-20.053561,1.521891,1.9220056,1.3975405,2.2131716,1.2751203,1.1967826,0.82590746,2.2767504,1.0936535,2.2840146,1.6835465,0.86571273,0.78379109,0.9268188,1.7935639,between -0.023711622 and -0.00016276260500000002
-1.9006043,1.8283108,-1.0689134,-1.601157,1.8070227,-0.71729745,-1.3271541,-1.7415107,-0.92167059,-0.89502021,-0.65909423,1.4296955,13.416078,34.024614,51.68722,57.110971,14.082461,1.1338266,2.4744486,0.5571812,1.544478,1.2913007,0.89035533,0.95199457,1.9227508,0.42340971,0.9969611,1.6751338,1.2234222,0.80636852,2.3856929,0.59056628,between -0.00016276260500000002 and 0.02356751225
-0.24604445,2.2085259,-0.79296357,-0.70262922,0.15745784,-1.9686776,-1.881139,-0.88471475,-1.8135121,0.033336836,-0.48209158,-1.9166057,47.736549,-41.81287,1.0918293,50.374325,41.272909,2.4817508,1.7864162,1.7967428,2.1070194,1.4247258,2.366967,0.86477215,0.72547217,1.760842,1.7209739,2.1588702,2.1309075,2.4123797,1.3662647,0.81101659,less than -0.023711622
2.2306028,-2.0250559,-2.2405095,0.45746677,-1.974857,-2.0662548,-1.9497477,0.54336302,-0.30760573,-0.43874964,0.82357169,1.4829407,-1.2795664,-55.672921,5.2148216,45.507155,-11.239333,0.6329594,1.6486106,0.94900558,1.1868166,2.0769563,2.4046317,1.6444179,2.4824684,0.34584943,2.4414346,1.4410407,2.070803,2.4856128,1.4441279,2.2073478,greater than 0.02356751225
1.9923732,-0.41920895,-0.62333269,-0.71181578,1.2677782,-1.8750078,-1.5102041,-1.0738489,0.27121367,1.408051,-0.50434288,1.0970614,-40.322757,-4.5832818,68.783492,-5.8415705,70.724971,2.4937632,1.1786797,0.3192127,0.25786718,1.9736403,0.72207944,0.9891345,0.63357333,0.71688609,1.4544713,0.5490919,0.58757152,1.5644768,2.1619739,0.29567978,between -0.023711622 and -0.00016276260500000002
1.9461152,-0.33328229,1.5550141,0.21197931,0.17012911,-1.0601755,-0.82633481,-0.79884853,-0.65104968,-0.024809319,-2.280001,1.1701455,58.471608,-67.677447,-4.8577693,-44.528957,-48.17286,2.2560539,1.9977016,2.371401,1.1363685,2.44465,1.4818406,1.5454556,1.9724792,1.4583171,2.1852501,2.2486568,1.4255442,0.37138642,1.8915088,1.8376412,greater than 0.02356751225
2.1684356,-0.71927075,-1.5057985,2.2865712,0.87084764,-0.34382599,-1.2945425,-0.2764751,-0.30139523,0.26859968,-0.11378318,0.87606911,-67.546822,-59.440275,-12.695972,68.805074,56.885992,1.1179206,0.64166786,1.7616807,2.3177715,2.0363402,1.5202053,0.59012427,1.7185372,1.7052369,0.91578775,0.89472796,2.4428639,0.71388351,0.49017927,0.44305606,less than -0.023711622
-1.3031567,1.0288959,-1.8147899,2.1202366,-0.26917544,-0.13821154,0.28640555,2.2689208,1.0994218,0.70523183,1.1731489,0.47784715,40.306547,32.138759,6.1196769,-46.589893,-36.332371,1.5525626,2.1693525,0.55819474,0.5789522,0.69966144,2.2098723,2.0733199,2.0373813,1.0167131,0.64757697,2.0760526,0.71642534,0.46066241,1.6030759,0.64592032,greater than 0.02356751225
-0.20300628,-0.15694049,1.2390504,0.67262794,-0.16343051,0.5461277,-0.96547563,-1.9935795,-1.0057702,-0.64088791,1.1181638,-0.028524865,39.669962,-16.953731,58.650934,-53.753602,13.203261,2.2330135,1.7578101,0.2648533,2.3893829,1.859027,0.41719925,2.3677406,0.36669201,1.7425322,2.237986,2.0798629,1.7556977,0.76079721,1.4686407,2.4443715,greater than 0.02356751225
0.26122159,-1.5953483,0.47508592,1.9820773,0.89567774,2.285308,-1.5105638,2.3057813,-1.4198485,0.14342964,-2.1212746,1.6725184,19.642587,-17.039839,-38.57779,73.076328,-6.1610784,0.63634017,2.2192019,1.3769798,0.89993493,2.2062899,0.36502791,0.77416028,1.0617441,1.4834268,1.20438,0.2654268,0.77818475,1.2010328,0.25880954,2.0618774,less than -0.023711622
1.196475,1.3921981,1.6627645,1.6163745,-0.51652734,-1.05445,1.1539711,-1.400922,-2.2002582,-1.6227374,1.9594143,1.7011443,33.984552,-21.637241,-57.108793,22.51912,28.852033,0.86670607,1.7288983,0.34361011,0.80509984,1.3129944,0.9973261,1.0597668,2.000587,1.3655259,1.893075,1.1610903,1.694471,2.2247363,2.1428463,0.56744686,less than -0.023711622
0.88838335,2.2107491,-1.1263798,-1.3983272,-1.0010581,-1.5544229,0.2995094,1.0230129,-1.7301282,1.8879991,-1.6267717,0.12884433,-70.418681,-26.771052,58.929881,-15.487624,-50.491513,0.46209809,0.98256079,0.39919786,1.3183585,1.15187,1.9790491,1.6290172,2.3923333,1.9463568,1.1681136,0.48569713,1.6117123,1.7982609,0.62015748,2.4868359,between -0.023711622 and -0.00016276260500000002
1.7393411,2.1566772,-0.42256073,-0.4080211,-1.0846666,2.2416707,0.21020009,-1.4588996,-1.1660467,1.0789612,0.82779878,1.8418092,-12.625829,47.691076,-56.086003,-37.456388,20.48282,1.4462516,1.9013205,2.494446,1.4047334,1.6042918,0.83227073,1.2242213,0.73765669,1.7960015,0.89799519,1.1051849,0.34201041,0.91890938,1.6099859,2.0323099,between -0.00016276260500000002 and 0.02356751225
-1.4355765,-0.30292328,-1.8514306,-1.0903584,0.82656457,-0.051963088,-1.5516635,-0.44805484,-0.060110503,-1.8259876,-2.295713,0.99280189,-17.444984,52.160464,60.919349,-28.508701,-45.740292,1.2686975,1.249718,1.7611804,0.65850604,1.2610428,0.84702114,1.6343504,2.0264335,1.5171498,0.98712453,0.60204437,1.8096652,1.0430924,0.75321109,2.218721,greater than 0.02356751225
-0.86727782,-0.91927808,1.6167034,0.29986196,2.23613,1.3341961,2.2871186,0.64505035,-1.8458066,-0.81442939,1.3752402,-0.60570108,-40.036602,4.8313713,50.85717,56.462586,66.691297,0.33445604,2.2027461,1.5543895,1.3746371,2.0251014,1.6289812,1.7867132,2.2892347,1.6670715,0.72118863,1.7673468,0.79850441,0.71366557,1.3273152,0.93648489,between -0.00016276260500000002 and 0.02356751225
0.50236198,-1.4032768,0.63332022,-1.0738124,0.88406353,0.29322028,-1.0055577,-1.781067,-1.2988961,1.9520789,0.9375027,-1.620796,50.981339,43.361993,-64.984775,-49.107622,-51.802069,0.8143517,1.5590559,1.052388,1.7345326,0.5385967,1.9446756,2.1633788,1.407556,1.7943397,2.2179412,0.43795378,2.4392318,0.41863765,1.7930098,2.3660302,between -0.00016276260500000002 and 0.02356751225
0.58095086,-0.028808688,1.1884456,-1.6120192,-1.68219,1.7668138,2.0770684,-0.088496452,1.7550446,2.192472,-2.0055478,0.47722005,4.8159241,-58.764238,-50.545261,-64.200016,-59.668347,2.186274,1.4576043,1.455816,0.65035106,1.450225,1.1822953,0.33637201,0.65434833,1.1323579,0.28951252,0.58688802,1.326889,0.52307955,2.1479326,0.55377477,between -0.023711622 and -0.00016276260500000002
-0.057514002,-0.59809412,-0.64215465,-1.3224046,-2.0282179,1.1636719,1.4197018,2.1025125,-1.2769227,-1.0199803,0.8615515,-1.075227,21.396059,53.560578,42.640286,-44.721521,15.40353,1.1819182,0.74914364,1.3571152,2.2849289,1.3001529,1.1704645,1.7476017,1.9418426,1.7981885,1.6534936,2.0169045,1.1143889,2.0336952,2.0660659,1.6198484,less than -0.023711622
-0.41766467,1.769395,-1.665409,1.0616465,1.9881626,-0.5019501,-1.0989938,1.7761086,-1.9262325,-0.077717696,-0.86956889,-1.7261454,-59.194049,-74.381134,-23.724731,-41.560358,45.057956,0.46092668,1.544695,0.43856288,1.4263458,0.34435588,2.0891926,1.0601148,1.0996319,1.5130324,1.5362228,2.0458334,1.3221183,1.3415978,2.4838188,0.54246312,between -0.023711622 and -0.00016276260500000002
1.6759533,1.797536,0.061801793,1.9771619,-1.607286,-2.2424428,0.95038663,-1.8505921,-1.1346342,1.2415728,0.65542231,-1.8826596,58.336877,67.884699,38.132501,-57.063063,41.097148,0.92140928,0.87569074,1.9843163,2.4033245,2.1745766,0.6083711,2.3931164,1.6070423,2.0607439,2.1724072,2.3971774,2.3612665,1.806101,1.8901814,2.0287146,between -0.00016276260500000002 and 0.02356751225
-0.60133414,1.4515379,-0.040792592,-2.3046884,0.9391918,-1.5064288,1.1164635,-0.33087399,-0.38021946,-0.34899247,1.4077652,-0.59513742,61.344726,70.806832,-49.572939,-72.391164,-28.286286,0.510791,0.36436021,0.80199787,0.92828128,1.6234779,1.5434037,1.2354148,2.1168018,1.5874833,1.8313583,1.1393919,1.5092092,0.27870037,1.1171696,1.518736,greater than 0.02356751225
0.9431915,-0.2569912,2.0095749,1.2335238,2.0360916,-0.77703933,-1.6701855,0.89427615,2.2908344,1.8357429,1.3210281,-2.2570592,10.743864,-27.870478,30.874408,56.167697,60.48761,2.3539547,0.41706139,2.3007049,0.94682328,0.50886971,1.8231794,0.92539084,0.29378931,0.46694383,1.4248883,0.59694158,1.5471878,1.8349469,0.70323418,1.50681,greater than 0.02356751225
2.1064084,-1.7717301,0.11745692,-0.3925677,-0.54075748,1.6874116,1.1693836,-1.5444728,-2.1153807,1.7717818,0.75012929,1.7823845,-3.8472575,-10.856473,-64.748703,18.546973,18.967433,1.9096356,0.49630417,2.1342634,0.31416832,0.97700429,1.5110349,1.7140335,0.26136978,2.3418974,0.26944565,0.82303462,1.2428105,0.41578533,1.1041071,2.478859,less than -0.023711622
-2.1277969,0.43737283,-0.40162312,-1.93875,1.5986884,-0.88531304,2.2680784,1.079783,0.50234308,-1.7208951,1.5596275,2.3519306,43.900197,-19.383798,16.515206,71.07165,51.213604,2.0805931,0.52837992,1.2313714,1.6586785,1.4099183,0.99644269,1.9622834,1.0973227,0.95273644,0.89130168,1.1073233,0.28249615,1.9128696,0.84982822,1.5629702,between -0.023711622 and -0.00016276260500000002
0.44792483,-2.1250457,-0.44731458,-1.7556915,1.0727969,0.89653416,-2.1703717,1.1658682,0.63357258,-1.5447877,2.0162142,-0.27759895,-10.839656,67.897492,-46.849352,-47.063622,-48.303261,0.88138786,0.98572182,1.7766194,1.3925615,1.7807083,0.36492969,1.3732855,1.8095577,1.4857763,2.4421774,0.42628517,2.0748187,2.4773001,1.2325951,1.9762713,between -0.00016276260500000002 and 0.02356751225
-1.4904795,0.57152546,1.7796732,1.4353865,1.8215742,-1.194196,-0.7874381,-2.0839433,2.3530653,1.6002046,1.0343434,0.20609122,5.3890148,-26.82772,6.5127876,-39.578356,56.572744,0.89662249,0.53419681,2.2457348,1.8141595,2.3279824,0.40001089,1.4830936,2.3542078,2.4209298,1.0675788,0.54649728,1.9797366,1.9329218,0.36667554,1.4658015,between -0.00016276260500000002 and 0.02356751225
-0.0273568,2.0283769,1.5082753,1.6418214,-1.657746,-2.0935778,0.6468347,-0.13051343,-2.2783187,1.1704033,1.4558432,1.6335805,38.498018,-63.804993,-20.518608,-6.2367185,29.472677,2.0841863,2.4186467,0.94547336,0.32079655,2.1276108,1.005536,1.7928029,1.1376943,2.2277437,0.93879277,0.54011085,0.39306423,1.7304831,2.2298185,2.0596173,between -0.023711622 and -0.00016276260500000002
1.3821512,-2.2619195,-1.2398354,0.26977139,0.72962115,1.10648,1.5227257,-0.53333179,-0.74353945,0.58806576,1.7415032,0.79557481,69.334729,-41.209867,-64.228779,56.906215,22.756678,0.94722031,0.43178475,2.2563371,2.2573981,2.0899448,2.4525226,1.0468557,1.0040961,2.3426517,1.6968432,1.5928248,1.6063683,1.9822916,2.1242436,0.66134782,less than -0.023711622
-2.1088525,-1.6063258,-0.24064021,-1.210347,1.0813459,-1.5032405,-1.8460323,0.10435372,0.86429381,-2.1091714,-2.2531367,0.28934864,-3.2725637,48.022321,-38.854972,64.490289,-11.712329,0.63820598,2.0778807,2.1905518,1.354794,1.522918,1.1831647,1.4492815,1.0741419,0.60352918,2.0148693,0.65782349,1.0393914,1.5519479,0.83794053,2.0165516,less than -0.023711622
0.14381685,-0.32569753,1.7976699,2.3114258,-0.80096404,1.4927022,-0.91309235,1.9078518,2.1713775,1.6006967,-0.11967232,0.85742742,9.4591402,-20.230026,43.951753,-52.884977,62.190813,1.990001,1.1974682,1.098397,1.008411,0.61333495,0.32049089,1.4903351,0.31217205,1.1756821,1.6891989,1.366503,0.3151319,1.42176,2.0197236,1.2439135,greater than 0.02356751225
-1.3746299,1.4379798,-1.7163249,-1.7399908,1.0607202,0.55738687,-0.22818039,0.85677471,-1.2482401,0.38447327,1.1570333,-1.770242,49.890662,12.347954,-67.942709,36.884635,-29.932222,1.8121244,1.8742345,1.7593108,0.73689155,2.4363475,1.4419636,1.8326864,0.96055701,1.8317317,0.66544543,0.8913213,1.4371284,1.567773,1.3100483,0.98105001,less than -0.023711622
-0.74214539,0.45611168,-1.1879351,0.76695476,1.8248298,1.6869818,-1.3412772,1.2229612,-1.131157,-1.5789009,-1.1249901,-1.6045225,57.053286,-55.416857,-41.122246,58.40434,1.7365977,0.42995293,0.71881699,2.4071825,1.7669929,1.5992096,0.91574622,2.4466941,2.0875394,0.27519694,0.73491302,0.68315127,1.4733225,2.3808916,0.89446942,0.34758544,between -0.023711622 and -0.00016276260500000002
1.2961936,-0.2477873,1.1906505,-2.2527639,1.8425814,-1.5553948,-1.8984996,-0.49678445,0.8970727,2.1684751,-0.055156453,1.3261169,-49.460662,14.658773,70.002291,-71.496337,11.060151,1.9442468,1.7066017,1.3543712,1.1675882,0.65567428,0.91761763,2.3995475,1.6953162,0.67889799,1.9885785,2.0394558,2.1343328,1.4811563,1.2937099,0.8817261,less than -0.023711622
-1.0605748,1.8870052,0.51809859,-0.81179758,-1.5158417,-1.5768905,-0.32316925,1.8789731,2.1823082,1.5308966,0.13528591,-2.3336019,11.67841,-70.960179,22.268931,23.916401,-37.047357,1.3011277,1.8039042,0.96794024,2.1715341,1.2229523,1.9086717,2.295033,2.3703661,1.7428576,0.95737367,2.3292667,1.7346658,0.52764072,2.3076011,2.1011043,between -0.00016276260500000002 and 0.02356751225
1.6852412,-2.3211653,2.0435886,-2.0095825,-1.3613899,-2.2317099,2.2677939,1.0104162,-1.3844217,1.8018801,-2.3243442,0.45095556,53.74857,52.215602,-62.38492,-3.3587015,-49.695943,0.77929465,1.8551957,1.2741555,0.73073729,0.25155063,1.5614927,1.5072363,0.87089391,2.3639747,2.3235094,1.7226255,0.66668728,1.5131505,1.2699315,1.7384207,between -0.00016276260500000002 and 0.02356751225
-2.0004976,0.53213433,-0.53266219,1.085593,-0.80798145,1.3608611,-1.9444184,0.57769153,1.7402951,-0.65931478,-2.2769821,0.073423638,-19.570669,25.758395,21.34664,-27.026947,-41.894427,1.0805643,0.54374375,0.70114729,2.4325096,2.1884741,2.4344168,0.49310883,2.4300305,1.0234414,1.2303149,1.9017815,1.2416007,0.33315388,0.56721824,1.4868839,between -0.00016276260500000002 and 0.02356751225
0.40036739,-0.31671321,2.0006844,-2.1042994,-0.48063598,-1.0141612,-0.29715566,0.83713599,-1.4488791,2.3149971,-2.0403906,-0.78986284,-13.527678,40.321034,-24.379372,55.900815,-74.994011,1.7599649,0.48007983,1.7016271,0.99590239,1.8814156,0.95269584,2.4589401,0.90641956,0.94346728,0.35449255,1.4563164,2.3089122,1.6371215,1.3510004,0.76363405,less than -0.023711622
-0.15138098,0.42994344,1.9671467,-0.28635708,-1.4543693,-0.42277492,0.70446048,2.3461276,-1.9047327,-1.5839332,-0.88057905,1.721619,37.652789,-19.572666,-7.8049895,71.542188,9.5488198,1.1802223,1.4960996,0.44668523,0.68859775,0.76243523,1.9989277,0.47715316,2.0132191,2.1733563,0.3501394,0.2928749,0.84845317,0.95241394,2.2211496,0.36214474,between -0.023711622 and -0.00016276260500000002
-2.1733579,-1.8992408,1.1820157,-1.2934095,-0.083280973,-0.12378647,-2.3156071,1.2116524,2.0092114,-0.16340764,0.93053728,-0.87892876,37.683378,44.534095,-15.462764,67.332123,50.997246,1.5356732,1.8101796,0.68888639,1.1135417,1.2959526,0.32456919,0.28430319,0.78375295,0.28589199,0.48659506,0.95313772,0.88572822,1.9341357,0.51923365,0.50994305,less than -0.023711622
2.0413665,-1.6575046,1.9643904,0.51154958,2.2162365,1.5640002,0.44641642,0.79758136,-1.7966736,0.29492845,-0.57080613,0.88525411,46.275901,9.0730166,-59.810806,59.788832,20.901238,1.1815846,1.8926673,1.0589299,1.4342359,2.4529361,1.2473819,0.74702148,1.6899439,0.38649065,1.4982736,0.98437382,1.6207889,1.3497957,0.76587956,1.3878242,between -0.00016276260500000002 and 0.02356751225
1.868712,-0.63015241,-2.2335197,0.12457174,1.3765271,2.1730283,1.0716766,0.91861383,1.3562843,1.2443359,-0.028264215,0.91462936,11.548284,-7.9827188,-65.555603,-43.012681,-64.132415,1.7725669,0.78220555,1.2787417,1.3119907,2.1277985,1.9089445,2.3799393,0.63971842,0.49754845,0.54685812,1.2944254,1.656874,0.33106842,1.5169546,2.2059427,between -0.023711622 and -0.00016276260500000002
-1.7423356,-0.64980283,2.0814338,-2.118373,-1.3967782,1.4705947,-0.19486159,0.071651237,-2.1292336,-0.14749019,-0.15094404,-1.6511473,13.541816,47.307494,-52.951242,-1.5254027,12.557043,1.3182994,2.4085629,2.4660536,1.2127349,1.1848899,1.1941189,1.0561032,1.1770964,0.70957678,2.3570249,0.26719047,1.170165,1.2138512,1.9474558,1.6393684,between -0.023711622 and -0.00016276260500000002
0.21787675,0.32832811,0.0030207806,-1.0660186,-0.071030891,-1.5817777,-2.3518078,0.68520591,-0.82288282,0.67011665,0.040871899,-1.0747881,-43.815211,-52.256463,-24.37546,-28.358857,72.695724,2.0804495,0.36473938,0.4248147,2.1107216,0.64720828,0.37957563,2.2776586,0.60824908,0.34235132,2.1486863,1.9702545,2.3170514,1.1828484,0.63353519,2.3259417,greater than 0.02356751225
0.49084312,-1.792779,-0.2211593,1.0505758,-0.29474349,-1.0329659,-0.61623791,0.72048265,-1.6878232,1.3366489,1.0994239,0.74111695,35.282668,45.807122,-69.706699,-60.482941,13.212922,2.4185777,2.0345958,1.4522191,0.94577498,0.89011788,1.4612448,1.8905454,1.3968652,2.1142044,0.68352951,1.0805022,1.7508311,2.218766,0.80079383,0.94183199,greater than 0.02356751225
-0.80854965,1.2357735,2.1469427,0.90323026,1.985999,0.83488466,-1.5879809,1.7753814,-0.011910933,-2.2667151,-1.7284015,-2.0787324,12.622994,54.652205,-60.390448,67.748212,-5.7986345,2.0102422,1.6402992,0.75911469,2.4406087,1.0611196,2.2369802,0.92539836,0.42018909,0.86799123,0.82864437,1.0258972,2.0044556,1.1352857,2.2473083,1.2614197,greater than 0.02356751225
2.0314079,0.61484085,-0.63894475,0.79006465,-0.89557907,-0.62695853,-0.39020723,1.4326157,-2.3350681,-0.71442869,-0.23579995,0.029446065,3.1565106,-48.526894,-41.512313,-47.439178,-60.263416,0.6664327,1.7344353,1.1534647,1.78075,1.0658339,0.4700938,0.36649616,0.70097843,1.8444666,0.94939536,0.98775183,2.1450325,1.3109885,1.0342798,1.1410766,greater than 0.02356751225
-0.68492388,0.85061103,-1.168588,0.77924927,1.1134554,0.94855587,0.36662027,-2.0178354,1.3043636,0.40489785,0.42843949,0.25217927,61.728692,74.11826,-44.404721,-60.141761,47.42502,0.9595751,1.0787599,1.7184686,0.55154393,1.2988998,0.35857787,0.36826695,1.2126493,1.9975635,2.2991353,1.5663728,0.27773095,0.57408337,2.1192772,0.4410946,greater than 0.02356751225
-0.12412231,1.4646234,-1.5941027,-2.1534836,2.2616319,1.1183191,-2.1302996,0.78602707,1.9306974,-0.27994217,-2.023769,0.53733473,65.174711,-58.631796,-74.596708,-46.878595,61.451736,2.4149671,2.1022959,0.7870903,2.3766646,1.8514027,0.52545469,1.5669473,0.93368425,2.4311519,1.869951,1.7669955,1.6437436,2.3986452,2.2798787,1.9214526,less than -0.023711622
1.4648938,-1.762544,-1.0002396,-1.9355687,-1.482195,-1.5636226,1.1889869,-1.9382432,0.69225421,-0.17190618,-0.5326731,0.90222122,-26.601245,62.86826,26.838852,30.582831,-44.365851,1.2720788,1.8282335,0.37116511,0.42201307,2.273635,0.48424527,1.9602688,0.98838313,1.505253,1.2876809,0.80298762,1.8129004,1.4175891,1.6703057,1.0775126,between -0.023711622 and -0.00016276260500000002
-0.58096053,-0.13365166,1.5260942,-0.46823792,0.0148001,-1.0113274,0.20742341,-1.0025838,1.0767345,1.1030538,0.48718483,-2.0165282,-9.183768,-1.5882059,7.0232299,-10.57534,10.265601,1.884393,1.4937476,1.4158154,1.1095223,1.2419106,1.0416594,1.4188765,0.8069433,0.79604853,2.1876406,1.9260885,0.26879594,1.1532949,1.1767882,2.278894,between -0.00016276260500000002 and 0.02356751225
0.31863656,2.0507184,0.011666953,-1.8338505,2.2117187,1.0319085,1.6944758,2.0881893,-1.6755828,-0.28398712,0.67847693,-0.8195617,-1.9279579,-3.1885243,-39.527383,13.269037,-37.295876,1.6481324,1.9106454,1.7174905,2.1123003,2.4312473,1.2240378,2.1534,2.4438767,1.9856966,0.85328328,1.132063,2.0832255,2.0206438,0.96064665,1.08821,less than -0.023711622
-0.73354704,-1.1155394,1.7258383,1.4108754,-0.15897863,-0.029350734,1.5030521,-1.3211516,0.1826563,2.1391529,1.926665,-2.0788683,-60.07302,2.7532584,74.013812,0.13282798,-17.560061,2.3957703,1.2109667,0.71697814,0.75167993,1.2346211,2.2760256,2.4116945,1.0994806,1.2204036,1.8224952,0.67766002,1.4319215,1.8046991,0.82810432,0.94930851,between -0.00016276260500000002 and 0.02356751225
-1.8797722,-1.4760942,2.0135462,2.0051326,1.9698399,-2.1463598,-0.53144639,-2.0423069,-0.010599701,0.92161347,-0.064915755,2.2351537,-29.807536,24.738866,-13.872919,-62.142482,21.298405,2.3093491,2.2307583,2.1054864,0.41065476,0.37452461,0.63513495,2.2131359,0.67427232,0.74482687,0.80521058,0.92415982,2.1041111,2.044622,1.2125093,1.8939531,between -0.023711622 and -0.00016276260500000002
1.4474749,-2.3529533,0.28293399,0.47108862,0.77291361,-1.6973589,1.291165,0.059542581,1.7056945,2.1455114,0.41042196,-0.97566693,34.362511,30.716371,-49.946285,-47.206196,-44.543434,1.5025035,2.3260599,1.8385441,0.4105397,0.69072073,0.44325379,1.516384,1.6158131,0.97047736,2.0630393,0.25226746,2.3592333,1.3844726,0.83056386,1.7867548,greater than 0.02356751225
1.2581003,0.40264228,0.21830505,-1.8980365,-2.1388082,-0.8455446,1.497011,0.81870431,-0.21244202,1.4777955,-1.6926091,1.0117233,55.215453,-43.888897,59.309822,70.181669,-56.695548,2.3939551,2.20384,1.9382139,1.5617049,0.57492197,0.46353902,0.4503213,1.0500723,1.0652524,1.9470913,2.2631526,2.0560071,1.3118551,2.0989398,0.63040632,greater than 0.02356751225
-0.55227739,1.2802066,-0.33605737,2.0381423,0.70161976,1.7260744,0.66628073,1.5440768,0.17320202,-1.2499593,-0.23508844,-2.149496,-44.710027,58.582585,-2.4936036,-59.995485,-44.121041,2.2398954,0.42253376,2.0249618,1.5329957,1.8085662,0.57148542,1.2054269,2.1107054,0.37540826,1.9866157,0.54932543,2.26248,2.002155,0.71984409,1.6695391,greater than 0.02356751225
-0.083498989,0.92441171,-0.15887675,1.6830293,-1.79796,2.2372182,0.77465113,-0.76917788,-1.4897171,-0.75218546,1.3586637,-1.1758445,42.687592,0.35150611,57.763206,26.204351,16.528214,1.2203372,0.70662717,2.2829021,0.98629358,2.3861897,2.1909286,0.93644022,1.5008238,1.0950977,1.8064345,0.74433332,1.5101768,0.79153372,0.55730835,1.4315111,between -0.00016276260500000002 and 0.02356751225
-0.82112724,1.9018275,-0.11993882,1.0907791,1.5307823,-1.7851761,0.32557948,0.93078508,-1.4266163,-0.50482404,-2.2775344,0.21564882,18.544668,-19.773095,73.591068,-54.924587,-17.535464,1.8467905,1.7574194,0.448281,0.50880605,0.75323641,0.39437378,1.240192,1.4074086,1.5658616,0.68657867,0.57770509,2.2395039,0.59159225,1.6410059,1.3858335,between -0.023711622 and -0.00016276260500000002
0.89090065,2.1075004,-2.2690939,0.70247436,1.9521356,1.891759,0.30530067,-0.6032703,1.8971764,1.8202496,0.10651369,-0.53225111,-45.523916,29.551085,15.090967,-16.118217,1.1214127,0.58874758,1.0806513,2.0068326,0.58564503,0.68605934,0.84941134,1.306464,1.4897582,1.8652418,1.3696393,1.2779594,1.6631738,0.46222394,0.84770556,1.8873992,less than -0.023711622
-0.69732542,-0.2368803,0.72146721,0.72261972,1.2432056,-0.1769431,-0.3651587,-1.6917563,1.2074316,1.7556379,-1.9728382,-1.1235858,-49.75735,-21.783657,32.083488,-22.825353,74.299795,1.4748052,0.30124676,2.0543144,2.1121674,2.4473805,2.3733592,0.29859519,2.4893595,1.4154647,1.9659082,1.269585,0.41510301,0.88629458,2.4530708,1.2613607,greater than 0.02356751225
-0.32182232,0.95485425,-2.1615608,-1.5452981,-1.8494507,-0.8009976,0.92860889,-0.30269495,1.9860635,1.9180028,-1.5796768,-0.028981866,-54.817988,-25.917535,3.9908833,24.775241,-2.5262582,1.2426879,0.60632126,1.6914996,1.783054,1.5383826,2.3462187,0.89703516,0.71998394,1.7701206,2.4177286,1.2647689,0.47155984,0.25621146,1.1459317,1.1745039,greater than 0.02356751225
1.4984104,0.77744035,-1.0146087,1.6069806,1.821343,-0.36732008,-0.31899953,1.2735905,1.5644539,-1.3533469,1.0006158,-1.1673442,-59.788419,-13.964336,51.41288,-53.733824,45.615773,1.5893773,2.1641859,1.4725519,0.67910547,0.97559584,0.33923411,1.5077221,2.2861469,1.521229,2.0450568,1.7699238,1.3586712,1.4369864,1.4297892,1.9672456,less than -0.023711622
1.0985779,0.65926003,1.3567668,-0.070369822,0.10403561,0.23013302,-1.025659,-0.33212176,2.2104733,-1.0494031,1.1537115,-1.0506579,-34.550956,-47.916528,16.919586,-32.516721,-58.523769,0.49012977,1.8610504,0.67396916,2.3996198,0.66034239,0.6245472,2.0147373,0.69047416,0.79921474,1.4021756,1.3645268,0.85157429,1.6591313,2.2699843,2.1260816,greater than 0.02356751225
-2.1224946,0.017033658,-1.1710346,2.0704686,2.085081,-2.0804297,0.14378183,-0.91427975,0.80071223,-1.0123961,1.0959829,-0.54466082,65.487176,-57.025715,68.814616,67.250646,31.601764,1.0876685,0.69365298,2.4756427,0.3775745,2.3946996,1.215745,2.2757049,1.5229223,1.2550636,1.6040567,1.3813356,2.1076286,0.41428757,0.68112849,1.2265194,between -0.00016276260500000002 and 0.02356751225
-0.67247015,-1.8970745,-0.10731642,1.1779436,0.95254602,1.4555154,0.83566854,2.1620561,0.44605054,-0.63947654,1.2771262,-0.27155799,70.976179,-53.366231,73.754405,-9.7097391,8.4150158,1.0925706,2.084331,0.35044248,0.88681408,2.1841997,0.34396437,2.259202,0.90800015,0.50851637,0.38455579,0.47924561,1.181025,1.4874532,1.3766334,1.8279732,between -0.00016276260500000002 and 0.02356751225
-2.2100711,-1.6146271,1.6103774,-2.3496722,-1.1216759,2.2621128,-0.22371539,0.50191779,0.55607012,1.2031614,0.67298194,1.0739542,47.703946,10.217625,-22.375245,-10.743418,35.366183,0.6166328,1.7474445,1.5501436,2.0133697,2.4553492,1.3040128,0.79341543,0.68312064,0.95863696,1.0613299,1.2716659,1.6389598,0.74669461,0.69627288,1.5082147,less than -0.023711622
1.4035383,-0.95053903,-0.710823,-0.89604889,0.90147202,0.70969921,0.85816022,-1.5238084,1.1865542,-0.41312521,-2.0464083,1.7421845,-60.178181,35.31881,53.240989,71.297798,-47.907426,1.6733424,0.36616813,1.9378139,1.5884448,2.2420576,0.7613954,0.27252966,0.9060471,1.4335791,0.41368184,1.7506813,1.9501563,2.0265381,1.0263924,1.3272945,less than -0.023711622
1.419883,0.43652246,-0.55668862,-2.1734854,0.67092127,-0.57299241,1.8396708,1.3638335,0.88944745,1.2453668,-1.5523184,-2.0296796,5.0386203,-65.909187,14.297179,-7.3123571,-48.785245,0.87071857,1.6670708,0.70956647,2.1837315,1.474601,1.3682197,2.1679676,2.0320932,2.1403249,0.94062743,2.1252114,1.1772628,1.2559913,1.4466085,1.1491467,between -0.00016276260500000002 and 0.02356751225
1.1198132,-0.58166501,2.163383,-0.81545475,-1.7208924,1.6056917,-0.99057918,0.20600399,-1.2968991,-2.1847535,-0.21754875,0.47194424,32.344246,9.740295,55.138813,18.026119,-35.014808,0.7168066,2.368557,0.58788259,2.2927048,1.4888583,2.4911511,2.2763287,0.75626761,1.8397879,1.0659851,0.76120829,1.6276617,2.109522,0.73586279,0.89583357,between -0.00016276260500000002 and 0.02356751225
-1.5368983,-2.0452906,1.6785032,2.2421898,-0.49006994,0.65048519,-0.037838877,0.21450961,0.28547342,0.73985746,-1.2101656,-0.58198871,45.684242,-34.940758,0.67515821,-52.615887,-65.215314,1.0182081,1.0243135,2.3873709,1.7933536,1.3934931,1.6892423,2.0949481,1.0434167,1.7038273,1.9747399,1.2041111,2.4952524,1.4578781,1.5579618,0.66456622,greater than 0.02356751225
0.014835669,-0.41352495,0.65985051,1.8562692,2.3019007,-0.66809187,1.0029614,0.55730427,-1.616488,-1.390842,2.2806636,0.54037798,43.261829,51.553806,64.817437,-63.332607,-31.133445,0.47773526,0.54643503,0.93351342,1.8100562,0.8639085,1.9601536,1.3014976,1.2703678,2.3213334,1.1510389,1.5114512,1.9602383,0.47459568,1.7796526,0.62058812,less than -0.023711622
0.27059519,0.43794835,-0.1536853,-0.59968451,0.90241775,-2.2450756,-0.88644728,2.0544892,2.1255253,-0.91777048,-1.3193483,2.2158628,-0.1456245,-47.510914,-65.930862,-49.999961,-49.352172,1.9456062,2.0534582,1.22147,1.7471212,0.61519972,2.4117716,2.3954041,1.8063999,2.4130669,1.665767,1.295353,1.4973479,1.1755967,0.25430261,0.56400255,greater than 0.02356751225
-1.1398141,-0.99414577,1.5233967,1.3196995,-1.0251693,-1.5255631,-0.031104976,0.29383859,-0.038553028,2.3489364,-1.8209646,2.0136771,-16.14586,-13.477302,-13.018818,42.733961,29.678269,2.1650504,0.25229248,0.52970893,1.0679095,1.6043014,0.99441745,1.6741161,2.1187219,2.3594347,0.2696199,1.5016072,0.76236914,0.88811346,1.522922,1.249728,less than -0.023711622
-0.19638554,-1.9794856,0.25218415,2.021324,0.78084451,-0.3496102,0.45049712,-1.3040592,-0.0020909221,-2.1554051,-1.7593811,0.32290473,-51.319328,-23.943113,38.098641,-26.139112,29.946119,2.1914457,0.62796569,0.96933499,0.86312809,2.3438787,2.0700462,1.0160585,0.89604187,2.025722,0.80941046,1.7615675,0.41467833,0.49873974,0.31873772,1.2747827,greater than 0.02356751225
1.045705,-2.0473654,-0.20603019,0.85643059,-2.3193657,-0.69836519,1.1372161,-0.25797841,-0.44530953,-1.0435281,0.93546724,1.8682603,38.291127,58.966146,-5.9852472,55.95039,8.2020434,1.4011574,2.2525011,0.78527081,1.0464767,1.3845017,1.3208957,1.0436042,0.35584465,1.6810345,1.3972892,2.4899962,0.86656704,1.642281,0.31619545,1.2969213,greater than 0.02356751225
-0.6826042,2.1382946,1.6392708,-2.1137223,1.3700746,2.1109533,-0.78382739,2.0527278,0.7963751,1.4916213,-0.22988573,0.46948887,68.765647,-5.7754328,-17.698934,-15.980926,58.58121,0.99086822,0.52220851,1.0083978,0.39242589,2.2519983,1.3356095,0.83888585,2.1544471,2.0424658,0.97340453,1.7599174,1.9315847,0.39436951,1.1683988,0.77839349,greater than 0.02356751225
1.0572515,-1.1930902,-1.0517515,-0.61637416,-1.5695628,0.31079908,2.273137,1.2754716,0.19413755,1.8965533,0.77295528,-0.9970276,6.7579172,30.314773,-49.602793,25.854433,-14.537486,1.6521423,1.805182,2.194509,0.36345803,1.3890433,1.1511992,1.9546575,1.1781252,2.2502668,1.483725,1.7159428,0.8501842,0.79591641,2.2171216,2.4131076,between -0.00016276260500000002 and 0.02356751225
1.3867086,-1.0638326,-1.029984,-2.3360257,2.0414843,0.32244635,0.10844643,-1.0354239,0.48364331,-0.27788188,-0.38335034,-1.1334544,70.658864,13.519965,-19.951536,74.53302,26.466072,2.3539588,0.48628366,2.4695566,1.5869968,0.40462404,0.26620245,0.31465411,2.3916586,1.8556483,2.1317738,1.221933,0.52718765,1.4429038,1.8839792,1.2884845,between -0.00016276260500000002 and 0.02356751225
0.7501713,-2.223846,-2.2224513,-2.3433411,1.6136064,0.084545981,-2.17717,0.0041586903,-0.79072756,-0.82121421,0.44012692,-1.2375171,48.860393,-53.375463,68.588026,8.9487557,-48.263355,1.9418627,2.1364461,0.99958159,0.71783113,1.5877531,1.866888,2.0368388,0.89992232,1.9945025,0.35382742,1.5274377,0.64518667,2.402407,0.25457862,0.70282857,greater than 0.02356751225
0.50016445,-0.63798532,-1.9343152,0.7365348,-0.50544449,1.4317436,1.8559912,2.3411482,-0.76986925,1.0276072,0.088111071,1.1926366,-59.202942,-73.845613,-23.210685,48.018756,51.231041,1.9766041,1.0345621,1.3849071,1.3832414,0.3882266,1.4244695,0.30861531,2.1475861,1.4793477,2.3970817,0.75210824,1.6832098,1.9577995,2.2363776,2.049047,less than -0.023711622
