JessupByun/synth-gen2eval-research/LTM_data/LTM_synthetic_data/LTM_tabpfn_synthetic_data/synth_pumadyn32nh/pumadyn32nh--train--128-seed2_tabpfn_default_0.csv
theta1,theta2,theta3,theta4,theta5,theta6,thetad1,thetad2,thetad3,thetad4,thetad5,thetad6,tau1,tau2,tau3,tau4,tau5,dm1,dm2,dm3,dm4,dm5,da1,da2,da3,da4,da5,db1,db2,db3,db4,db5,thetadd6
0.49109766,-0.76956946,-1.0441688,-1.5415245,0.8014925,-0.62432855,-1.8176646,-1.1112679,-1.6173668,-1.4350133,0.7002173,1.4775536,14.891116,-34.203876,-40.236816,-47.275246,-67.673355,0.7473034,0.5319103,1.4938085,1.9428041,0.7123588,0.35622624,0.90082574,1.0602721,1.2675666,0.70185804,1.5319153,2.073444,0.56225544,1.0590783,0.5363032,greater than 0.02356751225
-0.4351642,-1.9327412,0.8994476,0.47467953,-0.9769565,0.27338675,0.39584997,1.2874599,0.058884718,-1.455866,1.4941622,-1.6942803,63.45752,33.108856,44.4733,16.17161,-25.329247,1.2003661,1.6331474,0.26654214,0.8115587,2.0668454,2.3984196,1.4920509,1.0022222,0.23398645,2.3062832,1.0309049,1.0342522,1.746607,1.7175021,1.4332395,between -0.023711622 and -0.00016276260500000002
1.3617228,0.4142732,-1.1887969,-1.8048253,-0.48945296,-1.7158782,-1.0210786,-1.2180632,-1.7071747,-1.7183061,1.6110288,1.0990942,-63.983604,33.786343,48.36449,73.7781,-67.10367,0.46138558,2.422056,1.0846665,0.6172907,2.3600366,2.2395515,0.9917245,2.15885,2.4337919,1.2082698,0.94665116,0.9122792,0.8445387,0.6502171,1.3867238,less than -0.023711622
-1.3658247,0.63859135,2.2318509,-2.0072863,0.22281651,1.0075556,-0.3705766,0.44547635,0.2609559,1.6857684,-1.3283411,0.2764093,-10.563371,69.1581,68.80822,-26.530874,-0.35827023,1.5950644,0.68303806,1.2674925,1.9710795,1.8755568,2.4049444,2.4744372,1.334329,0.9638458,1.1990318,2.0751328,0.8388085,0.94929665,1.0917343,0.9671171,greater than 0.02356751225
1.4705905,1.7071661,-2.0338943,-0.7083211,1.914687,0.5267419,-0.8885662,1.5843877,-1.9559654,-1.3409724,-0.8315622,-2.265176,36.4665,-28.429712,39.372055,64.33393,-52.4549,2.387455,1.9846525,0.30277014,0.50159556,1.1039783,0.34734592,1.76778,2.20081,0.3602319,1.3281786,0.80434275,1.4845016,1.6007215,0.9527335,1.9018314,less than -0.023711622
-1.8893433,1.6496842,2.0280282,1.5768645,1.9780602,0.77569234,-0.42214006,-1.1885393,2.3246624,-1.0098944,1.2861636,0.00996688,19.729065,-23.268118,43.83032,-37.44099,-40.275738,0.83412755,1.6607136,0.56293935,1.1353943,1.7646127,1.0405699,1.367933,1.8567792,0.85425156,0.40647325,0.76893723,1.3182254,0.26639634,0.45691228,2.0666528,less than -0.023711622
-0.8140458,1.8667444,0.095782794,-2.4009604,-1.5537947,-1.4980664,-2.0276773,0.14412405,2.5309565,1.1085672,-0.10321882,-1.0934675,59.147648,-61.101414,0.9982042,-29.659203,-7.285197,1.8010451,1.6152476,1.6814212,0.45124567,2.402245,1.6423534,1.9593794,0.6881406,1.4082937,2.040692,2.24377,0.9922884,1.7065692,1.6902496,1.2472857,between -0.00016276260500000002 and 0.02356751225
0.5040121,1.690258,1.0989428,-0.6119579,-0.13298362,-1.5277835,-2.2564652,0.8983727,-1.7671999,0.8062019,-1.3721378,1.9111322,-59.952797,54.325787,45.340794,6.439515,74.02449,0.81760985,1.5649346,2.3538291,0.8848861,2.0121903,1.9775294,1.4644563,0.50577056,2.0647469,1.8013562,2.0916812,0.799585,2.4479775,0.9930338,1.5423114,less than -0.023711622
-0.70242846,1.9824973,-1.823415,-2.2528026,0.33369914,-1.893508,-0.7621204,1.9456017,2.20176,1.226268,0.42330635,-1.3802073,27.40135,-33.4782,54.72391,-19.98648,46.12592,1.7298739,0.724921,1.642611,1.9928186,2.0742786,1.4366124,1.5156741,0.2997362,2.081508,1.7800289,1.587808,1.6609999,0.6088817,0.99626356,0.5508079,less than -0.023711622
1.7949774,-2.12071,-1.7894747,-2.021678,2.2106028,-1.3591346,0.6074872,-2.0802703,1.2318095,1.2637683,-0.660911,1.7455016,-29.395494,50.158558,-57.980183,69.58744,3.1996157,0.93657744,1.6154187,1.9173244,0.3776306,0.5317842,1.3615506,1.6200802,1.407021,0.23554349,1.1127163,2.0332441,1.0069128,0.7601746,1.1724641,2.1903546,between -0.00016276260500000002 and 0.02356751225
2.1151083,1.1445574,1.5295789,-1.944178,0.6176118,-0.77523935,-1.1007311,-0.0045320513,0.6361562,2.046546,1.8407081,-0.7292874,15.929041,-22.89749,-76.4221,-53.479736,-25.603973,2.3891401,0.70923537,2.4279096,1.6783913,1.2007614,1.2592285,1.2272583,1.5684236,0.38787127,2.0640664,1.4717193,1.6102881,2.3310251,1.343833,1.3385897,greater than 0.02356751225
-1.4872483,-1.5579966,2.2110627,0.97244924,-1.8656346,1.8169312,-2.1186392,0.12647754,1.0269192,0.22194053,-0.9212228,-0.90060663,-37.44803,-42.48394,18.347193,53.7372,71.64564,0.4116198,2.426147,0.24411044,2.1856835,0.5461649,2.3237925,2.204992,0.96556383,2.3686008,1.3529783,0.80562276,0.72320807,2.381018,0.7392939,1.9345396,greater than 0.02356751225
1.5509939,0.5971956,0.30683693,0.5372751,1.4509299,-1.2595469,2.1808126,0.3316264,1.9694148,0.2780041,-0.64845777,-0.08644403,-41.650295,2.3014696,67.756935,-14.736792,71.282646,1.8728201,0.3949953,1.627856,1.6732812,0.5106837,0.43449286,0.40333486,1.2606281,2.1416156,1.596099,2.0477526,1.9001168,0.31183192,0.6360907,0.5081995,less than -0.023711622
0.71325904,0.35474348,-0.2623326,1.4773726,-1.4128711,-1.5878845,-0.9110807,-0.78989077,-2.049896,0.98043174,-2.0508356,1.5975779,57.707386,-41.72497,25.461546,-0.12300159,28.304485,1.6750101,1.1925417,1.2054633,0.38623193,1.4385061,2.0953913,2.358737,0.83041567,1.0856781,0.58459383,0.42464736,0.65769917,1.9452572,1.2568116,2.359466,between -0.023711622 and -0.00016276260500000002
2.4552696,-1.3223208,-1.9828146,0.9170147,1.667275,0.6774513,1.4471706,0.3549416,-1.225077,0.9497589,0.27341092,0.3688135,11.577557,2.2154205,38.796326,-45.574463,10.7904005,2.0464725,1.9543593,2.013026,2.253136,0.43384215,0.48248106,2.3756542,0.7907183,1.6067555,0.8270287,2.111987,1.5025028,0.626463,1.6882823,2.6756573,between -0.023711622 and -0.00016276260500000002
-2.1379743,-1.0722328,0.40383178,0.56825876,1.2106861,1.3866341,-2.162931,1.7115762,-0.48715454,-0.5758665,2.1664236,-0.35437828,20.557219,48.903454,-12.954376,-60.718983,15.141093,1.771871,1.1161814,0.4794731,0.58700377,0.24146482,0.3043684,2.491177,1.2706703,0.32121822,1.1815444,2.3213575,0.9948044,2.358194,1.7769899,0.9095415,between -0.00016276260500000002 and 0.02356751225
-1.9255092,1.6815385,1.1860608,1.1713293,-0.117317565,-1.7074019,-0.35386342,2.241161,-0.05730753,1.7934264,1.2103212,-0.37133932,44.81228,-25.963451,-41.17344,-15.520648,11.6416235,2.4524834,0.20085266,1.5776176,1.446294,2.323526,0.8142441,0.8385709,1.8711576,0.5930358,2.2352095,0.44599548,1.9217432,1.2715365,0.8604747,0.53237987,less than -0.023711622
-0.35695237,0.088403784,1.6003572,2.1612828,-1.7599481,1.5148252,-1.7471182,-0.6991734,0.16269627,0.23115899,2.2240145,2.126923,4.7309375,-50.71476,-0.75072366,54.314487,54.513756,0.62018156,0.8402556,2.4444702,1.6663301,0.98340946,0.7232232,1.3229412,2.5002737,2.3504393,2.3446944,1.1248162,2.3290682,2.2930043,0.5327942,1.6314291,between -0.00016276260500000002 and 0.02356751225
-1.2068336,-2.1151974,0.31192234,-2.110922,0.9987505,2.0672984,0.81436896,1.4298345,0.7121783,1.7594119,0.6047309,-0.3448142,30.842178,-26.439623,-21.502542,73.8686,30.61102,0.7762665,0.6017973,1.7003523,0.3469336,1.2569157,0.7618085,1.9798306,1.2131726,1.168372,0.6091713,2.3316057,1.5803834,1.4921958,1.6416334,1.9956334,less than -0.023711622
0.73209643,1.5759813,0.60952425,0.936038,0.1370021,-1.6095221,1.5351113,-0.2367308,0.002257354,1.3835694,0.6989454,-0.04356063,-6.5212092,-27.384945,-60.137917,-42.705452,73.06431,1.5768781,0.9633423,1.0979885,1.7491323,1.3330835,0.79392976,0.5950105,0.8756379,2.236774,2.3520172,0.589882,2.3645735,0.4627507,1.6259906,0.7136939,greater than 0.02356751225
1.6098311,-2.2648077,1.3441594,0.92447335,1.6684885,-0.35300177,0.5235939,2.2654092,1.4757032,0.49937412,-1.491324,0.59750605,15.951234,22.30735,16.514305,51.517227,59.378605,1.5364382,1.6894702,1.59725,2.0363736,2.4069936,1.8604374,0.64179873,0.62700963,2.1061053,1.7321969,0.7685038,1.292268,0.5914708,1.1931866,0.67986417,between -0.00016276260500000002 and 0.02356751225
-0.4334787,-1.9293041,1.5463713,0.49841616,0.39635423,-0.5703468,-1.9191315,-0.08071958,2.1463666,2.170108,1.7901825,1.9825395,35.450214,63.519096,52.159126,41.8463,-34.64771,2.2957358,0.3113873,2.0259414,0.7946987,1.2467271,1.7830958,1.151447,0.9392169,1.4068084,0.4506829,2.3186333,2.0128198,1.2225505,1.3264438,1.8623495,less than -0.023711622
0.472268,1.544216,2.109398,-0.60119456,1.9879166,-2.2293482,-1.0131087,-2.0672212,0.41140354,-0.068479605,0.20151736,2.0731182,61.83345,-7.5303473,-21.17817,-68.353775,-54.36519,0.3208265,1.9897407,2.1729014,1.9862741,2.1459923,2.3522325,0.70362735,0.34308538,0.74889594,0.9705904,0.99457866,1.6326431,0.79168564,0.6029756,1.2819526,greater than 0.02356751225
-1.8614489,-2.292339,0.6870029,-0.6092464,-0.16983426,-1.6634778,-1.779832,1.822765,0.96897644,-0.65558565,-0.058476336,-0.6097255,-52.640858,40.781433,68.18304,2.6936762,66.386826,0.3791799,1.9083561,2.2461064,2.4539561,0.9526931,1.6907338,1.1727527,1.1666957,0.77922904,1.449925,1.4332519,1.8325746,1.0174208,0.5482389,0.4740443,between -0.00016276260500000002 and 0.02356751225
0.5269019,-0.85395396,1.2365081,0.09059254,-0.48146302,0.23221369,1.7498583,1.0417657,-0.504444,0.89995575,1.6159662,0.369627,41.29064,-11.7966795,-15.489999,-10.712505,-52.204273,1.9374534,2.0538197,2.1698737,1.9190807,0.6524527,0.66967446,1.223208,1.5851109,1.6480371,1.8644762,1.8569945,0.9601296,1.0031502,2.1999493,1.5790727,between -0.00016276260500000002 and 0.02356751225
1.7079017,1.7952156,-2.2316408,0.5228411,-0.81004727,1.3999491,-2.0617824,-1.6944942,-1.4191395,0.9488707,-0.7781524,-0.5840475,21.758703,56.064728,69.0553,3.2202804,14.778469,2.2802572,2.2300556,0.9348293,0.8008263,0.6573569,0.36548313,1.228278,0.77388644,1.9459162,0.27130055,1.3782704,2.2680764,0.5864883,1.6024082,1.5275842,less than -0.023711622
0.23795629,-0.66678476,1.4840577,-1.0549268,-1.8631747,-0.00224884,1.4799913,2.0048378,-1.3040013,0.91619813,-1.7725619,0.40154508,-61.2577,-34.47318,-28.012096,40.25636,22.76151,1.5992192,0.94310284,0.53051746,0.63156253,1.8309344,1.0034626,0.6582162,1.4442906,2.0920408,1.2672304,0.47831106,1.1845574,2.4300117,1.7275584,0.43316093,between -0.00016276260500000002 and 0.02356751225
-1.2797122,-0.5316091,1.5118928,0.71735144,-0.028236778,-1.7059681,-0.041857965,1.6760206,1.954786,0.7388417,-1.4032543,1.1379097,62.279797,-27.032583,13.9099655,-1.536538,40.394623,0.65074956,2.0077796,0.437087,1.8264436,2.4420776,1.0472392,1.0665944,2.1806808,0.3128724,1.7043144,0.6700832,1.4937572,0.89195603,0.5486368,1.6479541,between -0.023711622 and -0.00016276260500000002
-1.1672136,-1.7013458,1.452065,0.09191508,1.0785307,1.1261722,2.130119,-0.12242306,-2.1263561,-2.1855063,-2.060613,-0.29411015,-62.24549,55.482582,-72.85115,8.411384,8.585995,0.26393622,1.213995,1.145856,0.88343084,2.3447905,1.7401161,0.37929347,2.338203,0.24549003,1.264922,0.7150669,1.3861176,1.5849246,2.465713,0.4482113,greater than 0.02356751225
-2.2479908,0.676817,1.9859004,2.4477987,0.2145251,0.3807501,-0.23337284,0.18063675,0.4805698,-1.4777753,-2.1330817,-0.4689647,-41.785927,46.43916,50.72224,-46.129063,58.11878,2.5109186,2.3259506,1.4704137,1.722937,2.1074088,2.416369,2.0265288,1.3163458,0.8199525,0.83940536,1.5231018,2.4448144,0.9503964,0.47453496,0.74420434,greater than 0.02356751225
0.760053,-1.9906082,1.9134831,2.3883753,0.13952634,1.2937504,-1.3220412,-0.7508962,-2.0338354,-1.3032627,-1.1983602,-0.30199093,35.850986,60.21471,-36.229366,-4.3914924,49.40133,0.33966693,1.3549566,0.3684007,0.7996521,1.0971406,1.0223485,1.1162971,2.021668,0.7959747,0.7530582,1.6560467,0.6215161,1.6150175,1.6531968,0.92966115,between -0.023711622 and -0.00016276260500000002
-0.76242024,0.1853501,-1.9912004,-1.8971728,0.45568493,2.143194,2.4233773,0.40277892,1.1629353,2.2597313,-1.1369485,0.4266398,37.26184,21.73292,26.408655,-20.554876,-41.387222,0.47680482,1.9937912,2.2131343,1.0394995,2.4477704,1.5186931,2.434594,0.7141037,0.3299446,2.3385277,1.899944,0.6995602,1.8626049,1.7650479,1.569495,less than -0.023711622
0.6931552,1.0909101,-0.23652108,0.28778118,-1.2213196,1.8357697,0.35347039,1.5990263,-2.122321,0.76392883,-2.0245533,1.7987293,58.655056,14.526571,-39.396553,44.675797,-26.554058,0.6883454,2.2647455,2.1124182,1.4878356,0.61980945,1.8549912,0.30487648,1.7060091,1.6364318,0.34068045,1.0516851,1.8044388,0.5763719,1.3458389,0.3560314,less than -0.023711622
2.099816,0.41866043,0.059045214,-1.6718967,-0.25710753,0.15718246,1.2614515,-2.041901,-0.08094053,0.60531473,2.040428,-1.7076504,68.9747,5.142121,-64.29397,22.860725,-6.329101,0.7807852,2.2954433,0.9995693,1.8897972,1.8150115,1.4926972,1.0973171,0.4975567,0.5856022,1.113395,1.1210282,2.1973379,2.2662053,2.0217285,0.7098708,between -0.023711622 and -0.00016276260500000002
-0.61841804,-0.24493754,-1.2557981,-0.18413201,-1.2214352,0.44203556,1.2671832,1.854311,-1.4780983,0.75963664,-2.1001153,-1.9149145,-70.89151,-22.727524,54.888824,-60.9851,39.984425,1.6049734,0.82141894,0.46928194,0.9025668,1.7840072,1.8495736,1.2317803,2.2704566,2.3345957,0.26820046,0.8857975,0.622837,1.2712985,2.3886228,0.65386784,between -0.023711622 and -0.00016276260500000002
-0.24514104,1.7329661,1.2150754,-2.2784975,-1.2126652,0.25149706,-0.8026382,1.7890043,-1.6060966,1.7343189,-1.2485702,0.33085072,52.72728,29.551092,37.786377,52.62393,-32.948833,2.3672237,2.349638,0.827195,1.7307332,1.8969015,2.296787,1.4976696,0.5733715,2.1164436,1.2462671,1.6294175,0.522758,0.6344994,2.0073488,0.66112185,less than -0.023711622
1.62937,0.7410436,-0.5251922,2.1697793,-2.0482745,0.059410855,-0.7945104,-2.0422344,0.25415266,2.0460038,-2.0904756,2.0891783,15.048011,-24.986284,-72.122925,-9.692201,21.36795,0.93382365,1.7087039,1.0765789,2.3844478,0.8535845,0.3314542,0.39640078,1.3642263,0.29317668,2.4423366,1.5355549,0.4118482,1.902561,0.6653257,0.62360793,greater than 0.02356751225
1.5910188,1.3505493,1.5195701,1.3992369,0.82827026,-0.95870775,-1.8269637,0.84504956,-1.5857543,1.0918336,-0.07683741,-1.8140303,-26.673191,-64.48056,49.143402,-4.896741,-67.77557,1.3889171,2.5024936,0.38691604,1.6454241,0.49899495,0.5208413,0.37089556,2.4572175,0.9229101,1.0675071,1.1997603,0.7652156,1.2987467,0.95279443,0.40681228,between -0.00016276260500000002 and 0.02356751225
1.8620572,-1.8332367,0.96632075,1.560355,-0.13768435,-1.6523454,-2.0899708,1.6893572,-1.5615705,0.312926,-0.38267398,-1.4618118,41.630123,-23.841982,25.28446,77.39463,-43.73345,0.30062962,2.1953163,0.35386705,0.4061567,1.0617962,0.37716398,2.2271051,0.2352736,1.5417328,1.7635041,2.366288,1.4494467,2.510516,0.7708808,0.36885184,less than -0.023711622
0.7991394,-0.18062446,-0.37180886,1.4651164,-2.2146845,-0.6248922,0.3142619,0.309692,-0.46475393,-0.33090806,1.9487182,-0.059305687,55.682625,49.612694,-74.033936,-30.994951,64.5041,1.8765222,0.30225363,1.2448825,1.909447,0.28293207,0.545116,1.8506029,1.9934326,2.2472208,0.6844626,0.47778282,2.4671476,2.1454372,0.98917687,2.2369568,less than -0.023711622
1.5296748,-1.6688564,1.8858225,1.7962781,-1.3256838,-0.74015194,-2.1327417,1.6846974,-0.53225785,1.2972691,2.0057247,1.793393,-44.00348,-38.01018,-51.279053,-3.8705072,-1.4823173,2.2633276,2.2956536,1.1001487,1.1357324,0.37330037,2.3804362,1.5700138,2.2011044,2.1257162,1.125882,2.2784364,2.0462902,1.8199328,1.7033387,0.82627976,less than -0.023711622
0.9241813,0.39024383,1.107348,1.0263553,1.7764231,2.084602,0.2881096,-0.55182445,-1.0849532,0.82071555,1.4010199,-2.3852072,-46.435402,69.280396,-26.893888,56.706486,64.396095,1.9504511,2.1378286,0.5656074,1.5370345,0.9417355,1.7525734,2.0175824,0.57492393,0.5154981,1.8346161,1.1734186,2.4256673,0.94035816,2.2538495,2.415726,less than -0.023711622
-1.8276016,-0.98773974,1.2010533,-1.7708302,-1.6868129,-0.64907014,-2.194465,-0.300644,-1.0502731,2.0013719,-1.977857,-0.571333,3.374278,27.771107,-41.666454,70.557816,32.08308,2.1334624,1.0245169,1.858432,1.6562219,0.68191147,0.5183056,1.0649315,0.26599023,2.0661926,1.9192624,1.8473699,1.8371459,2.1367314,0.35838312,0.85115147,greater than 0.02356751225
0.7933335,1.7387925,2.0849862,0.54394454,1.963416,-0.40391654,-0.97836465,1.5739117,-2.2925098,-2.070423,1.6200255,2.1085954,16.779043,-50.05389,20.805046,-47.627903,-27.705198,2.2457535,1.5777277,0.6481307,0.7449367,0.4156492,1.9741025,0.41053036,1.8584347,1.875319,1.6704254,1.4086006,1.1798254,0.76303214,2.4213767,0.55241776,between -0.00016276260500000002 and 0.02356751225
1.8129672,-1.9067019,0.51966995,-1.4040042,-2.0074103,0.09451168,-2.327932,-0.7083703,0.64908886,0.75715053,-1.7576392,-1.7467335,-11.380787,1.1167945,73.52362,-54.249096,53.644207,2.4092326,0.5700693,2.0430362,1.4221253,1.5181359,1.9158604,1.558855,1.6932172,1.6095026,0.42278677,1.2450441,2.4428189,2.2901883,0.51961625,2.3184502,greater than 0.02356751225
-1.5675125,0.13345183,2.2263849,-0.72819495,1.9214936,2.3863697,-0.355234,1.065019,2.016572,0.04047786,-1.6577991,-0.04569569,72.191734,14.227917,-17.031412,26.372961,40.161835,0.40028876,2.1424353,1.1783361,2.036607,0.43477127,0.9579458,1.4176657,2.1852064,0.6298958,1.7236371,0.56351686,0.3888262,0.41977343,1.1382418,0.85649663,between -0.00016276260500000002 and 0.02356751225
-0.36142954,-0.7919411,-1.4371754,0.075346515,-1.8043568,1.822722,1.9472284,-0.63044995,1.9799186,2.3653104,-0.6402497,-0.35767025,25.912876,-23.742477,33.0101,-0.4108554,53.542866,0.40094358,2.459201,2.0581484,0.50253,1.1815047,1.8642225,1.7032217,0.66581,2.3489358,0.3992643,1.5755208,1.8822473,2.1170456,1.6914815,2.4729934,greater than 0.02356751225
1.1085266,1.9506487,-0.96128464,-2.2210398,0.40717527,0.9891118,1.3697848,0.1616015,1.5065758,-0.05921227,0.18274261,-1.9714838,52.19073,60.093742,-44.768143,15.5530205,-41.08651,2.1153224,0.51237786,0.70558894,0.5332323,0.3692541,1.7845843,0.78933734,0.5093563,2.2131515,0.7373152,1.5859953,0.3240855,1.1649082,0.71554047,1.8490971,less than -0.023711622
-2.0348728,-2.0324955,2.3560653,1.6882555,-1.7400068,0.3450327,-0.32848868,-1.3113002,1.2208269,-0.54421127,1.7514654,-0.39034566,-57.733646,57.47187,-6.6291428,56.53894,44.045723,2.5686753,0.5531191,2.37166,1.7407869,1.895127,1.6500177,2.0708559,1.7932656,1.7083833,0.95906585,1.6717136,0.8694456,0.38089296,2.3167813,0.6028,between -0.00016276260500000002 and 0.02356751225
0.066731095,-1.8161181,-0.8816672,1.305799,1.1260816,0.62744814,-0.8233091,1.0586191,-1.7414198,-0.59316313,1.099837,-0.235973,-0.5190205,40.113964,38.50016,-40.158916,-4.920973,0.35194686,1.4828061,0.6666339,1.4113388,0.6736486,0.9833422,1.898919,1.0321673,1.7215617,1.7750425,1.9484296,1.5546346,2.199079,0.3777036,1.4073422,between -0.00016276260500000002 and 0.02356751225
2.1004493,-0.4994563,1.9273101,0.045040898,0.0124872085,-0.4993977,-1.2578291,-1.051614,-1.5128442,0.49815124,-0.29309714,1.165814,-44.71817,18.220928,13.08621,44.223297,50.132442,1.5112063,0.33449644,1.2754974,1.9178526,1.7461863,0.9188129,0.8393726,2.5008798,1.8154778,1.3430768,0.71093297,1.9613373,1.3482537,0.59069794,0.59718066,less than -0.023711622
2.2659948,-0.28087905,0.30810803,-1.3816507,2.3081427,-1.7376653,0.73165977,0.89982176,1.9537047,0.8669223,-0.224748,-1.8667256,28.60548,60.298733,31.231335,15.937821,47.44519,0.40220216,2.507267,1.1029422,1.4060106,1.5940204,0.60068846,2.0218532,0.88944423,2.455211,1.7878339,1.8421869,1.3032088,0.9848741,2.086003,0.8507841,between -0.00016276260500000002 and 0.02356751225
-0.8730667,-1.5764617,1.3663578,-1.0432333,-1.7879349,0.6588931,1.0401824,-1.9838595,-2.0121384,1.4849802,0.3531971,-0.17885503,58.59531,41.71167,31.100721,33.43497,32.984383,0.57472813,0.68617296,0.8897706,0.4500017,1.790902,0.5139841,1.5498623,1.6130146,2.2887466,1.1763461,0.99133795,1.0975206,0.87742984,1.6595238,1.9579297,greater than 0.02356751225
-0.41253507,0.036562916,2.2011497,-2.1898391,-0.43184382,-2.3093872,1.7285239,-1.8218582,1.1473408,1.3735343,-2.7495468,1.1348529,-0.9846209,-48.375156,70.42628,-5.3291283,-52.88309,1.7891763,0.24878496,1.5035546,1.6101267,1.5932336,2.3003855,0.38983116,1.0166092,1.4680254,1.9286804,2.1227612,0.79340374,0.679061,2.018611,0.9048717,greater than 0.02356751225
1.3528328,2.0976944,1.174492,-2.4808493,-0.10320189,-1.0106589,-1.3705047,-2.1095245,-1.9177047,-0.28165203,-0.08976395,1.0571761,-21.79979,-21.77508,-72.66091,-68.28862,-14.964877,1.6091508,2.1869328,0.5160659,1.5436414,1.0967563,1.6724955,2.1670868,0.62804025,2.2259653,1.6299278,0.832572,1.2974416,2.3698623,0.8233128,1.999702,greater than 0.02356751225
-1.4866613,1.6313561,-1.52514,0.06734141,-1.6076891,0.02231372,1.2677166,0.7421048,-0.5749342,-0.6699011,-0.082701825,0.01386487,43.14436,-23.897688,23.233812,-11.362034,21.813154,1.6697805,0.45281738,0.8945689,1.7254311,2.451358,1.3232028,0.63321626,1.0036603,0.4020537,2.1663656,1.9961222,1.6665468,1.377311,1.9350139,1.0745984,greater than 0.02356751225
-1.4115244,-1.1336539,0.13926168,-0.35203004,0.5519827,0.67764527,-1.5339838,1.6268305,-1.5695853,0.99642736,-2.1709664,-1.3903936,-54.810722,74.69612,-21.337076,36.365295,-26.990528,1.6767286,0.41686174,2.3841052,0.4195509,1.6647102,2.1319785,1.0183421,2.151143,0.51746696,2.3710985,0.38565576,1.039393,0.29411617,1.8048329,2.1038022,less than -0.023711622
-1.9490668,-1.7156321,-0.6436885,1.9488028,-2.165385,-1.6860621,0.14916341,1.7307457,1.204169,1.6214908,-1.5572947,-0.4120286,24.768322,-51.979366,57.428024,-39.922047,29.914896,2.2138443,0.61176544,1.0584543,2.0772603,2.4807162,1.6546665,1.1433103,1.8532579,2.467817,0.91727954,0.55742145,1.9359236,2.1486535,0.6270699,0.33689123,less than -0.023711622
1.5984251,0.21081021,0.9393047,-1.8207209,-2.051922,-2.3356009,-1.7891908,1.9513208,-2.1342928,-2.2101638,1.5837656,-0.5123607,-12.279709,-0.22388574,48.354534,-46.899986,-1.9806138,0.45970118,1.607969,2.212804,2.4716847,2.476781,1.4645927,1.271759,0.31964886,1.6947085,2.4173625,0.44297728,2.140195,2.3693206,1.641956,1.6309848,greater than 0.02356751225
-1.5270022,1.6058737,-1.7173276,1.9564276,0.44822064,1.749049,0.73149586,1.7603183,0.6884329,-1.4111208,-1.9610109,-0.40363795,22.105173,-48.610287,-13.469383,-30.909458,-64.78773,2.4499578,1.2670428,1.0506467,0.5314337,1.484591,1.593453,0.9840499,1.8883978,2.1121106,1.691301,1.6061108,1.9095466,2.2970128,2.3866627,0.82076555,greater than 0.02356751225
1.7230603,0.82894015,0.61257076,0.6110372,-2.2226825,0.3615218,-0.6270831,-1.2400316,1.1058768,0.487853,1.6494627,-1.406976,12.113781,24.195929,-17.335083,-17.057806,76.34237,1.3639039,2.245154,1.8439553,0.6868468,0.9049651,0.4477639,1.0628324,0.3935731,1.2740402,0.6844928,2.3621109,2.0995347,0.3237176,2.22024,1.3532917,greater than 0.02356751225
0.19940661,2.2401233,-2.1604133,1.2943804,-0.419586,2.2674727,-0.23673153,2.0182495,-0.17677581,-0.7081472,-0.9122505,-0.71679467,66.45037,-27.836023,-51.91359,68.311,-30.882345,0.7225081,2.2165303,1.1682372,2.1408744,0.91634613,2.392887,1.0679507,2.2889578,2.1850126,1.1654009,0.64329827,0.9932529,0.6201784,0.63066196,1.3989788,less than -0.023711622
-1.3234956,-1.2980728,-1.981136,-0.3893854,1.7490836,1.9166569,-2.2038257,0.40149748,1.464984,1.7479584,-1.993738,0.085434176,21.856514,-20.171896,14.331703,-41.022903,-12.082264,2.3215697,1.2384009,0.46920902,1.8037237,1.378724,1.0158924,0.71776813,1.2463704,0.9631485,0.27561286,0.66414076,0.775856,2.4162698,0.613069,0.32541692,between -0.023711622 and -0.00016276260500000002
2.0124676,-2.2036057,2.0540988,-0.7946451,-0.20043266,1.0532018,0.9975224,-1.4467391,-2.1726613,-1.4029955,2.0433402,0.97270983,68.12632,-40.924774,-35.436832,73.34097,22.919271,1.8972471,2.1369576,1.2175401,0.64308524,1.5837394,1.0356838,1.5629431,1.1931566,0.393639,1.2512293,2.3692482,1.5554131,1.0688237,1.9138954,2.5521064,less than -0.023711622
1.2488141,0.552317,0.6800167,-1.1390653,-1.6375688,-0.15109396,0.76358074,-1.5597532,2.2337332,-0.20293526,-0.9136262,-1.3545518,-50.979614,-53.470345,-18.55509,28.332212,12.811151,0.79710454,1.9534366,0.69389594,1.7003082,1.7347823,0.8339146,0.41356897,0.35756794,1.2196963,1.5530161,2.1175132,0.6012498,1.9734998,2.335345,0.23828097,between -0.00016276260500000002 and 0.02356751225
0.97843623,2.0427377,0.38692874,-2.2917924,-0.841031,-0.5353047,1.2692175,2.277247,-0.7611347,0.77011156,-1.0667379,1.6113015,-42.800472,36.103485,4.450218,39.993732,61.56695,1.0766383,1.0617623,0.8356653,2.3614793,1.1578354,2.141341,0.5536996,1.1488062,1.0372766,2.4074144,1.493136,0.6479993,2.5162754,2.133354,0.43756938,less than -0.023711622
-0.8184814,1.1058651,-2.2672808,1.0492908,1.8369036,2.2342079,-0.94130075,1.6532767,-2.2755682,-0.0704204,0.92424494,1.960391,37.427963,47.215496,-18.561834,40.69324,-35.14281,1.4060564,1.7646804,1.1254497,2.0886736,0.47275722,2.1942518,0.3923877,1.2885634,0.90027505,1.2318838,0.82274246,1.9111779,2.1307633,2.2620738,2.4302704,less than -0.023711622
-0.9547439,0.51116276,-0.7979541,0.42109403,-1.4953249,-2.2319586,1.5371593,0.16201986,-0.3010771,-1.3792931,1.2803634,-0.9257189,23.347773,67.195526,-20.314777,-64.71891,67.86115,1.7892829,2.434972,2.2370913,0.76940846,2.4670153,0.8582407,1.2227435,2.2010465,2.1264951,1.7873139,1.5016422,2.1564443,0.411232,2.071161,1.9610744,greater than 0.02356751225
-2.0486898,0.14480948,-1.642204,-1.2851121,-0.20215,0.7694664,0.73255783,1.8295225,1.085449,1.395905,0.67714626,-1.9913174,28.65946,-25.087465,32.610092,32.459824,46.102818,0.4108704,1.8710831,1.13688,2.056695,0.86449355,0.44134054,2.3239646,2.2157207,0.3130066,0.3872679,0.30837405,2.197536,2.0401418,0.42172962,1.5982918,greater than 0.02356751225
-1.4386222,0.2431294,0.5374732,-1.1076062,0.27404258,-0.18841088,1.5083611,1.512872,2.07331,-0.17644587,-0.0984988,-0.20943709,-35.19839,-37.06933,21.437592,-11.553312,-49.511795,1.9011862,1.3284187,0.49654433,1.8391968,0.6625881,2.2579558,1.1091392,1.0197432,2.368878,2.0116577,1.014128,1.9835339,0.30489442,1.005713,1.12814,between -0.00016276260500000002 and 0.02356751225
-0.9785441,2.1170084,-0.51239425,1.901603,1.8324705,0.43234062,2.0060043,-2.0132039,-1.8872986,1.6811452,-2.1434772,-1.698317,-83.51465,1.5638795,62.63384,67.24903,49.2551,1.3435357,0.26083294,1.7840791,0.8307813,0.1665555,1.4539279,0.9262353,0.44277143,1.9479641,1.1474005,0.40193143,0.66238385,0.7373049,2.3950796,0.48201248,less than -0.023711622
1.4150581,-1.6013621,-0.37526456,1.4931352,-0.7897561,-0.1508976,0.20632735,-1.842945,1.3526478,-0.2177804,2.0042176,-0.7303198,64.95,-14.338901,-31.282347,22.55216,18.717714,0.7304844,0.9465818,0.51756614,1.6830916,0.63769513,1.1087804,1.4043005,1.3594595,0.7740606,2.0329,2.4852536,1.3307507,0.32802507,0.29829374,1.4427263,between -0.023711622 and -0.00016276260500000002
-0.75767595,0.11115553,-2.0565696,0.23362584,2.1537654,1.1929113,2.0843496,0.53902256,-0.90253556,0.25720176,-1.8082579,0.12520039,-23.00923,-21.95193,-60.854115,-70.172455,36.666965,0.76911455,0.9549848,0.41198674,1.337974,1.3333019,0.50267035,0.8518855,1.9232366,1.6670977,1.1212159,1.2301623,0.6999527,1.6324054,0.2849535,0.36673576,between -0.00016276260500000002 and 0.02356751225
1.0411916,0.7991938,0.80209744,-2.1651828,1.8599304,-2.3561487,-1.9966282,-1.0844597,-2.0766463,-1.0881456,-1.6493781,1.7718637,-35.05454,-2.7676902,-55.101284,71.24641,-48.910862,1.9894238,1.9061846,0.7151685,1.2085794,1.757251,2.1370955,0.6200514,1.4043015,2.1966248,0.4744935,2.333783,0.87501115,1.6806298,2.278106,1.3722504,between -0.00016276260500000002 and 0.02356751225
-2.0132575,-2.1434278,-0.26118052,-0.11691867,-1.9317521,-1.1044844,-1.6333348,1.5369616,1.085516,-1.3041867,1.1922752,1.2165483,29.522005,69.1976,30.0208,-9.544469,33.98965,2.0118504,1.6245738,1.9781809,0.50334007,0.535178,1.7784604,2.3664317,0.54477584,1.1621493,1.5304446,1.1147567,2.0797055,0.4142826,1.8089824,1.1055864,greater than 0.02356751225
-1.6130672,0.77189785,-0.78781086,0.34020624,-1.9791505,2.256618,-1.0674311,-2.1657565,-2.0638435,-0.54312843,0.82263994,-0.9458995,-72.8689,35.587128,24.5293,22.562391,-54.09202,0.59822434,2.3164225,1.5169282,1.7734019,0.61298114,1.4836892,1.9608413,1.8580157,1.0398701,0.7341202,1.9937779,0.42885607,1.5672808,0.5661363,2.2893848,greater than 0.02356751225
-0.26850235,-1.1014016,0.04579282,-0.7433845,1.1757567,-0.6402663,1.7406394,-1.6097646,-0.44855237,-1.5652552,0.56835794,-0.29049024,8.063153,-50.6073,-72.55164,71.360985,-5.0588555,1.5259596,2.0589874,0.93938416,2.0014913,1.6243787,0.4513127,2.0792367,1.7046741,1.5137347,0.6111342,1.6280445,0.53297305,2.027989,1.5801581,2.4503071,less than -0.023711622
0.4270241,1.8838123,-0.38448086,-1.962004,-1.3969494,0.8248022,0.037005078,0.8661271,2.2543535,1.0177162,-0.89316523,-1.0930005,30.569304,-30.135527,-55.450253,-26.888311,-49.975536,0.73584926,1.857032,1.056737,0.30701807,0.7857867,0.36246097,1.9434869,1.2699962,0.9696542,2.1005833,0.68156505,0.8876184,2.0633943,2.0626962,0.7266359,less than -0.023711622
0.114932455,1.1479448,0.7454014,-0.6140332,0.07077619,0.31906986,0.6702716,-0.67778593,-0.08393479,-1.0455328,-0.3502115,1.8591502,23.284714,-27.099215,71.775925,13.436493,-33.33049,0.40904167,1.5306399,0.4063962,0.50238186,1.6592257,0.6377856,1.043739,1.0330014,1.4514675,0.60767215,0.7750049,1.2323414,2.042634,1.5163522,1.7358317,between -0.023711622 and -0.00016276260500000002
0.9218142,2.007533,0.61969286,1.6588278,-2.7513382,-1.6847129,0.47954687,-0.56410724,0.111933246,-0.3236101,-1.8424863,0.68544436,10.460194,41.276974,64.27817,-52.863655,17.2338,1.7794029,1.7534846,2.0339832,0.8596473,0.42698386,0.6047765,0.35932565,2.4349535,1.84268,1.0031108,0.4966872,0.62223357,1.0694133,1.1726799,1.757446,less than -0.023711622
0.81357837,0.31872746,1.8427284,-0.30562523,1.5235149,-1.388395,-1.5382799,-1.6386813,-1.9394331,2.2295449,2.207589,-1.5711758,5.026088,45.93642,-63.026073,-59.831604,-48.76599,2.0579321,1.3859154,0.9340129,1.9236207,0.9150769,1.2594632,1.2695295,1.9774104,0.8673789,1.537777,2.3506842,1.9240763,1.5856918,1.6753433,1.3732468,between -0.00016276260500000002 and 0.02356751225
-0.6340628,0.6937817,0.28540653,-1.8383492,1.1476789,-0.45822984,-1.7957877,-0.49140042,-0.14125162,0.7804033,-2.115334,2.217275,-19.329147,36.25311,25.82094,-51.50298,35.493813,2.355916,0.89616644,1.0883013,2.1678736,1.075375,1.1522847,1.6084913,0.49196956,0.6312658,1.5528052,2.3702407,1.6370795,1.0699058,1.1745546,0.51987404,greater than 0.02356751225
-2.020206,-1.1595492,-1.0520202,1.9406787,-0.49591,-1.6938096,1.2774308,0.98698944,0.22742678,-1.7988538,-1.0297141,-1.5294108,68.38246,-23.694468,-32.710495,-65.95754,20.188253,1.2787262,1.9211615,1.8495075,0.35692516,2.3230076,1.1096252,0.85922253,0.61156577,0.69318664,0.29115146,1.5297567,1.9068059,1.1825889,1.2419404,2.3840125,less than -0.023711622
-1.4699937,-2.0047529,-0.97526133,1.3996423,0.008091507,1.8807958,1.7408954,-2.0689783,-0.8838517,-0.75118405,-1.1929097,1.3331842,35.99684,61.50294,10.453979,22.451632,-2.4535222,0.81556094,2.4267852,0.9963016,1.7731344,2.0167663,0.377009,1.5357693,1.4277356,0.90896404,0.4918919,0.2790686,2.231261,2.4583857,0.8968355,2.3101475,less than -0.023711622
0.48809624,1.4696203,0.099310026,-0.28476653,2.35127,-0.41100755,0.52419823,-0.7980392,-2.069649,-1.3871936,-0.17477411,-0.2965674,-41.18347,-31.632082,19.49615,-59.605103,-49.2216,1.6218221,0.5071697,2.0070376,0.32361174,2.1381238,1.2531341,1.7079258,2.1889584,1.341619,0.92245644,1.1546477,0.58616865,2.0424771,1.7698629,0.76349455,less than -0.023711622
-1.7888596,-1.3129581,-0.33632365,-1.698898,0.4023377,0.41151676,-1.5712315,-1.4819268,0.83569074,1.8307841,1.1471897,-0.54215,-70.601395,-3.126953,34.57459,1.8203791,53.290855,0.76634324,2.3917665,1.5610199,0.5503895,1.897464,1.2936864,1.9752272,0.41958377,1.0965772,0.4953779,1.7931058,1.38584,1.4435283,0.29473758,1.8241408,less than -0.023711622
1.4592615,-1.9784564,1.5961431,2.101479,1.3826255,1.9680268,-2.112224,-0.7781919,-1.9280785,1.34512,-2.0210702,1.1718966,2.032757,-11.947064,-65.250534,55.512146,42.643612,2.0729027,1.0275221,0.5992949,1.2673235,2.093774,0.49625194,1.8403493,0.2831221,1.9197485,1.0669743,0.38134772,1.7599043,1.2626595,2.0962412,0.524763,less than -0.023711622
1.1463242,0.5555343,-0.45712075,-0.38362765,0.49251097,0.29103297,-1.7999829,1.6695985,-0.23361088,2.231421,1.3980937,-0.49445167,-56.8498,45.206684,-34.535763,4.9467463,2.5546508,0.4786412,2.003435,2.0939076,1.9568326,1.7217389,0.7328144,1.4577042,0.8785933,0.5931361,2.194225,2.1387563,0.6708379,1.333792,1.6311673,1.7134792,less than -0.023711622
-1.7040801,-2.4862034,-0.44098622,0.60557675,0.87865055,0.5061947,1.4355086,-0.52172256,0.43389407,-0.7672042,-1.0299404,-1.7607378,51.30872,-15.415268,72.92305,-52.56177,56.21459,1.0716054,2.075958,1.6109514,2.0375063,2.2043562,1.8208662,0.97106534,0.69168925,0.5369002,1.2814833,2.0149045,0.29895937,0.50135684,0.8210805,0.5439113,greater than 0.02356751225
2.184237,1.5408758,-1.3632466,-1.7424661,-1.9717604,-1.9040979,0.94054085,1.6818087,-0.87710553,2.3888764,2.1157608,-0.55478513,37.43938,16.754168,-23.503078,-62.961674,-39.85299,0.61843055,0.5675046,0.9812019,1.3390801,1.9169416,1.482758,0.9763982,2.4742165,1.0537231,1.2950182,2.2039425,0.3052801,0.69754195,1.7078496,0.32496417,greater than 0.02356751225
1.0187594,-1.073093,-0.23809576,1.6402488,0.5725533,-0.32525796,-1.5870448,-1.8941183,0.64491963,-0.018142026,-1.508725,0.38162646,27.95191,-64.47117,59.93144,-13.372658,18.488205,2.2063625,2.1505673,0.61115193,0.6301311,0.86610144,0.48006147,1.702972,2.1922278,2.413995,0.606661,1.5407459,2.480282,1.1541775,2.0596936,2.2209687,greater than 0.02356751225
-0.28433767,1.1746882,-0.22918035,-0.7046005,-1.1712645,0.6414455,1.9363015,0.45798647,-1.4616076,0.6347428,-1.301085,1.0801435,16.80753,-57.91999,66.71236,61.011997,-29.312408,0.7748204,1.4443549,0.608881,1.8939772,0.6529879,1.4598434,1.9395328,2.3463788,2.078613,2.461118,2.060222,1.5871781,0.5701919,1.9504182,1.1540018,less than -0.023711622
0.60261124,-0.8631875,0.1498547,-1.3888777,0.604075,1.1011102,1.9197137,1.0332817,-1.4283795,-0.21189676,-2.0523522,-0.9675409,-2.9633288,-2.535979,44.758133,-55.92256,3.8668392,2.0467699,2.3292646,1.6536373,0.4967312,1.1199578,0.4004467,2.2094817,0.47643358,0.82823485,2.3513145,1.6802169,0.55603313,2.1919854,2.423034,0.28152123,less than -0.023711622
-0.33199516,1.6300718,-0.15131928,0.42097804,-1.5853621,-1.7210891,0.05607225,-1.3889321,0.16308512,-0.43790585,-1.9826307,-1.8211907,-10.987659,76.45362,-32.408894,39.861347,-63.415546,1.4558669,2.388842,2.367704,0.31429368,1.5446777,1.8267635,0.73306745,1.6207064,2.0801873,0.21267149,2.0224485,0.77715784,1.5926459,0.37519476,0.7664805,less than -0.023711622
-0.036901582,1.7499605,0.7106522,1.9086703,-0.64802414,-1.59157,0.4972072,-0.8656997,2.0292025,-0.2619489,-1.588659,-0.0999857,61.648315,43.12599,-33.101124,-65.04347,32.857826,1.1041608,0.26063263,0.5664076,0.765724,2.2394094,1.0633062,0.9817037,1.876253,1.6191982,0.7661924,2.2975578,2.2220724,0.9262435,1.7166041,2.3086994,between -0.00016276260500000002 and 0.02356751225
-1.4378102,-0.6932974,1.2230804,-0.2627494,0.16840018,-1.6691658,0.33540255,-0.98418367,-0.3756188,0.37442136,-0.47003734,0.08982047,-34.18698,71.48994,-49.667004,61.066685,27.156721,1.9299902,1.6832001,1.6723925,2.0446227,0.4211028,0.7565777,0.72685754,0.52103996,1.2914944,2.1824238,2.3965633,0.9783832,2.2715297,0.44858992,2.3827186,less than -0.023711622
-0.78169084,1.231131,0.52124476,-1.487238,1.2778027,-0.43053758,-0.86160785,-2.0509572,0.15428507,-0.34537163,-0.075544156,1.0946269,-66.89963,54.80077,-24.077148,-21.113495,-10.819317,0.45330068,2.5355198,1.9058158,1.5289513,1.7236803,1.6998051,0.4458603,2.1168673,1.1019176,1.4398044,1.5788257,1.0695293,0.5519479,0.86363125,0.99892473,greater than 0.02356751225
-1.7428169,-0.5057555,0.64670676,-0.7075101,1.2822188,0.008897455,0.068077944,-0.052150887,-0.06861366,-1.8945925,0.50876427,-1.48456,16.568592,-46.433327,-34.421307,41.50947,53.86427,1.3355864,1.2583859,1.6309938,1.6166211,1.189452,0.5122406,2.0802863,2.3054256,1.6393737,0.7482747,1.9537584,1.636114,1.1669353,1.2906004,2.1439536,between -0.00016276260500000002 and 0.02356751225
0.7533657,1.9579197,-2.3388216,0.898169,0.14721103,0.0020030434,-0.54173636,1.9636742,-0.0893234,1.9453255,-1.4036808,0.40839925,-24.631313,-5.334925,-20.120258,-62.183056,28.611944,1.7753602,0.8509663,0.7456343,1.3806628,2.4892066,1.4350598,0.7725685,0.54112875,0.82120883,1.6641555,2.349751,2.3875186,0.6178044,2.5409875,1.2568781,greater than 0.02356751225
1.9720572,1.0539857,-2.286799,-1.7479624,0.8561643,1.2812827,-0.98153126,0.10561177,-2.2591338,1.2210172,0.55905193,-0.7298555,74.86334,-54.187897,75.057625,2.3289192,-51.088818,0.67684937,2.2376418,0.30762115,1.5129254,0.4665513,0.6592244,0.53523195,0.47929868,2.195308,0.35547578,0.4017992,1.9591432,2.348879,0.35492796,1.720696,between -0.00016276260500000002 and 0.02356751225
1.285253,-2.032709,-1.2904994,-1.0817078,-0.8923105,-1.372574,2.2532403,-0.47953936,-2.3842804,-0.17495969,-0.90860486,-1.5868853,-22.046974,41.719845,-32.374783,27.056288,72.016716,0.7553541,1.5081677,0.61045223,2.4139652,1.7227427,2.1185977,1.3709491,0.5333824,1.6423836,1.6325581,2.1725461,0.5586159,2.1746626,2.3978872,2.088581,greater than 0.02356751225
-1.9555331,1.9443657,0.92338014,-2.454468,-1.3663894,1.542316,-0.46708035,2.1530926,-0.98613393,-1.5361956,-0.68100715,0.37227148,21.496412,5.377833,56.61039,7.3927746,32.46333,2.003101,1.5565102,2.223639,1.7769109,0.70273364,0.34490183,0.58310366,0.6029931,0.32643712,1.5721117,0.4545322,2.0316634,2.1871738,1.8102576,1.1703386,between -0.023711622 and -0.00016276260500000002
0.9483267,-1.1371981,-1.3065684,-2.1420958,1.6785691,1.0664625,1.8957821,1.3711963,-2.0760603,1.5355719,0.7736614,0.9147916,61.100945,31.749035,66.23942,-62.955257,-34.719147,1.6256725,1.5123147,1.0718141,0.9218894,1.2071092,1.4865254,2.0860786,0.8314707,1.5937518,2.0009513,1.5318977,1.2576201,0.6615071,1.74038,1.7664717,less than -0.023711622
1.1300988,-0.77666897,-1.7738967,-1.6471139,0.09410378,0.6809543,-2.0220015,0.1341951,0.083023876,-1.631424,-1.1811596,2.3005023,49.684643,-33.3424,3.7685099,67.92945,3.6658998,0.761286,1.7525724,0.90900195,1.0291923,2.174715,0.37574303,2.3389406,1.9332638,2.1595569,0.5286519,0.6191103,1.0717155,2.3954427,1.7318695,1.1302676,greater than 0.02356751225
-1.394995,0.3048396,0.23552313,-0.77773035,1.3070549,-0.46231657,-0.30688518,0.05766669,-1.3594599,0.57248574,1.3424805,0.6879259,38.073513,59.64757,-12.193509,-13.0891,-34.13134,2.222356,0.67522603,0.8639539,0.8564031,1.107845,1.5671909,1.1200215,0.8217545,0.51954234,1.9576362,2.1291351,1.81652,0.32472894,1.9609821,0.6663947,greater than 0.02356751225
-0.3348284,1.0387115,-1.4077113,-1.3980508,1.6811469,1.1956515,1.9470366,-0.80806583,1.1636136,0.17810057,-2.095624,0.8938028,6.824339,-46.0128,-68.273056,4.0475726,-65.96624,1.0029496,1.0185039,2.1691208,2.1510763,2.3074455,2.5150723,1.7601956,1.7591573,0.27390972,0.38460106,0.9189596,2.0499089,0.55057335,2.023388,2.3597283,between -0.00016276260500000002 and 0.02356751225
1.6903911,2.1563683,0.43123746,-1.5331308,-1.4457668,2.2543316,-1.3700333,1.0491819,1.0397277,0.23242477,0.6298403,1.3562142,-23.157295,-6.519368,-40.706657,60.14063,0.9549551,0.34872058,1.2943873,1.967037,0.66851574,1.0825682,2.2986047,1.5684115,2.1026416,1.123337,0.91106844,2.3227036,2.2631767,1.2193025,2.4117837,0.98359585,less than -0.023711622
-1.7158154,0.025949476,-1.890292,2.0745347,-0.9239617,-1.7003881,-0.26125717,-1.3349597,0.74496883,0.32372233,-1.663767,-1.1815366,5.809057,-46.59421,25.686079,29.093952,38.50914,0.9168246,1.5474708,2.344443,0.41603816,1.6456512,1.2336508,1.9858981,2.2086756,1.7433418,0.7751807,2.3617876,1.0806082,1.3880409,1.0850807,1.2273518,between -0.00016276260500000002 and 0.02356751225
1.904477,-1.0653886,0.15765867,-0.73962146,0.07061114,-1.3140354,1.0744579,2.4026551,0.54755557,0.97216433,1.8491511,-1.9340738,26.171267,57.126812,-20.399122,37.33797,26.801111,2.1036673,0.98085576,1.3900285,1.9269156,1.6251746,2.2031765,2.3641536,0.47321326,0.8305889,1.2468638,0.8212812,1.2600403,2.5092309,2.2075508,0.629223,between -0.00016276260500000002 and 0.02356751225
1.6715993,1.5862298,-2.0383298,-1.8673098,-0.6124309,0.81633854,-0.72940636,-1.4593122,0.72080165,-2.120364,-1.4534588,0.71245813,1.0778363,4.561477,75.67301,16.18056,2.3853414,1.6115311,2.2344768,1.5048412,0.34596062,0.40813363,1.0173393,0.7758318,0.36721224,1.6501997,1.2324693,1.3132845,1.7982593,1.6752669,0.4632349,1.8654913,less than -0.023711622
-0.8204954,2.2348979,0.69713694,-0.3576922,-0.17166764,-1.4062082,-2.186472,-1.9846035,2.2045448,-2.1988523,-1.8417844,-1.9545246,-65.690636,35.976875,-7.8407803,-52.935085,-25.5976,0.29312405,0.9113324,1.8111509,2.137938,0.64140046,1.5049573,1.1817586,1.62555,1.5498294,2.0360446,0.44732633,0.59448355,0.91997564,0.39435056,1.6951075,greater than 0.02356751225
-0.6003346,2.151257,-1.278793,1.8015162,0.5175737,-1.8114429,-0.56630415,1.5840664,-1.5415825,-0.37189245,-0.6739177,-1.9459103,8.076091,56.689526,9.9509735,-17.924397,-37.49021,0.34370402,0.9535913,1.9561555,1.9562644,1.2023404,1.3643132,2.4745548,1.0554379,0.50584334,1.0658586,1.802325,0.63977313,2.2047398,0.9558116,1.909434,between -0.00016276260500000002 and 0.02356751225
-1.4597548,-0.54010695,-1.167948,-1.8542707,0.8620407,-1.077209,0.500778,0.8289409,1.5647345,1.7956467,2.2559888,-1.3212289,62.09602,24.501837,-58.699463,19.939735,-49.10273,1.1130391,1.3238257,0.74671733,0.49077034,0.9189149,0.3780524,2.371054,0.85529,1.6113218,2.0442193,1.1993343,0.9579369,1.1250894,2.366618,2.2512105,between -0.00016276260500000002 and 0.02356751225
0.20399798,1.3391621,-1.706302,1.600281,-0.7459765,0.2823619,1.5464499,-0.754655,-0.7978887,-2.145079,1.2338619,1.8168471,57.728317,-64.93467,-38.47154,30.565224,-8.436463,2.1159866,2.2620273,0.24782723,0.5083085,1.4596809,1.0435328,1.8785485,0.28171363,1.2833369,1.6223166,1.103858,1.840318,2.0899887,1.2808472,2.3934731,less than -0.023711622
-0.31228563,-0.6029244,1.4215679,-0.39921308,-2.0983562,0.32154644,2.0031333,1.6981,-0.19134815,-1.7602158,-0.30032018,-2.1448488,35.818985,-13.100515,70.585075,41.640285,-6.0087023,1.0746602,2.5030127,2.2156417,2.4182696,0.63166124,1.7318684,1.8493873,2.2718139,1.0225526,1.3820416,0.90113395,2.4362998,1.3331169,0.9852245,2.357515,between -0.00016276260500000002 and 0.02356751225
-1.6859874,1.9232675,-1.8137095,-0.38854754,-2.2134535,-1.9972256,-0.2123699,1.3135483,1.431652,0.22577865,1.2584814,2.3360837,7.486041,42.0685,-17.906292,66.6327,-55.565907,2.0635388,0.50053257,1.8999674,1.2863095,0.42805505,2.4214807,1.7532269,1.1695943,0.92697203,1.9966229,1.9867506,2.3045542,2.507322,0.59194076,2.504795,between -0.00016276260500000002 and 0.02356751225
2.1192853,1.7792058,-1.8813629,-1.1523743,1.3319681,0.60905164,-0.6719315,-0.72724944,-0.25474694,1.1065713,0.9009239,-0.33871472,-12.0993395,-70.92591,19.032331,-49.59828,-32.51109,0.47219083,2.189901,1.9902674,1.8880647,2.3805652,1.7036941,2.393369,0.46269268,0.65800893,1.5018535,2.0456378,2.3569798,0.35613692,1.0822172,0.6004205,between -0.00016276260500000002 and 0.02356751225
1.0861104,-0.34612018,-1.1428096,-0.42022094,0.61881524,0.6389144,1.2621328,0.4457082,-1.7384828,-0.22421686,1.4502696,-0.48877338,57.50031,-28.057022,8.29541,-52.029675,67.37025,1.8285023,1.4854501,1.049804,1.2314131,0.9213624,0.532594,2.074473,2.405181,1.8346208,0.6453705,1.4017252,2.42514,2.1904118,1.3956652,2.1554694,greater than 0.02356751225
-0.3664987,1.0068039,0.9006167,-1.2480168,-0.49493015,-0.9085595,-0.2050514,1.5416886,-1.8716753,1.0360823,0.82882196,0.8412448,-5.3680096,-20.848604,-53.58103,-55.59875,26.178408,1.4014449,0.5270745,2.4163468,2.4305713,2.2399018,2.3538156,1.8130312,0.9755055,1.6710631,2.405138,0.8238009,0.53041387,2.1825855,2.4981194,1.8703991,greater than 0.02356751225
-0.29659888,-1.6272705,2.2228818,-1.4295582,1.7251853,2.1892717,-0.4264688,-1.4006132,-0.1070771,1.8541526,0.2556306,-1.6242752,0.18148987,-43.435326,62.96878,-56.514763,57.579426,1.498478,1.3814447,1.088346,1.4740475,1.7348515,2.1504889,1.9913235,2.0940852,1.9081123,0.9048512,1.3903292,1.2017959,1.3157512,1.1135128,1.4177767,less than -0.023711622
-1.901299,-2.3602204,-1.5492966,2.3834753,2.2352178,1.8742504,-0.433174,0.5696138,2.00947,1.1094898,-0.88942605,-2.213682,51.9782,-28.217651,-21.1363,-16.02504,50.92282,1.9662865,2.426432,1.201195,1.7579579,1.8318902,0.73721725,1.1847514,0.2677445,0.6297164,2.4275267,1.5819477,0.32380286,1.8559933,0.45573685,0.40424132,greater than 0.02356751225
-0.8370629,0.83895594,-2.136198,0.65841883,0.6351157,-1.1383643,-0.42031074,-0.90692025,0.85629874,-1.1947199,2.042636,0.70245266,46.290333,-24.49814,-27.868834,-23.019157,10.284174,2.2845616,2.163785,1.2453449,1.8162717,1.9140828,2.2510378,1.5784628,0.9936461,1.6314964,1.1653186,1.457664,2.4001567,2.2389169,1.3807917,2.1441107,greater than 0.02356751225
0.66921544,1.560094,1.0792291,-0.9901152,-1.1857306,-1.526033,0.15992267,2.2900658,-1.6931815,0.7916767,0.5172332,-0.25814924,19.987215,58.3193,-19.036543,60.136353,50.460003,1.276748,1.2463027,1.343692,1.3195916,1.9596455,2.0680056,2.3011959,0.39400032,1.8629686,0.72071856,2.1577291,0.2760905,1.2937537,1.925905,1.2449381,less than -0.023711622
0.31666556,0.22938374,-0.07911171,0.15884697,-1.5180314,1.1129478,1.9197088,-1.8448524,-2.1921902,0.3249107,0.89593434,1.9134433,41.44569,52.12758,-20.825415,-64.660446,-10.604406,2.4227498,2.2046528,0.52807975,0.58681434,2.4503,0.60561746,1.040381,1.2306626,1.5770092,0.7319128,0.6922893,1.6684282,2.1206386,1.7032591,0.6024942,greater than 0.02356751225
-1.8387307,0.24249569,-2.1277452,1.254866,0.44397604,-1.5092629,0.6887786,0.51885337,1.6249211,2.2381482,0.91240716,1.3625312,-24.022163,20.996231,-35.309246,49.794132,56.56892,0.2518602,0.8947796,1.2005633,0.7184493,0.5513521,1.5510436,0.7401964,2.1334558,0.9929904,0.39813408,1.1777413,0.74631757,1.6560147,0.28496596,1.1911846,between -0.00016276260500000002 and 0.02356751225
-2.1708999,-1.5389901,1.0285981,-0.581688,-0.30164522,0.8762898,1.4787469,2.0618463,-1.6297125,-1.6034935,-1.1974514,2.069862,0.68038195,21.14877,-20.799877,-59.438545,32.806946,0.779687,0.5925953,0.98554456,2.477306,1.2456052,2.4912357,2.4464552,0.8168511,0.5725921,1.0020546,2.363212,1.4847133,1.5163106,0.28543207,1.3578212,greater than 0.02356751225
0.06531312,0.6709714,0.9564388,-1.1692446,-1.4298273,-1.61457,1.5709546,-1.1595618,-1.3298352,1.794613,-2.2459471,1.3285837,51.760532,24.449972,-39.79944,66.87724,30.651716,1.807757,0.55295146,0.90746516,0.2970232,0.59990555,0.42073888,0.7397626,0.97524875,2.152626,1.4253985,0.46898982,0.47832572,1.1164048,1.3729784,1.2638432,between -0.00016276260500000002 and 0.02356751225
1.1265179,0.28254664,-1.6523123,0.3924416,-0.056327462,0.50972676,-1.8408502,1.8878324,1.8613876,-0.13754259,-0.62701774,1.8256856,23.125574,12.676172,45.18379,5.4999948,-44.658245,0.951049,2.2739522,1.0994195,1.0090322,1.3502643,0.3318118,2.4632483,1.4784654,1.7110604,0.3489098,2.0193388,1.7935802,1.1070156,0.36393845,1.3421092,between -0.023711622 and -0.00016276260500000002
