JessupByun/synth-gen2eval-research/LTM_data/LTM_synthetic_data/LTM_tabpfn_synthetic_data/synth_pumadyn32nh/pumadyn32nh--train--128-seed1_tabpfn_default_0.csv
theta1,theta2,theta3,theta4,theta5,theta6,thetad1,thetad2,thetad3,thetad4,thetad5,thetad6,tau1,tau2,tau3,tau4,tau5,dm1,dm2,dm3,dm4,dm5,da1,da2,da3,da4,da5,db1,db2,db3,db4,db5,thetadd6
-1.3403579,1.4589127,-1.7456983,-0.17094079,1.0417438,-1.7119468,0.4600705,-0.97058207,-1.8417703,2.1425679,-1.2896096,-2.0859716,-44.599064,-72.49938,-44.748528,-42.047295,6.4512677,0.46066967,0.34652224,1.2811075,1.9881729,2.0434718,1.5996325,0.44351125,0.878561,1.301317,1.3180279,2.3502793,1.9737953,2.3931706,0.27278125,0.8824563,between -0.023711622 and -0.00016276260500000002
1.0045841,0.2773422,-1.5176909,1.056094,1.3871325,2.0800247,-1.5562248,0.2511754,1.0059968,0.14613242,-1.5679663,1.9053327,-9.869751,-63.67592,-15.42801,-12.683808,-58.44798,1.4250472,2.149577,0.9590928,1.7768563,2.049792,2.0406842,0.91375875,1.848163,1.6084745,0.31879637,1.6628734,1.5840392,0.9084346,1.6725398,0.32053706,between -0.023711622 and -0.00016276260500000002
-1.7556213,-0.061413236,1.1316663,-2.1699352,-1.437551,2.2056484,1.0677396,-2.0921075,-0.28453252,-2.232799,2.1569262,-0.3121162,-18.456877,4.136648,4.8580546,18.944908,2.7468288,0.9780096,0.6464046,0.46172717,0.95739335,2.137469,1.1151005,1.9695888,0.57549286,0.6613378,0.34303516,2.1164238,2.5063303,2.450745,2.040712,1.3198186,less than -0.023711622
-0.5749402,0.61413115,-0.3249249,0.06137052,1.9843469,-1.9714853,-0.029838042,-0.69325626,2.1144266,0.90575117,-1.4124473,-0.6756032,9.170474,-69.827515,-58.442474,-41.5488,69.63109,0.9887471,1.6864898,2.2638915,1.2351,1.3209188,2.3907602,1.4254422,1.3337799,2.0629203,0.32413188,0.764184,1.3871045,1.728355,0.7706426,1.0860683,between -0.023711622 and -0.00016276260500000002
0.118502,0.39773503,0.9801421,2.003543,0.3413532,0.7389093,0.21329898,0.06190988,-0.17284617,1.8787482,1.3385935,0.15878536,55.866665,-23.48843,14.683728,-12.403219,-13.097435,0.68613577,2.453523,0.2915925,0.7262037,1.5627904,0.709432,2.0922441,1.0325913,0.41955873,0.52546287,1.190692,0.9857569,2.1289768,0.750457,1.3004367,greater than 0.02356751225
0.7965701,0.5970475,1.3623726,-1.5499457,-1.0420293,2.0282311,-1.5149204,-0.9736532,-0.71414393,-1.1411597,1.6750233,1.120074,50.40789,-38.849453,-36.130947,-19.124249,-32.070194,2.137328,0.44566983,1.176721,0.35686746,0.21280165,2.187111,1.8141224,2.0855556,0.9292936,2.405647,2.3342848,1.5894173,1.4391232,1.7623646,0.60305846,greater than 0.02356751225
-1.4541079,0.5441672,-1.0987395,0.020195318,-0.35669646,-2.3333905,-1.6984247,1.8368627,1.1429493,1.6905156,1.0161529,2.1800153,-9.141232,-51.422657,59.951767,56.513348,31.155647,1.1415184,0.8556796,0.3899742,0.9265936,1.1597265,1.9072859,0.4000191,2.0695243,1.9792749,2.1370602,2.2064977,1.9837335,2.135925,2.0142355,0.3057129,between -0.00016276260500000002 and 0.02356751225
-1.2188609,-1.0397183,2.1726012,-1.8309218,-0.39466098,-1.139515,-1.332398,1.8691006,-0.07193512,-0.88525045,-0.33330083,-0.24212739,65.62642,-11.226659,-0.6263352,2.6457834,-36.493374,1.3255816,1.3211584,2.217864,0.8774141,1.8333513,1.2566746,1.6008496,0.765656,1.5122498,0.42195377,0.94743514,2.3975985,2.1088324,0.41568342,0.46249416,between -0.023711622 and -0.00016276260500000002
-1.1248502,-0.3427609,0.55055434,1.3343419,-1.956949,-0.75702614,-1.9811866,-1.7212352,-0.64490116,-1.3206047,1.7924721,-2.4633567,6.9816794,-28.77203,-39.58011,17.215279,-14.6233425,2.241165,1.9711329,0.76328814,0.48965144,1.1175207,1.4985031,1.1299819,1.0760355,2.0570998,1.2944908,2.2282126,0.26644835,1.4284701,0.9475803,2.27921,between -0.00016276260500000002 and 0.02356751225
-1.3872653,-2.234399,-0.49123073,1.1577882,1.356551,0.9805347,-1.5144578,1.4259714,-1.1898812,-0.21067166,1.5569966,-0.30357942,17.878521,-2.5202,-10.000179,36.63027,45.053555,1.2679504,2.321644,2.200258,1.6421072,2.0864234,0.7488514,2.1496406,1.7078863,0.85447997,1.5590065,1.0109318,1.9953177,1.7181373,0.42988437,0.40020844,greater than 0.02356751225
2.0171878,-1.3099638,-2.2970026,-1.6329905,-0.60959446,-0.18434532,-1.5751306,0.63405895,-1.6105132,-0.30749604,-1.9218085,-1.5869603,-71.59949,-21.235209,-51.532173,58.395855,-59.17527,1.3028331,1.6935925,1.2789227,0.92180854,0.2887784,0.92393965,1.4446484,0.9857951,1.1808102,0.35031167,2.0832572,1.4093788,0.89147496,1.7395521,1.4273235,between -0.023711622 and -0.00016276260500000002
1.6057986,0.47310853,2.2273402,1.4049444,-1.9921983,1.2668989,-1.1232103,1.8161958,-2.0654593,2.2782314,1.7978828,-0.7674031,41.172955,23.479994,-71.017586,11.883519,-46.23087,0.75378567,0.649489,1.4854888,0.6131295,1.298044,2.1430418,1.513847,1.4283755,1.9096546,0.98391426,1.6373556,0.7549789,0.5408755,0.678646,1.1136736,between -0.023711622 and -0.00016276260500000002
-2.0440996,-1.616682,0.75198454,-1.8538448,1.3033849,2.1234808,-1.2879796,1.2672074,-1.574824,-2.4314137,1.8356893,1.4128636,-30.387651,41.991783,-61.080303,8.276764,-29.523653,1.1525435,1.6277643,1.9666545,2.087728,1.5015857,0.7621886,0.76533115,1.1466712,2.3291428,0.4642754,0.36952394,0.41847962,2.1175153,1.9078481,2.1012528,greater than 0.02356751225
-0.22849564,0.17201833,0.21495718,-0.6340037,0.8882115,-2.261523,-0.056249525,0.21851954,1.507109,2.1302798,-1.0993863,2.1869323,-4.4421406,-76.00545,-10.306715,31.691933,41.23002,1.154992,0.29354715,1.0165461,2.1937962,2.7475305,0.84711874,1.315495,0.83407855,1.9097935,2.3057644,2.457365,1.9765722,1.4200827,1.435961,1.5267869,greater than 0.02356751225
-2.1972816,1.4193206,-2.076401,-0.71400285,-0.2292718,1.6319743,-1.9299983,-1.8287227,-1.7687066,0.47474194,0.19843683,-1.8439695,67.55531,10.924291,24.248676,26.45382,34.524944,1.6911176,2.2125459,0.5111652,2.0199983,1.1491219,1.8096836,1.7022471,0.6818138,1.9810214,2.2919343,2.1693916,1.3644314,1.6904354,0.35490417,0.3353138,between -0.023711622 and -0.00016276260500000002
-0.4641799,1.0786835,-1.4033597,0.27960008,-2.1430542,0.7353015,-1.8941724,-1.2320806,-0.003246148,-2.0230846,0.6450757,-1.4467994,55.537807,-37.78816,-67.81684,8.819518,14.136213,1.9512485,1.1187037,2.2589674,2.1123707,0.3327517,1.1430298,0.66320974,0.7101822,0.90080225,1.88904,1.2520385,0.5751821,1.7782594,1.593881,1.9739065,greater than 0.02356751225
0.095780246,0.08042703,1.269141,-2.1273606,-1.0139624,0.6709709,-1.0225706,-1.1655319,0.77217454,1.715425,1.6095955,-0.2955918,69.37847,29.287493,43.810516,28.246977,-74.47819,1.5403414,1.0874354,1.2927847,1.1604401,1.5923024,0.95013255,2.139463,1.9282172,0.7405637,1.5262882,2.45376,1.9398525,2.0414934,1.7749174,1.4646893,between -0.023711622 and -0.00016276260500000002
1.962033,-0.016303118,-0.6320126,-1.3348001,1.7674325,-1.1995691,-0.21457942,-0.46487978,-0.9313782,-0.9853156,2.0724587,0.3319055,70.16489,7.2530417,-55.082855,58.96596,-32.877422,2.2556894,1.2870202,1.1192487,1.4056352,2.162917,0.4215641,0.59736943,2.4670117,2.3169997,0.46331394,1.2245811,0.58914614,1.8252114,1.0275815,2.0273519,between -0.023711622 and -0.00016276260500000002
-2.0914204,-1.4299924,1.4810827,-1.4156016,-1.1530726,-2.0050423,1.9825674,-0.5987078,-2.256086,1.2262871,1.6992917,0.6285533,39.65309,-60.922703,4.9367766,-16.975393,29.550283,2.3883505,1.2310742,1.8861635,0.7037919,1.1214665,1.5842335,1.1784579,0.77898705,1.2445757,1.2288115,2.2675679,0.5145242,2.4542649,0.28364778,1.3306527,between -0.00016276260500000002 and 0.02356751225
1.3599931,-0.11361596,-1.1818378,-1.9326061,0.01159554,-1.2088766,1.1920308,-0.48112786,1.6341113,0.85517293,2.2265723,1.9012889,64.214874,-35.31365,22.600971,24.001863,35.11848,2.1534123,2.4746819,2.092009,1.2983296,0.5829856,2.1153264,0.52984184,0.48673815,1.105592,1.439942,0.33789647,1.3923098,2.1636941,0.36742973,2.2309039,less than -0.023711622
-0.8789606,1.6343153,1.3652672,1.8797982,-2.3022208,0.28985873,-1.2553416,0.73326,-1.2615175,0.46385166,-2.3732488,-1.9705181,48.466366,-61.657166,-62.214394,-31.981562,11.163078,0.9840822,0.9775694,0.5858378,0.66452724,0.82339364,1.8467934,0.4179158,1.8747227,0.8446799,1.570394,2.3071582,1.0283134,2.0207345,1.2308604,2.0208938,greater than 0.02356751225
-0.7967019,1.433126,2.1183822,0.16476302,-0.7704997,0.37016678,-2.2445643,0.90233964,0.3053869,-2.0421197,2.099318,-0.718623,-3.4633422,36.06618,-48.978725,-71.70124,-10.846502,0.68197185,0.3967164,0.958385,1.1666152,1.0096374,0.96229607,0.5265877,2.268261,2.16545,2.1669466,0.4581213,0.61704344,2.3966534,0.54659706,0.6179213,greater than 0.02356751225
-1.7585084,-0.71634203,0.90626806,2.0704894,1.6700307,-1.8430554,-1.7274716,0.2565934,1.1799235,-1.8575147,0.43264243,1.2887845,51.399887,58.939987,-51.480457,70.26061,-43.152905,1.424301,1.5994276,2.565418,1.9557083,1.517253,0.5687338,2.3398151,1.6712959,1.26858,0.72523564,2.4028265,1.4572423,0.8820371,1.3354208,0.6714868,between -0.023711622 and -0.00016276260500000002
-1.3167871,0.5366282,2.0633016,2.0128684,1.1626674,0.42084432,-0.53934175,0.5316364,0.5894651,0.06875348,1.5539408,-1.3048328,62.52479,16.079102,-55.25178,-26.43322,-48.876595,2.4496176,2.180939,1.0655844,1.5513722,1.7404832,1.1686773,0.5372911,1.6878743,1.7300624,2.3996336,2.4019613,1.7600162,1.6018469,1.3259627,1.4800714,between -0.00016276260500000002 and 0.02356751225
-1.3293539,0.08053739,2.1775315,-0.07654661,0.32091093,-0.5652094,-0.5183271,1.0142813,0.14203703,-1.6002496,-1.7119795,-1.3971022,64.1876,-25.40766,-27.352654,-43.4894,-25.204285,2.2727914,0.64402276,0.42895654,1.795412,1.16727,0.5766638,2.3056982,1.116553,0.9329619,0.31809065,2.0248172,0.2841032,1.2010736,1.1326771,1.020147,between -0.00016276260500000002 and 0.02356751225
-1.2212704,1.4471468,-0.23608777,0.85229963,-0.23476885,-0.53328884,1.1332119,2.027005,0.2911069,2.2615883,1.3694948,0.06049872,-40.858772,16.2701,35.35875,-50.5878,-57.389282,1.6119145,2.4762769,1.899661,1.9132656,0.32014593,1.5320691,0.736421,1.4369485,2.2606652,2.1117623,2.401434,1.3165977,0.49751455,0.50039434,1.5163722,between -0.023711622 and -0.00016276260500000002
-1.2467283,2.2331269,-1.9001075,-1.2956706,-1.8063625,-2.0671477,0.025994418,0.43868685,1.6374484,1.9861466,-0.36622497,-1.6056019,-35.524418,-16.96479,55.934544,71.72861,6.6287465,0.5086619,2.3238528,1.2151537,1.9384441,0.9957259,2.4260511,2.3036957,1.1765723,1.0447787,1.8414791,0.56716454,1.8525665,0.70735735,1.0836375,1.032323,greater than 0.02356751225
-0.19081438,-1.314931,2.110817,0.73182,1.7573657,-0.8027341,1.1797019,0.6359326,-1.5753158,-1.0098368,0.9915287,-1.2192826,-0.055443585,30.261366,45.99102,51.386154,51.578735,0.6593472,0.47300208,1.1240287,2.23806,1.4191488,0.79108185,1.7978928,1.4004241,1.789278,0.52088404,1.7206098,0.34847963,0.76773757,0.82420486,2.2580602,between -0.00016276260500000002 and 0.02356751225
0.0019928743,-1.9715331,1.0675446,0.5225054,-0.4068841,2.073352,-0.44568148,-1.6741351,-0.6158503,-2.153193,0.4574725,1.1212437,8.646669,11.762534,-64.15341,-47.211266,-60.894268,1.7127829,1.987078,0.5840139,2.127096,2.457157,1.3295926,0.6285427,0.698927,1.8979197,2.0321615,0.6204223,1.5521386,0.98051757,1.2813948,1.0174984,greater than 0.02356751225
-0.7881606,0.028137332,-0.2818125,0.49215457,1.8202364,-1.6890122,2.056811,-0.1282932,0.57228947,-1.1270055,-1.9485977,-0.39098006,-32.737583,-6.023453,-61.975075,17.921814,32.257954,1.5185618,1.6265324,2.2981262,2.264031,0.8729134,1.1496363,1.0043644,1.028002,1.1495109,2.27123,1.3817499,0.5515079,0.76684266,1.0098602,0.7366985,between -0.023711622 and -0.00016276260500000002
-1.613706,0.27115837,0.92037594,-2.31363,-1.2338706,0.58318573,1.5436293,-0.77075505,-2.0113914,-1.8104031,0.79185444,-1.4435571,65.54523,-56.091606,4.743148,-48.010788,-57.97553,2.05347,1.6593868,1.8437192,0.38624686,2.3063352,1.7255086,0.76894075,1.3637196,2.275965,0.51188296,2.3260274,0.76985496,0.81174994,1.6870899,1.204362,greater than 0.02356751225
-2.013176,-1.2129959,0.5265031,-0.111249276,0.90484035,-0.6325126,0.4669417,-1.1145309,1.329302,-1.4950405,-0.070521966,1.0543593,-72.59414,-54.881947,-62.088932,-71.69059,67.032326,0.88715273,0.5725493,2.4576163,0.6264064,2.504919,2.4540422,0.21010798,1.5718157,0.9485475,1.1891866,1.0455714,1.4397113,1.4578407,0.82428265,1.1426098,less than -0.023711622
1.4364129,1.4169549,2.1782415,1.3802538,0.64425576,-0.04924632,-2.1489985,-1.1259838,1.6300962,-0.9814188,0.04096283,1.7968373,-34.07693,-69.00442,-1.7543411,66.34229,-21.892563,1.6946878,0.4900141,0.3343835,1.7386808,0.86109245,1.1294912,0.808614,1.1980354,1.8426064,2.0907264,1.1525445,0.37643713,1.7881899,0.7318205,0.43229556,less than -0.023711622
1.286016,-1.0581588,-0.50953746,1.4495324,-0.60081726,-1.5890973,0.08354007,-0.3974205,1.1789814,1.5645328,1.092316,0.16847733,-10.126196,-31.951685,-53.875755,-23.066092,-14.134569,0.4549061,1.1394312,0.82835823,1.290768,0.9101141,1.994236,0.7927972,0.6685328,1.8715097,1.9129578,1.1106579,0.44366443,2.228139,2.1092696,1.8124396,greater than 0.02356751225
2.190226,-0.15337704,-0.46550688,0.97427064,-2.2232387,1.9827018,2.352793,-1.175529,0.50738174,1.1058953,0.8340518,-1.7500514,-27.62824,-31.142973,7.221678,56.18005,19.86819,0.50507617,0.6379977,1.2270069,1.7458622,1.982466,0.53524685,2.323567,0.31239343,1.2188386,2.360115,0.66286534,0.5171622,1.2217288,1.9454751,0.27149096,greater than 0.02356751225
0.2709774,1.2084243,-0.46702814,0.62237245,0.78853834,1.6971053,-1.8774444,-0.9509241,0.96950376,2.0040913,1.5053089,-0.86930835,11.174961,41.65223,67.15756,6.9995847,37.300377,0.37733215,2.2087884,1.3435435,0.68875057,0.82602245,0.61287206,1.2308815,2.050465,0.92657906,0.8490162,0.40500808,1.2711812,0.51401067,1.8068672,1.1036828,between -0.023711622 and -0.00016276260500000002
1.6061306,-0.22057034,-2.3728607,1.8231604,2.0575879,-0.9204274,-1.1990787,-0.17421387,2.372096,-2.1809886,0.54767555,0.1911697,38.290524,-26.165415,17.927773,-67.39001,-0.11187281,1.2204931,0.3544616,1.2226716,0.33789402,1.9626851,2.0674295,2.4246716,2.3772538,0.7718241,0.5591492,1.4042616,2.1937523,0.3879848,1.5749687,1.5827091,between -0.00016276260500000002 and 0.02356751225
-1.9430293,0.028751574,1.9384162,-0.976777,2.1963964,-1.964412,0.11139732,0.8842752,0.613082,-1.3491403,2.0658193,2.3043964,27.577578,34.30876,-65.567444,69.796875,-78.963524,2.4281633,0.88464576,1.1844459,2.164411,0.5377141,1.2675323,1.2530422,1.4167552,0.5055357,1.969003,1.9471841,2.228664,0.35111687,1.469626,2.187647,greater than 0.02356751225
0.84215575,-2.2281196,-1.7668546,0.31262973,-0.64521635,-1.6415669,-1.489173,0.058066748,-1.4011593,-1.1175414,0.8642798,1.9301959,-9.458948,28.404745,66.33837,-63.15869,55.505978,1.7564285,2.027318,1.4442604,1.2960165,1.6828221,2.1224198,0.829547,0.22147219,0.8294108,0.76118326,1.2892536,2.2320213,1.8041221,2.1908042,0.8122224,greater than 0.02356751225
1.5345565,0.06018896,1.5101595,-1.1605579,2.1203666,-1.6042125,0.4916951,0.12202104,1.1448755,1.3122873,-0.1772653,0.92325574,-6.7106557,24.057901,31.297052,-64.5452,-18.841616,0.55530125,1.9500815,1.9366893,1.9266487,0.34586447,1.345769,0.5199064,1.3380207,0.4486531,1.5130249,0.77875286,1.4841862,1.3302543,1.9119297,0.928526,between -0.00016276260500000002 and 0.02356751225
-0.7583596,-1.2173145,2.1017637,-0.9112529,0.8195597,1.8501854,-0.97459334,1.3576139,0.6518104,-1.0731367,-0.2481853,0.69609433,-53.804245,-32.900455,-74.31871,35.15129,27.87558,1.2572865,2.3553638,1.676899,0.61842376,2.4489741,0.8718828,1.1578429,2.1646185,1.9979572,2.351212,2.245308,1.1502222,1.6798981,0.7867357,0.92209464,less than -0.023711622
1.1426812,-0.863621,-0.13172123,-2.098361,-2.1677794,0.2234544,-2.3149545,2.0042036,-0.6845277,1.7640669,-1.2188249,-1.709621,28.273697,-24.561388,-72.028534,67.99917,56.45052,0.5521913,0.972847,0.94344556,1.0158821,0.60659444,2.4368894,0.9531961,2.2034583,1.5771453,2.2495139,0.50411624,0.6165702,1.5988849,1.5016186,1.3300096,greater than 0.02356751225
-2.160642,-1.3479366,2.0409448,1.4889573,-1.0758667,-0.05078937,-1.5006084,0.1000143,-0.28593516,0.987397,0.94192463,-0.71839106,56.842533,14.616819,27.140816,63.823376,22.997578,0.46482816,0.45189506,0.41797605,1.0504088,2.4710407,1.2393547,1.5547814,0.7069255,2.4152505,0.48293582,2.4303422,1.0884258,1.9913244,1.2379953,1.6323497,greater than 0.02356751225
-1.8221985,-1.7550281,-2.0481455,-0.3807422,2.4141634,-1.6202873,-2.088544,0.9932511,-1.2684119,-0.10446275,-1.765792,2.1578798,5.163708,40.544266,30.089485,57.734413,43.633457,2.2702825,0.7273639,1.5035933,0.73450285,1.5043,2.006386,1.5516646,1.2436731,0.473288,1.679966,1.7499162,0.58066523,0.90780735,1.2519436,0.46845388,between -0.00016276260500000002 and 0.02356751225
1.1948647,1.1068972,-0.5678069,-0.77236485,-0.65623623,-1.9391264,1.3731275,-1.4962002,2.2165813,0.35626435,0.20957534,-0.16224764,-58.897865,40.35476,46.489887,-55.889362,-5.828265,0.28356552,0.35324672,1.5826659,0.5069901,2.2605333,1.9232819,2.333553,0.3072773,1.120121,1.581968,1.0221242,1.7191266,0.43476585,1.5719845,1.8529458,greater than 0.02356751225
-2.197643,0.826004,-1.6587273,-2.0160923,0.81248957,-0.38442904,0.5762424,-2.1850853,-0.31928793,-0.6830681,-0.8010806,0.79041314,19.226818,28.549145,-21.892187,-72.16164,-43.216885,0.8455336,1.4926857,0.6514407,1.6661446,1.2982556,1.1878818,0.6029966,0.63861984,1.4043825,1.0208993,1.2064513,0.4895088,1.7658962,2.3368201,1.500849,greater than 0.02356751225
-0.7320743,-1.8242335,0.024572488,0.8736689,1.3567985,-1.966491,0.44487435,0.2085239,0.18670844,-2.1848543,1.7596629,1.611807,-31.841702,22.970692,62.034412,-56.0468,-52.110912,0.8376422,0.5788486,2.089409,1.8747933,2.372985,2.4102595,0.85228944,0.46798575,0.5960728,1.7641597,0.53776956,1.3896083,0.86847645,1.8444055,1.3628324,greater than 0.02356751225
1.022784,0.35947058,-0.123793304,0.3982289,-0.6955994,0.0951028,0.67447996,-0.92990416,1.8246408,-0.011759329,-0.22016363,1.9168307,-31.455267,-58.490818,9.639003,46.255676,-76.083786,0.7304161,2.4645927,0.41971168,0.823931,1.5895973,2.5903337,1.7559524,1.35932,2.0271828,1.7773824,1.775176,1.6759478,1.4899917,2.1039019,0.3900112,greater than 0.02356751225
1.2243248,0.32021412,-0.3715695,-1.5911125,1.5296805,1.8017017,-1.0127316,-0.7405685,2.1964798,0.18532059,-1.0580739,0.23966338,63.312893,63.330845,6.8801413,14.274626,-55.018173,2.2305992,2.4801798,1.9139708,0.690047,1.0171549,2.5176482,1.0227338,2.3000524,2.3889933,1.1053373,0.9905177,1.2276042,0.92813545,1.3205005,0.32143688,greater than 0.02356751225
-2.0433965,-0.45787206,-0.01263135,-0.62334085,-1.3572927,-1.0353271,1.7365489,-1.4758627,1.5802889,-0.6943771,-2.1539183,-1.4504026,-15.833006,17.394232,26.851753,56.361298,18.64288,1.2686179,0.68616956,1.1653969,1.9681276,1.9518746,2.4637134,1.5745407,2.3919034,1.128843,0.7817578,0.510878,2.4754617,0.89954615,1.3751353,0.22662349,greater than 0.02356751225
0.53747195,0.46554083,1.5825737,0.35770825,1.0591652,1.1550626,-0.83672005,-1.4411511,-2.085775,-1.964875,-1.7913296,1.2149469,-57.22776,-57.97007,-17.342667,-6.8164525,43.21626,1.5583712,1.1437918,0.99758875,2.2581892,1.7639997,2.510777,0.9066288,0.7770656,0.9958583,1.2005148,0.5653741,1.6203268,1.3983247,1.66383,1.7018635,between -0.023711622 and -0.00016276260500000002
1.3560883,-1.5580821,1.5788236,-0.81448907,0.24104989,-1.9602829,-0.033954967,1.5522032,1.1643778,1.601028,0.12741925,0.95943743,12.512286,60.622124,75.45741,-4.4115767,62.53671,2.380761,1.284666,2.357903,1.9431146,1.2959027,1.5693094,0.967902,1.5338368,1.1655734,0.70962656,1.2239304,2.0517719,1.5892698,1.1629554,0.42917433,greater than 0.02356751225
-1.8645335,-0.039039463,1.7664573,1.4500314,-0.8403445,1.3806607,2.2005339,-0.7337049,0.06584198,0.330921,-0.45145914,0.6740944,5.4563828,-64.28919,4.3659177,13.768189,-68.9469,0.4861786,1.9045999,1.420239,1.7383441,0.76801604,1.7402545,0.9189122,1.8286879,0.7277204,2.285179,2.0088248,1.3420422,2.2801275,0.8559254,2.2350464,between -0.023711622 and -0.00016276260500000002
1.1774347,-0.73931676,-0.9255708,0.5329725,-1.3689463,-1.042733,0.5717001,0.014758732,0.73571724,-0.545569,-0.0490445,0.59847045,63.99217,63.7715,-23.387384,47.765022,-38.44124,1.1192745,0.88429374,0.598519,0.81296134,0.5248103,1.1783254,2.28073,1.2533127,1.4968343,1.5926632,2.036854,0.54165053,1.8942742,1.3308707,1.3769526,between -0.00016276260500000002 and 0.02356751225
0.9587556,-1.2565488,1.8269444,-1.391327,-2.1367257,-0.8571014,2.0971723,1.3185967,-1.3678693,-2.0167644,-0.70651376,1.6901172,20.990118,-18.000816,56.5592,31.395607,-20.872019,1.6102812,2.1620677,1.5661972,2.152852,0.44675222,2.178795,1.7182103,2.438096,1.7313254,1.0455759,1.2998115,0.44884542,1.1011287,1.428343,1.1576933,greater than 0.02356751225
-1.8878384,-0.20487365,-0.44011366,-1.3310634,0.011995832,-0.049846638,-1.0554006,1.2984687,2.045809,1.5394307,1.9302653,-1.073632,14.203807,-67.931404,31.987568,-19.205887,-27.187449,1.0703033,1.6748047,2.1577659,2.04754,0.2535516,0.93511945,1.8701226,1.1469579,1.4597886,0.8108535,1.0399419,1.101692,0.7659246,1.9106935,2.149877,greater than 0.02356751225
0.51195866,-1.6099938,-1.976333,-2.1663666,2.0203016,-0.5998788,-0.37296885,-1.823533,1.1648515,1.6098715,-0.48099607,1.54022,10.233103,-30.014072,41.892597,18.759857,-59.200222,1.1146549,0.7107045,1.5350596,1.8515357,0.5443297,2.2080529,1.9904547,0.8691845,0.80845076,1.6809081,1.0945783,1.0010489,1.0952204,2.2146366,0.40111047,between -0.023711622 and -0.00016276260500000002
-1.7262093,-0.19255677,-0.566408,-0.9885003,-1.9799151,-0.59071296,0.2436813,-0.3574166,1.9312311,-1.1492527,-0.5279888,-0.5793458,57.653984,-5.597971,-49.038834,59.633125,-66.743546,2.2853897,0.53735095,1.4826283,1.7371824,0.29958844,1.3618423,1.3753368,2.4507658,0.7783371,1.4494178,1.9176606,1.3094926,1.2710071,0.29887715,2.109577,less than -0.023711622
0.72107714,-0.7372008,-0.41704518,0.29721975,2.2099247,1.8497431,1.5961295,0.16393456,-1.2918404,2.2074573,-0.63757837,-0.23468892,-10.934435,-34.711006,38.230125,66.41128,-28.212742,2.3578916,2.2406528,1.6041979,0.5000964,1.8899851,2.2376816,0.47855988,2.5397506,0.57930255,0.99478537,1.3806512,0.5562733,1.5193777,1.7599441,2.1274543,between -0.00016276260500000002 and 0.02356751225
1.2398955,-0.4857186,2.3534214,-0.5049474,0.76897764,0.5384277,-1.8584232,-1.2428329,0.94858146,-0.7122211,1.4986022,-1.4459561,18.092918,32.22862,-11.2495365,34.257973,-6.172547,1.6240362,2.3856854,1.9057113,1.9780272,2.20508,1.1489801,0.7549898,2.464094,1.3801624,0.96678996,1.4409959,0.40591386,0.64610356,0.6229673,0.70067436,between -0.023711622 and -0.00016276260500000002
-1.148227,0.8485432,-1.1401839,1.8809226,-0.5260859,0.9600226,-0.92506117,0.9197497,-0.32815492,1.8109131,-1.387329,-1.6729155,-2.5283422,-21.79487,-8.01967,27.689346,-34.821507,1.963262,1.7150451,1.7279993,0.28541788,1.1821501,1.4401838,0.5117487,0.93165964,1.3194276,1.4093386,1.747588,1.7579135,0.6555332,1.7796181,1.0057758,between -0.00016276260500000002 and 0.02356751225
-1.4159203,0.41941416,1.1294442,1.4715297,-1.1304789,0.9883436,-0.5764989,0.70906526,1.9378463,-1.9556799,-0.009533859,2.1058555,8.838484,13.484052,-4.0877147,-55.373943,36.491135,1.2839757,1.9129848,1.7145246,0.771858,0.72249067,0.77564067,1.364464,1.7251958,1.2631135,1.3614926,2.1576025,0.6640728,1.696072,0.86369026,1.9699154,greater than 0.02356751225
1.1270125,-0.3152647,0.28929695,0.4021042,1.082076,-1.145832,-0.011958988,1.770068,-0.61117655,1.6558236,-1.0450565,0.5004507,-23.325851,14.232541,-72.96697,16.794922,21.066364,0.26636118,1.8533231,2.2786818,2.4910269,0.37453857,2.1673446,0.38902166,0.49714074,1.6307148,1.616659,1.2356504,2.3846912,1.2632362,0.6455197,1.1474711,between -0.023711622 and -0.00016276260500000002
-2.2933316,-0.34876242,2.176475,0.84940356,-1.9955525,2.1140702,0.10667261,2.0164766,-2.3776722,-0.31467217,-1.359778,1.958748,73.35602,-48.10914,-17.237347,-72.7189,62.860996,0.7002668,1.9494349,0.68420655,0.801247,2.4870148,1.7242986,2.4248996,1.0214875,2.3040962,1.0978237,0.75650704,1.9444075,2.08105,1.7022132,1.5353853,greater than 0.02356751225
-1.8935251,-2.099596,0.7041307,-0.7569283,1.2178484,1.0491266,-0.7000006,0.9786306,1.9349234,-1.5174397,-1.1990649,-1.3959893,19.043034,-9.6777935,70.34183,38.97071,-64.762054,1.8600872,0.70324874,2.3266077,0.6208533,1.6277139,0.733418,1.4194177,0.92128646,0.18396243,0.5663821,1.2281642,0.46586692,0.4902548,0.8006005,0.3931465,between -0.023711622 and -0.00016276260500000002
0.5282583,-0.6329209,2.1487167,1.9144678,0.8638531,1.2048329,-0.58960843,-2.07623,-0.034898255,2.12887,1.7067955,-1.8959777,70.185684,-11.62043,38.573112,-53.172546,-50.512108,1.5269455,0.4134997,2.2523513,1.3971164,1.0501173,1.8803904,1.266312,0.5307443,1.8929466,1.3256477,1.5078744,1.9293754,2.4071462,2.3128161,1.0201955,greater than 0.02356751225
-0.58885705,1.9762378,-1.1677309,-1.323154,0.5965993,1.5802354,0.9581783,0.3866655,1.3649011,1.745013,1.099866,-0.1510618,4.951989,4.3576155,-20.638178,-65.51535,-57.683895,0.8696509,0.9621208,1.0537868,1.6454879,0.69463474,1.9027147,1.459313,1.0572768,1.3514161,1.3042219,0.32628793,2.052079,0.84466326,2.3126783,0.6543326,greater than 0.02356751225
-0.01621232,0.8962181,0.3562813,2.180238,-0.9356337,0.11206243,-1.6358849,-0.9393712,0.86551255,0.8708287,0.8866318,-0.9629415,17.113077,54.85595,-66.62897,22.421299,58.710438,2.1071873,1.6148207,0.47737503,0.8120179,2.4431093,1.2016944,1.5411948,1.9087242,2.0994525,0.33690697,0.42478964,0.58372396,1.9479418,0.59646785,0.23935728,between -0.023711622 and -0.00016276260500000002
1.6751255,-1.1399374,-1.9630917,0.67245734,1.486326,-0.97270095,0.61896306,0.06364453,1.9909736,-1.4511334,1.6692268,-1.7117964,57.654163,-21.436722,68.59132,-10.334966,-23.781721,2.2407389,1.4574002,0.79610157,1.955634,1.0792222,1.4329543,1.4863774,1.5938749,1.4024006,2.1427474,1.6017544,1.2680942,1.5199773,2.343817,0.23978412,between -0.023711622 and -0.00016276260500000002
-2.0117347,1.6600404,0.57699186,1.8646528,0.884907,1.3309152,-1.228734,0.30310738,-1.6101149,1.5873948,-1.1669983,1.6215159,24.757223,-31.670639,21.79545,32.780396,-66.26339,2.1397026,1.3282121,2.112432,1.1678163,0.7780469,0.63656,1.3370761,1.3320171,2.3768027,0.92305785,1.1375065,0.46172094,0.6702614,0.28796673,2.2560058,between -0.023711622 and -0.00016276260500000002
-0.17952438,-1.6998041,1.4459331,-0.47284576,-0.95888484,0.09979576,-0.5339846,0.12172203,-0.84339434,-0.55129653,0.7663571,0.91911876,-46.514103,59.124855,11.666184,11.738622,43.805176,1.5649065,2.50277,2.3984835,2.3016067,2.0417745,1.6198334,0.25482187,1.7280234,2.3543923,0.6959753,0.9124108,0.775653,1.9731408,0.57185394,0.8952863,greater than 0.02356751225
1.6785083,-1.644439,-2.0505126,1.4970452,-0.7350518,-0.72217005,-1.3781605,-0.6486962,-0.26904944,0.41777915,1.7565492,1.7198161,-47.369225,27.005177,28.368528,-23.62157,-18.826456,1.165068,1.8497127,0.48417982,1.693672,1.131162,0.76164097,1.2148038,0.40413946,1.9384892,0.6139499,2.1002877,1.9465022,2.0025342,0.704262,0.48136014,between -0.00016276260500000002 and 0.02356751225
1.7594944,-1.4870195,1.3402221,0.97030556,0.22150019,-0.75505733,-1.0810093,-2.0650866,-1.4042648,-0.82126236,-1.646936,-1.497759,58.728035,-53.50008,3.9991887,-33.853844,-32.62262,0.9323278,0.4925827,1.3146477,0.72534865,2.2618515,1.7732239,0.85613436,1.1587478,0.29089674,1.4204855,2.1914794,0.42824855,1.4322962,2.4114878,0.8452512,between -0.00016276260500000002 and 0.02356751225
-0.7005122,-1.1092438,-1.2331767,1.3307014,-1.160065,-1.6490068,-0.72625536,-0.8711885,0.6302818,-0.495292,-1.5182481,0.4543224,67.90125,-25.487133,12.673858,66.9169,28.736595,1.2157378,2.1251552,1.2528232,2.1662483,0.6378348,0.32760984,1.0950365,0.9859711,0.7060795,0.5843515,0.51058245,0.70375526,2.2956903,0.5850825,0.794138,less than -0.023711622
0.79497653,-0.8651567,0.77349514,0.8488816,1.7893348,-1.851969,-0.7149706,-0.3935229,2.1446426,-0.31114027,1.6317339,1.7340711,-50.683716,-49.875935,-2.8369687,35.971188,-68.3149,2.0396538,0.48852605,0.49943635,1.5091408,1.6836919,0.90289146,1.7118068,1.7281044,0.95895386,0.9631678,1.304091,2.0993338,0.66020375,0.81926215,0.6734154,greater than 0.02356751225
1.8999434,-0.4441749,1.2654495,0.65142226,-0.118800275,1.1293436,-0.036710728,-0.24076425,-0.8839024,1.4211653,-0.8599553,-0.55071115,54.68147,-35.499294,75.62153,-41.16226,12.755317,0.6328684,1.7147706,1.946601,1.6156987,2.2009053,1.3872328,2.1436617,1.4247066,1.9423527,1.8273491,1.4213233,1.3808397,0.86412984,0.3567205,1.818989,greater than 0.02356751225
-0.02653637,0.085804984,1.2217252,-0.42041194,-1.976229,-0.73233366,-0.7364938,-0.2746372,-1.8092831,-1.5895963,0.8463367,0.72630095,-24.064869,12.8272505,-15.874736,36.388737,-10.150593,1.115984,2.2840526,2.1270976,0.89288133,1.2179608,2.1903925,0.74608856,0.70694596,0.77599365,2.316687,0.54323584,2.343799,2.4404314,0.6286203,1.681989,between -0.023711622 and -0.00016276260500000002
-1.9852123,-1.6891042,-1.5438653,-0.27001274,-0.12239366,0.57446903,-2.2715251,-0.6570072,1.3088274,-0.832111,1.3561703,1.768214,-57.789677,49.240616,40.60199,-59.514557,21.584246,1.3558929,1.414499,1.1813157,0.52262956,2.1595507,2.3646448,0.4732437,1.1164213,1.2967471,0.803117,0.4136166,0.7917078,1.3308226,1.5077343,0.35916758,greater than 0.02356751225
-1.5416244,0.10294344,-0.574548,-1.8846089,-1.4285277,-0.11825165,1.6313077,1.8304973,0.11462998,2.2077289,-0.03141035,-2.0736496,70.7912,45.402603,31.679663,-34.002605,66.05524,2.4003925,0.9754571,0.66244715,1.3067032,0.8187252,1.6221687,1.7943939,0.62017083,1.3921697,1.3784908,1.0580777,1.9896629,1.613422,2.4443085,0.98292834,greater than 0.02356751225
2.3269944,-2.1683722,-1.9665978,0.48705915,-1.4601134,-0.5033296,-0.75774664,0.2525032,-0.08994603,-1.7633991,1.5111637,-1.5676609,-42.428772,-21.512869,13.810116,40.18767,66.46462,0.7710999,0.942955,0.6636929,1.8516994,2.37527,0.54082215,0.61063796,2.4709337,1.5077416,0.71000683,2.0394804,1.7356031,1.1014518,2.0627124,1.6294671,between -0.00016276260500000002 and 0.02356751225
-1.3532466,2.5746453,-1.9820609,1.9975905,0.289379,-1.0770911,1.7640997,0.39417097,-1.0960599,-0.8886574,0.55201,-2.413382,68.42836,-15.108782,-10.475919,-3.1335154,17.629356,1.40594,0.52760375,0.9664377,1.911543,1.0312568,0.9696704,0.41971204,1.1516994,2.2783322,1.222487,1.0317719,0.54973656,1.6819665,0.70538723,2.3304586,between -0.023711622 and -0.00016276260500000002
-0.6513197,1.0574174,2.2121263,0.62956125,-0.3442737,-1.942177,1.7237532,0.8858536,2.4188213,1.5670534,-1.1078606,-0.6621735,-31.450506,20.38464,25.557632,21.915234,-54.17039,2.2981722,1.4042953,1.8045988,1.9982133,1.9730018,0.45682484,1.8052733,1.8601773,0.7784426,1.6198871,0.63702446,1.897024,0.9835078,0.4647363,1.0493363,less than -0.023711622
0.5925895,0.2930604,-0.77587664,0.34855366,0.66579574,1.8274351,1.4423649,1.1843185,-0.7352074,-1.61272,0.35845372,-2.3036842,21.21771,23.95796,-22.199476,61.12727,0.2863511,0.6130156,0.78659105,1.0406244,1.275956,0.83736116,2.371541,0.3296897,1.9622725,1.6119334,0.29217124,2.4675894,1.8721495,1.1448315,1.4486722,0.7803013,between -0.023711622 and -0.00016276260500000002
1.1186187,2.159359,0.7542418,-0.5663722,-1.8474925,1.6772343,1.0657585,-0.037263796,-1.3919277,1.621645,2.2562149,1.9158354,-41.35648,38.40837,-5.155097,78.37842,39.30416,1.7712761,1.7346375,0.6254465,2.4966476,1.1440681,0.9761936,0.54908603,1.9399837,0.6785517,1.4558517,1.6914889,0.5631584,0.566796,1.6745521,2.0689666,between -0.023711622 and -0.00016276260500000002
1.1960448,1.1554097,1.090503,0.75330794,-1.6145501,0.8188805,1.7390585,-0.89894074,-0.23502645,-2.1021056,1.5657189,0.61807597,-77.89263,28.838713,-13.305113,24.630892,-6.096435,2.01116,1.2594479,1.197176,0.6779636,0.55744255,1.0357666,1.1958742,2.2199795,1.4485308,1.1091813,1.4243463,1.6614481,2.3097596,1.1623816,2.2340465,between -0.023711622 and -0.00016276260500000002
-1.714156,0.36721033,1.6034894,-0.7104855,2.0238132,2.265973,-1.7694565,1.3217081,0.30990458,-2.0860155,-0.44437706,-0.93219703,-13.849589,-52.760193,27.12984,57.632935,67.32548,1.0182171,0.5706598,0.97949547,0.37146616,2.1858807,1.1373253,0.65025806,1.5457531,0.7589912,1.8160858,0.50309753,0.7233058,1.0157967,1.8374264,0.2679443,between -0.00016276260500000002 and 0.02356751225
-0.77917093,-1.2932884,-1.7476305,2.220698,1.296219,0.58704716,-2.029168,1.2776264,0.9147462,-0.45665118,2.1591835,-0.054217022,25.043818,17.072554,38.84536,5.920014,-37.267937,1.1978686,1.0976436,2.426222,1.472307,1.1432103,1.4727272,2.2582178,1.6658504,2.2096248,1.3999414,2.3955035,1.9303136,0.87571096,0.5496078,2.155761,between -0.023711622 and -0.00016276260500000002
-0.45575842,0.10634814,-2.3237963,-0.78271013,-1.9051449,-0.6854554,0.14452106,-0.9061609,-2.1121836,0.08538495,0.9519765,-1.5786794,-56.89585,14.412196,2.742092,-7.283786,-1.9130212,2.3715775,2.1237464,2.2178087,0.50640786,1.2700148,1.3884315,0.6389294,1.1429578,2.291141,0.6409494,0.23404324,1.5883085,0.37141934,0.5471683,1.0900056,less than -0.023711622
-1.843736,-0.18470696,0.5140208,0.58859366,-2.1367905,-1.0394084,-1.9634606,-0.48814914,1.7546247,0.29430437,1.5474609,-0.5007551,-19.721104,11.555392,-54.894466,-43.883694,34.14593,1.9372942,1.5438211,2.169651,1.9277008,1.4856066,1.5265051,0.88036484,1.9907651,1.1616609,0.7020424,1.1870989,1.9164839,1.2742023,1.3211355,1.7389638,less than -0.023711622
0.28444985,-1.9227029,2.082363,-1.2593609,1.679322,-0.009151765,-1.2376647,-0.85293037,0.5284663,0.61794376,-0.3221662,-2.326531,5.382024,-18.773956,-69.729576,16.163536,-49.35466,1.5142322,0.85484874,1.9556323,0.504128,0.9297481,1.5423577,1.5446634,1.2380116,0.9290632,1.3141669,1.2382419,1.2064589,2.0383008,1.5354084,2.2088614,greater than 0.02356751225
-0.29048425,-0.989492,0.016089136,-1.3919804,2.0173063,0.43982732,-0.33781406,1.5429708,1.1221571,1.0648767,-0.18590696,2.19749,-77.02496,15.973621,-51.187748,-69.93025,-49.03165,1.3861129,2.3265848,0.89223,1.6523117,1.5712769,2.1205947,0.92424023,1.0970955,0.3170945,2.391003,0.37237,1.3132192,1.0343902,0.6144374,1.2385905,greater than 0.02356751225
-0.3799655,-1.835835,0.71709293,1.7937334,-1.2109532,-2.1784742,-1.0546656,-0.7438277,-0.032505035,2.1871219,-1.026323,0.24914324,28.62815,0.433754,14.735322,-49.947174,-44.223934,1.1536945,1.2590468,2.1799526,0.9683728,0.74034446,0.60881305,1.1680956,2.145118,1.20553,2.3997686,0.52869236,1.1808646,1.3226165,1.9655564,1.0891913,greater than 0.02356751225
1.2625998,-0.8506881,-0.4809805,-1.5596597,0.24706043,0.96700513,0.90773904,1.0986725,-1.9685652,2.122047,1.7912925,-1.0033954,-60.05206,25.96845,-20.60241,-28.56977,-34.34254,0.73240733,0.9581447,2.4779088,1.8306345,1.1733326,1.4380841,0.7069834,1.7728277,0.26510876,1.7725477,2.3437562,0.34929565,1.1067744,1.8024021,0.6526132,between -0.023711622 and -0.00016276260500000002
-1.5073388,0.13044143,1.6656384,1.3010343,1.8235036,2.3247557,-1.9098576,1.5269941,0.14109579,0.5268753,0.8419749,1.9242436,67.41567,47.62602,-43.948067,-30.134623,57.559425,1.3266985,1.7415074,1.7373902,2.3149989,1.9698297,2.191637,0.8127388,1.1809355,1.9589065,1.9727935,0.35213497,0.46492538,2.4219592,1.2620949,1.7058375,between -0.023711622 and -0.00016276260500000002
-1.0738138,1.773262,-1.8424515,1.1511912,-1.5159656,-0.6115673,-1.324533,1.6989046,1.6447394,1.3389844,1.9883062,1.7363353,-49.714397,-30.963142,65.20582,39.58106,77.4494,1.4574946,2.388475,1.0822961,0.47202286,1.6337273,0.92912626,0.9406163,1.1171178,0.3454011,0.9245632,1.7571434,1.2164162,1.3872921,0.37293738,2.220835,greater than 0.02356751225
1.6975297,1.1263523,-0.40518105,0.71363264,0.049292687,-1.8676519,-0.28915828,-0.10642018,-1.1622388,-1.3793954,1.8552734,-0.042198434,-11.902768,-60.744904,70.1034,-55.98693,-53.611107,2.158098,1.850002,2.2387414,0.6403197,2.5015354,1.6454301,0.8824841,0.30558252,1.6073163,2.2400177,1.5798917,1.8923025,1.9628067,2.116805,0.26907635,greater than 0.02356751225
-0.18478426,1.1699687,1.0363245,0.43387988,-0.5588197,-2.0425465,1.6295488,-2.057136,-1.5702116,1.4493291,1.8089565,-1.6755198,-7.9594946,-21.567272,0.21319865,64.901306,7.8251696,2.2460117,1.2654052,0.67472506,0.44927695,2.4895976,2.0815814,2.3221707,2.3183846,2.3602488,1.7108852,1.0434958,1.0413871,0.41776773,0.74632233,1.0818598,between -0.023711622 and -0.00016276260500000002
1.0136548,-0.3250974,1.3241909,-1.0211707,-0.1862417,-1.2922845,-0.5298684,-1.3393704,-2.3678474,0.81195724,0.96621203,1.7550911,66.84462,65.84139,19.873043,-23.962223,74.4071,0.37352693,1.177805,1.2723042,0.8680776,2.2661889,2.261472,1.9100119,0.843484,2.452106,2.0164278,1.7255085,0.8284458,2.0872195,1.3534756,1.9919701,between -0.00016276260500000002 and 0.02356751225
1.2019018,-0.30647808,-1.515444,0.50416464,0.84084916,1.3103364,-1.7395276,2.0247216,0.85198605,1.9447615,1.852191,-0.82111555,-40.396503,64.376595,56.595444,9.040034,-2.8707926,1.3899376,0.3048441,2.2613642,0.26761812,0.46531728,1.687868,1.2015156,0.8770188,1.037194,0.28745222,0.91366345,0.52883846,0.9341744,0.6501685,2.1725974,between -0.023711622 and -0.00016276260500000002
1.3387233,-0.39962387,1.6709633,0.02143703,1.4607327,-2.2278354,0.79409045,-1.8823653,-0.17535183,-2.0756156,-0.9808207,0.40019825,-5.384017,-44.074875,31.643082,66.06263,34.266357,1.3668743,1.5241976,2.4951446,2.3410962,1.0762832,1.8077204,0.8085474,2.0574956,0.3811667,1.310825,0.5753482,1.7179272,1.4991761,1.5905172,2.1524718,between -0.023711622 and -0.00016276260500000002
1.9955257,-0.7775793,-1.2000904,-2.0440712,-1.9018267,-0.050642252,1.4651797,-1.3040603,-1.7061515,-0.28418452,1.4807478,1.726957,-70.47503,13.927238,-59.07616,-21.698736,19.269573,1.9565266,1.9679389,0.30388704,2.4051092,0.55108315,1.0301949,0.4956628,0.6872541,1.4314468,0.5438456,1.772843,1.5058799,0.67040837,0.648434,0.63127995,greater than 0.02356751225
1.2371722,-2.2656898,1.6442487,0.76993775,1.8447797,1.7945509,0.61327624,0.24612457,2.1435945,0.47158733,-0.3376838,-0.65025145,-12.500709,-3.7066803,62.900734,-54.826283,73.776146,0.44429618,1.454741,2.1915565,1.8002733,1.119955,1.5758204,2.3574848,0.82024634,1.6920415,0.72899103,1.7381841,0.7935774,2.3710535,1.027034,0.6298605,between -0.023711622 and -0.00016276260500000002
0.23206897,1.8220912,1.834709,-1.6458712,1.032259,-1.5220199,0.03285806,0.7592889,-1.0392176,0.5385177,-1.6400287,-1.8396171,-6.792089,5.064881,10.796361,-25.67877,-11.582295,2.2504492,2.2587564,1.6423901,1.4193624,0.46975747,2.0798037,0.8365551,1.2826226,1.3713917,0.60920197,2.4459937,1.0683264,2.3259342,1.7161884,2.0762231,greater than 0.02356751225
1.2923188,-1.319007,-2.3099542,-2.0793102,-1.697422,1.5583109,1.9241105,1.1353624,1.1655669,2.2848475,-1.7037648,1.4347756,59.6247,-47.727978,71.15383,18.238956,37.465622,1.1396443,2.3875175,0.96918637,1.9413848,1.3466368,0.9974254,1.8606199,1.035914,0.8989827,0.79344016,0.46002144,0.8134838,0.97402424,2.097135,1.4814419,less than -0.023711622
-1.7806097,-0.27010077,2.335699,-1.6025465,0.371969,0.50560945,-2.650145,0.9165669,-1.3915176,1.2087674,-1.7574618,1.2867984,-36.172802,-33.402378,10.391027,-25.641165,35.398705,0.39318135,2.590986,0.7552525,0.7083286,2.0014365,2.4156985,1.5274094,2.438833,0.6217249,0.51520246,0.20586506,1.2985889,0.87703925,1.5155238,1.8767217,between -0.023711622 and -0.00016276260500000002
0.2679244,2.1402085,0.46707287,-1.4636309,-1.7197138,1.9766145,1.4881961,-1.4836124,0.37698466,0.7876982,1.8640985,-1.7051594,14.370944,-19.409956,43.049637,7.203053,23.034605,2.285564,0.46875322,2.017086,0.36352333,1.7026811,1.6099098,1.0156534,1.4150213,1.707206,0.34040585,0.72544295,2.4267602,0.5753357,1.0715207,1.4399313,between -0.023711622 and -0.00016276260500000002
2.002179,-0.580954,0.53792024,-1.2786578,1.4831047,-0.009729103,0.29563782,-2.0439992,-1.2557445,-0.8215247,0.84591883,-1.9137322,26.293686,-22.860691,68.305244,44.36903,74.981155,1.3535122,0.61136085,0.47449148,1.9972194,0.46875802,0.74529785,0.5651161,0.93602943,0.69499433,2.253,1.9270213,1.2754852,0.7480843,2.4862452,0.5148033,between -0.023711622 and -0.00016276260500000002
0.37623453,-1.9356121,-1.4021306,-0.020896805,-0.4113382,-0.8052254,2.2558084,0.8412876,2.318914,-2.18088,-0.9145424,-0.6522131,-55.779324,-39.384937,-61.112278,-69.17521,38.733906,2.3284864,1.4570093,1.1586261,2.4780924,1.9510198,0.91073436,2.3587267,1.7355759,2.2553346,0.38356072,1.2169338,0.3436505,1.6400388,0.24416143,2.1394038,less than -0.023711622
2.492902,1.360201,-1.5762383,-1.9309466,0.9029702,0.0041345046,-0.5680052,-0.3379443,-1.3137957,1.4050133,2.147757,0.19800496,26.95142,-4.690223,1.1668786,-18.903738,63.22581,2.0824597,2.390004,2.1794655,0.61314213,1.5309961,0.9135996,2.2183633,1.4322569,0.8624441,1.1507887,0.4159379,1.7031838,1.5257968,1.7758306,2.1642137,greater than 0.02356751225
-1.4861457,-1.6052595,-0.44544542,2.1710978,1.2059406,-1.1735221,-2.2063315,1.0717559,0.8837632,-2.0360658,-0.82155883,-1.054048,-24.294615,-41.412186,-70.42394,11.297034,3.180357,0.63189006,1.3206921,1.5654421,2.0463011,2.2458706,1.8850234,1.1999999,2.4382706,1.3617918,0.50352764,2.359794,2.3009875,2.3845115,0.61668843,0.41713667,between -0.023711622 and -0.00016276260500000002
-1.4727101,-1.1614122,-0.69306254,1.4520975,0.95527947,2.1905096,-0.35249415,-1.7699666,-1.2934474,0.6978368,-0.6398787,0.03237965,-17.931005,-32.563362,59.387234,45.423687,68.516205,1.6402198,1.3156731,0.7086338,1.8500533,2.2752182,1.7142777,1.4039228,0.3449276,1.1471883,0.6238679,0.7980812,0.9654741,1.7953384,1.7248747,0.5986946,between -0.00016276260500000002 and 0.02356751225
1.8574334,0.14148921,-1.402414,1.2653024,0.13645281,-0.13430165,-1.4933499,-0.8508891,-2.1420715,-0.7869686,0.5417054,-2.2401109,68.821945,46.617283,-29.209484,-57.24591,41.11413,0.3833751,0.45632702,2.0205834,0.72936183,2.3200827,1.7510209,1.4231936,1.9337457,1.3351821,1.7461263,1.9254702,0.36323953,1.0809696,1.0145684,0.26016107,greater than 0.02356751225
-1.3775672,-0.77841526,-2.085781,-0.13129337,-0.24826157,0.5287288,-0.11806365,-0.36136976,0.7546124,0.8641878,0.7316931,0.1356638,1.5273123,-12.614514,52.071228,-54.362354,17.61242,1.51266,0.76986325,0.94792134,1.2928277,1.3575724,1.3806763,2.2957737,1.2836677,0.53489333,1.2633659,1.8805125,1.5562683,1.9285506,1.27992,0.66031736,greater than 0.02356751225
0.87723935,0.85300434,1.0992609,1.1587087,1.7244686,-0.6825623,2.334221,0.626816,-1.3938843,-0.12207281,-1.1248963,-2.1433854,-17.632446,23.414246,0.18161117,-56.142696,-31.71805,0.39089826,0.51116854,0.8009243,2.1082222,0.535292,0.7381838,1.7107155,1.3751894,0.4819276,0.4318583,1.2826592,1.6559004,0.39243916,2.467418,1.4160441,greater than 0.02356751225
-0.2522073,0.3440954,-1.0272765,-1.7204264,2.0974092,-1.9689926,-0.36077207,-1.3618934,-1.8368374,-2.0229497,-1.9360213,-1.2750484,32.720257,18.331694,-70.39816,-2.0213048,-23.600975,0.44979244,1.0864189,2.360028,0.87899417,0.42362034,2.3618295,2.4388478,1.8135507,0.42735574,0.817606,2.0609226,0.38149175,1.2592044,0.27023727,2.3194578,greater than 0.02356751225
0.49594522,-0.23406778,-1.2282293,-2.114937,-1.8900287,-2.0675476,2.025766,-1.9323568,-1.4693705,-2.0830712,2.1086571,1.2778403,39.49482,25.091377,-12.028778,72.1464,30.118196,1.885469,0.9557203,0.46891615,0.76926774,0.7547895,2.3601022,1.6865816,1.8310099,2.2214458,0.98509324,0.5395685,2.191037,1.5762736,0.31304187,1.1293156,less than -0.023711622
-2.2547877,0.5954942,-0.7506268,0.27746665,1.6489378,2.0052083,1.6321826,-0.7480689,0.59270155,0.20017877,0.9894809,0.94388,67.14274,50.55711,-41.206554,11.71195,50.360947,1.0826887,2.27315,2.4079435,1.6993214,1.9602621,0.85696685,2.4347177,2.3346019,2.3249552,1.534658,1.6666636,1.9740406,1.3551261,0.6242244,0.9717898,between -0.023711622 and -0.00016276260500000002
1.7210835,1.180978,1.53231,-0.10728095,0.6463822,-0.45392346,1.5754393,-2.3008285,1.2687148,0.37805343,-1.2203871,-0.2988886,49.093758,-18.737797,-49.232365,7.898771,-62.41693,1.4432119,1.8056233,0.48408905,0.59495956,1.3113152,1.8830924,0.50209874,1.1438934,0.8078142,1.1483787,0.53286374,0.43925315,2.1768303,1.0566067,1.3447609,between -0.023711622 and -0.00016276260500000002
0.30006096,-1.3418034,1.856977,-0.8935627,-1.7476127,-0.35550857,1.4197669,-0.70463157,-0.71329224,-1.0764537,-1.8740373,-0.36224866,-19.515781,70.97172,-9.084193,44.11546,48.143578,1.5012317,1.4343361,1.0623882,2.5136123,2.4939096,1.4568529,0.78367174,2.531744,0.48373803,0.34193948,1.2500372,0.91060543,1.2410892,1.6071172,0.75819457,less than -0.023711622
1.3002152,-2.1040556,0.40518737,0.7076743,-1.2412008,-0.13573098,-1.7008767,0.94793624,2.2113287,0.9135883,-1.7475652,0.06681049,45.292976,-44.60411,15.0312805,-55.795624,-25.856472,1.6905714,1.0263586,1.3265345,1.1481966,2.3968053,0.72289485,1.6911361,0.5201644,2.272371,2.3216798,1.4230922,2.0256302,1.4238652,2.3530746,1.3964579,greater than 0.02356751225
-1.4537625,1.7764169,-0.50047916,2.1452463,2.1916983,2.1503012,1.4204466,1.1872069,1.0895741,0.52733636,-0.54639685,-0.41063878,-7.9796386,-7.4840765,-65.02556,18.754126,-19.469828,0.5555825,1.48343,1.4344449,1.2569773,0.6902067,0.52432716,1.285269,1.8808186,1.4474435,1.9998851,1.9771073,2.0179667,0.49661785,1.4324719,2.388153,greater than 0.02356751225
-1.3447853,0.3012816,2.3290775,-1.8998371,1.9868467,-0.73021555,1.765741,2.3473756,1.1775455,-1.0332673,-1.6061766,0.2894858,-25.612917,-70.66816,-59.087017,31.072485,60.482494,1.4043123,0.8475635,0.5655418,1.983996,1.904365,1.7158759,1.7420095,0.86391014,0.9394724,0.2433245,1.4639275,1.9591682,1.5579584,1.412668,0.36993137,between -0.023711622 and -0.00016276260500000002
1.7060517,1.7118032,0.82829475,-2.1822674,-1.6875597,-0.11313379,-2.0803351,1.9259263,-2.2860954,2.246669,-1.5409601,-1.6690478,35.919052,27.793346,20.748531,-6.634756,1.3262348,1.542603,2.3759043,0.3497435,1.4225441,0.5088656,0.39939228,0.54762965,0.8543695,1.358325,2.3097513,2.0403857,1.441076,0.6581938,1.5506166,1.0752672,between -0.023711622 and -0.00016276260500000002
0.8836938,-1.1414609,-0.4478076,0.3497344,-0.39635107,-0.0067165056,-1.1548238,-0.19627494,0.90346295,-1.123711,-0.020379722,-0.5447462,-60.420666,-8.256217,53.114315,74.505974,35.024235,1.6054688,1.3312949,0.700638,2.207785,0.9193179,1.5761418,1.7200477,1.0586841,0.59517103,1.4044442,1.531816,1.6096737,2.4051638,1.1984514,1.4333339,between -0.00016276260500000002 and 0.02356751225
-1.686048,-1.4348255,-0.7669671,0.8103946,1.3549819,-1.491456,0.84246874,2.1127007,-0.97108555,2.4313924,1.2111564,-0.71826184,-29.483164,56.493206,-73.76444,-36.671616,-65.35368,0.58401656,1.5137393,0.5607793,1.1656426,2.4299648,1.6832724,1.5701324,1.0932715,1.4385774,2.2928407,0.5169461,2.1008153,2.3656933,0.21797045,0.35401326,less than -0.023711622
-1.6683533,1.2176017,1.718509,-0.82465875,1.3948712,-0.5903105,-1.3946785,0.49800992,-0.077470616,-2.1507936,1.4781896,1.1639968,-45.79113,-4.6113334,32.54713,-0.28566596,-45.323284,1.3826258,2.4158604,0.9120475,2.0462527,0.7893358,1.8895892,1.6695371,0.46727252,1.7265233,1.5224506,0.5849455,0.36793983,1.6754001,1.5005212,1.9256934,greater than 0.02356751225
2.1759107,0.5950211,-1.2310681,-1.3304325,0.7688793,2.0775478,0.8932682,-2.5029402,1.6010114,-1.5540476,1.248529,-1.9524188,-46.91812,17.938013,42.35,-10.435433,48.38783,0.87321323,0.2596111,1.9863594,1.9186976,1.877087,1.5696031,1.7930394,1.691853,0.83415985,1.4918381,1.2015213,0.56131315,0.28305218,0.9123515,2.0164232,greater than 0.02356751225
0.5010233,1.4673364,-0.34324643,-0.7067867,1.2369136,-0.1783745,-1.2766374,-0.7312152,1.2317913,-1.558665,-0.15107778,-1.5533841,35.18178,-45.013325,50.75228,44.092915,63.43046,1.0833551,2.4243145,2.1431828,1.9876848,1.8033172,0.6449031,0.3795825,1.7687114,1.7675165,1.1182774,1.2354653,0.9569704,1.9647334,0.29180962,1.0899436,between -0.023711622 and -0.00016276260500000002
