JessupByun/synth-gen2eval-research/LTM_data/LTM_real_data/pumadyn32nh/test/pumadyn32nh--test--999.csv
theta1,theta2,theta3,theta4,theta5,theta6,thetad1,thetad2,thetad3,thetad4,thetad5,thetad6,tau1,tau2,tau3,tau4,tau5,dm1,dm2,dm3,dm4,dm5,da1,da2,da3,da4,da5,db1,db2,db3,db4,db5,thetadd6
-0.8220339,0.80073011,-0.71189052,0.01165174,-2.0895457,-2.2720497,-1.8506541,-2.1761138,-1.0938842,-1.8831108,-1.0394972,-2.003259,39.615291,-35.805092,23.82599,-56.583515,0.8573474,1.5165667,2.4367219,0.98490453,1.5404609,1.2763691,1.9346573,0.28526419,1.1853129,1.5546434,1.1418005,1.4917929,2.3131963,1.6394917,0.68732167,1.815274,between -0.023711622 and -0.00016276260500000002
0.28007803,-0.40517613,-0.39306449,0.53448062,1.2023498,1.1689011,-0.22814426,1.4640924,-1.0938747,-1.7227158,-0.76692962,-1.4022116,-9.9711488,-35.097766,61.851191,32.971872,58.255396,2.1017219,2.3903819,0.64860829,1.4095157,0.9800221,0.48140184,1.4207285,0.43412978,1.169154,2.2204772,0.30978944,1.6312009,0.84412328,2.4300053,0.59896852,between -0.023711622 and -0.00016276260500000002
-1.3950907,1.5587765,2.1859115,0.8300049,1.2210539,-0.2012723,0.7117148,1.7474626,1.9956591,-1.7418695,-2.2395294,-1.9203801,-21.551244,38.238081,67.428031,12.91665,40.134405,1.2092729,1.5004383,1.3663783,0.47041395,1.2471857,1.9497447,1.8594169,2.4696313,0.59241879,2.0325667,1.0992318,1.5383284,1.4346364,2.4345078,2.0233773,greater than 0.02356751225
-2.2882595,-0.97020432,-1.3581266,0.77928865,1.7752831,-1.6639538,1.9570836,0.22817105,-1.0137767,1.4538693,1.4446095,1.3235136,57.829102,-66.279091,-52.687637,-71.122247,-1.6045824,1.8517528,1.9091019,0.52589974,2.2968628,1.6227908,1.2447467,1.4571596,0.73072555,2.3042909,0.46731141,0.85289306,1.3236438,2.2321394,0.5666976,1.7365961,between -0.023711622 and -0.00016276260500000002
-1.0097608,-1.7370117,-0.70524242,-1.3510623,1.69791,-1.4551131,1.2134647,-0.51813246,0.24261471,1.4089439,0.36610137,-1.3143198,60.674181,50.966582,-54.664258,7.8174014,-12.933837,0.94003197,1.1173884,0.69700826,0.36783424,0.69010137,1.2836916,1.2541574,2.1230597,1.0147234,0.95613701,1.7947622,0.31761839,0.46227673,1.7349517,0.83317428,between -0.023711622 and -0.00016276260500000002
-0.82585583,-2.1733751,-2.1883133,1.2141379,1.3713741,0.38921135,0.6791724,1.4443965,-2.2552611,2.2841755,-1.6960129,0.35129804,-11.369676,9.8547377,28.576671,-11.893111,62.487802,0.36219913,0.48071035,1.0488167,2.4621775,1.317262,0.72205,0.49440035,1.6367181,1.3209502,1.9596944,0.33413794,1.3563068,2.1978686,0.57747799,0.67250532,between -0.00016276260500000002 and 0.02356751225
0.78980842,-0.48958794,-0.67329327,-1.5939686,0.10063994,-0.29213643,0.3722878,-1.0115171,1.7321965,-0.11207997,1.2275436,0.48619199,4.6581449,-10.559238,-19.110681,-43.210045,68.769761,2.3256285,1.3387298,1.5310579,0.74030249,1.2639114,1.8090093,1.2695632,2.2988113,0.62184946,1.6738801,0.40322389,1.4839028,2.4536475,1.9535012,1.9942564,between -0.00016276260500000002 and 0.02356751225
1.4841792,1.9242742,0.1502691,-0.26771637,0.82246781,1.7795987,0.18228428,0.59904974,-2.1462504,1.3070663,-1.2942673,-0.36256133,-14.302674,64.951417,-61.537079,-3.6897924,-64.340751,1.0000259,1.4348037,0.74624253,2.0981812,1.3813917,0.79983348,0.55129544,1.6224596,2.4279265,1.6609468,1.2822001,0.93729255,2.3258207,2.31851,0.94681549,between -0.00016276260500000002 and 0.02356751225
1.0119587,0.97736294,-0.84913561,-2.308359,0.50905705,-1.9765184,-1.7152588,2.0405406,-1.40168,-0.80326491,0.52105101,1.6856038,-29.884162,-63.104283,56.320105,72.000745,66.520164,2.1908911,0.307206,0.9613104,0.99389717,1.9298154,2.1580208,1.3558154,0.68967354,0.84322068,0.75995419,0.79999703,1.0500063,2.20634,1.2065426,0.61175479,less than -0.023711622
2.0234117,-1.8306309,-0.22581441,-1.7897069,-0.42492094,2.3353835,1.302599,-0.97787714,1.6317238,-1.7220635,0.77113883,1.4606851,-57.667778,-72.340629,71.049306,-24.307724,60.08086,1.0601724,2.0678105,1.6910747,1.3927169,2.1423658,1.4919486,0.43040066,1.493918,2.0297089,0.31791533,0.95295479,2.3111214,0.51810366,1.7682974,1.0236541,between -0.00016276260500000002 and 0.02356751225
-1.0953987,0.93846259,0.3747737,-1.6424208,1.008249,-0.10991563,-0.095460824,-2.1978111,1.8058084,-2.2752691,0.58824361,0.018273935,26.252615,-72.301483,-21.028527,-26.455026,-29.629879,1.5343242,1.6367046,1.0941772,2.0865141,1.0421247,2.4894092,2.250781,1.1255745,1.0312282,1.6023333,1.6663108,1.4359868,0.38029389,0.849436,1.7209172,between -0.00016276260500000002 and 0.02356751225
2.3219019,0.91137012,2.133379,-0.86620084,-1.6678745,2.0348418,1.780055,-1.5738489,-1.0395016,-2.0772421,1.8816519,0.08021931,16.001294,-16.245253,-33.961819,-46.287238,-49.611846,1.7305768,1.5540751,0.5897423,2.048862,0.47317452,0.39409208,1.0055536,2.0899779,0.75904786,1.3174328,1.342952,0.49488263,0.74232829,1.5616054,1.1519827,between -0.00016276260500000002 and 0.02356751225
-1.8278048,0.14802188,-0.33762964,-0.825075,1.5253238,0.72067332,1.5167578,-1.87526,-1.0379012,1.2593046,1.7929534,-1.5594197,36.298733,22.804362,22.918393,-10.568912,-31.69998,1.6514993,2.2483533,0.82415628,2.09455,1.1025929,1.7793258,1.8788542,0.65179122,0.90504269,0.30255257,1.5009643,1.2069139,2.3526425,0.86274804,0.45637573,less than -0.023711622
1.4545733,-0.86064961,2.0961821,0.71327674,-0.27538126,-0.76693079,-1.4219429,-2.0696387,-2.2752945,0.16267495,0.89224592,1.1554996,23.117677,38.798598,38.037318,-6.803854,-52.373579,0.73394396,2.3961931,1.5679517,2.0647108,1.3438694,2.4137184,1.3645093,0.55753369,0.71866188,2.0502268,0.91130017,1.9719918,2.2654526,2.4626793,0.75153273,between -0.023711622 and -0.00016276260500000002
0.19828288,0.88131332,1.1944672,0.63345414,1.1769918,-0.90818717,-0.47391781,-1.1992314,-0.59480781,-1.9577709,-2.3555962,-1.7259124,65.46123,-43.106705,5.6050622,4.2808656,-51.491438,0.37596907,2.4121332,1.7235288,2.3478499,1.3128967,1.604534,0.40323105,1.604333,1.524247,1.0192978,1.3378239,2.0560657,2.2960582,1.6006032,1.8387976,between -0.00016276260500000002 and 0.02356751225
0.17265061,-1.0927973,2.2478997,1.2274596,-0.92583,-0.11640803,-0.82825174,-0.029948924,0.87406083,1.8239646,1.2833022,-0.14452957,-70.925218,9.8547339,28.513277,-27.349195,-57.915308,0.8862081,0.999491,1.4452756,1.2462566,2.0851989,1.4375367,1.6792135,2.2912157,1.211861,2.2474049,0.63362651,1.6107181,0.8392951,2.2828278,1.9871757,between -0.023711622 and -0.00016276260500000002
-1.4778434,0.88908498,-0.13423068,1.2192945,-1.497746,0.96509579,0.32199603,1.9646744,0.57276564,-0.93855369,-1.9058841,-2.0863737,-25.336201,24.464703,28.259437,56.365439,-66.066989,2.3067392,1.1159857,1.8712311,0.78153005,1.1754778,0.50615423,1.1841962,0.78494572,2.3327416,1.6382655,0.32787153,1.7868185,1.8080215,0.41757414,1.9186233,greater than 0.02356751225
1.5226302,-2.1395686,0.51113783,0.0084784906,1.1263218,0.42459776,1.6575761,-0.762737,-1.6226683,-1.5913371,1.9165624,-2.2270898,-6.156462,28.342723,-43.857113,-6.5064311,-3.5881819,1.2764112,0.39343287,1.1762029,1.4423042,0.80721573,0.87473869,1.7331047,1.2912522,2.3254131,2.2180752,0.44066265,0.71713532,1.1432557,1.1977196,0.82338614,between -0.023711622 and -0.00016276260500000002
-0.092908695,-1.7156863,-0.43124776,-0.32680085,2.1036587,-0.86343896,2.3394739,-0.63602802,-2.0247538,-1.8764275,-1.8099041,-0.58671193,68.840358,49.896643,-37.123898,58.638432,36.127166,1.2142346,1.641291,1.6785827,0.68960609,1.95962,1.3334528,0.59161034,1.9449605,2.4517961,2.3368979,1.743125,0.9514686,2.0827787,1.2619019,1.7849819,between -0.00016276260500000002 and 0.02356751225
0.89161671,0.0050493375,0.041213026,-0.053857345,-0.40171049,1.305263,1.3842883,0.66837163,-1.0134049,-1.7231004,2.1938812,-1.8827655,1.668876,-1.20102,64.456349,17.859225,9.9995792,2.318922,1.1216848,0.90713337,1.6905107,0.91282166,0.54361045,0.71080018,0.41854242,2.4424625,0.71759039,2.0416044,2.2444492,0.45802119,2.2122068,0.81000823,less than -0.023711622
-1.7455431,1.9916079,0.85460211,-0.063907849,0.3254729,-0.8606307,-2.2983304,-0.58641896,-2.3381259,-0.26983479,-1.7950734,-1.0836799,-0.79279899,25.427308,6.7593557,54.491211,-66.22144,1.6188284,2.1487756,1.2212386,2.3575193,1.8273683,1.5784112,2.3569524,1.2985719,1.5986711,0.86484953,2.0260269,1.4343244,1.690995,2.3031927,2.2593517,less than -0.023711622
-1.5656178,0.64086974,-1.4235376,-0.59768483,1.5242967,2.3087527,1.3961301,1.7732463,1.8027527,-1.7963391,1.2045895,1.1131612,22.794228,2.5974233,4.893512,45.256017,-32.130192,1.192866,2.4989887,1.252928,1.7107288,0.96831782,1.7676551,1.4799972,2.062648,0.42560502,1.8935631,0.36452032,1.2430558,2.2890454,0.73548807,1.3480149,between -0.00016276260500000002 and 0.02356751225
1.2694183,2.1288988,-0.76821936,0.48294964,2.2007174,-0.083459038,1.5958653,-1.2098765,-0.43520897,-0.92945821,0.1652954,-2.1896946,49.658728,14.236129,16.611892,46.077134,-31.604875,0.87787108,0.37922807,0.93609768,2.4937524,0.99679289,1.0981318,1.051278,1.0799118,0.82829017,1.8229044,0.80493135,0.73114989,0.43617555,1.802517,2.4034151,between -0.00016276260500000002 and 0.02356751225
2.2328146,2.1614355,-0.55982658,1.6354639,-0.12350512,-2.2993489,1.1455328,-1.8512723,1.5708195,1.9605598,2.1045595,0.13970275,38.655378,30.943927,24.576147,-48.698261,-71.679202,0.43967414,2.1031895,2.3062118,1.2522762,2.0056119,0.31860866,1.3558062,0.5348347,1.7167356,0.67535855,1.0011245,1.8997896,1.5130579,1.9640943,2.2824801,greater than 0.02356751225
0.30514457,1.4855961,2.1772829,1.8928471,-0.25697349,2.3072775,0.16393356,-1.5162921,0.27789909,0.67253345,-1.751485,1.0851324,27.832697,-65.862182,54.31398,-44.940711,-68.527178,0.83073221,2.3661869,1.2525298,1.7688661,1.582175,0.36516284,0.79187229,1.7475875,1.7034475,2.3413927,0.78757688,1.5545611,2.0079537,1.4274001,2.3135337,greater than 0.02356751225
-1.8576623,-2.1539035,-0.083138589,2.2692674,2.2126286,2.1868151,1.8794321,0.47260807,-1.9639813,1.6514719,0.31686687,0.58190032,57.024139,54.702124,28.604946,13.328727,65.906527,0.49010226,1.3987174,1.7435568,1.4597178,0.97711168,1.0659561,0.27450399,0.33857706,1.7146466,1.5661213,0.55006519,1.1957242,1.0362219,2.2808694,0.57186733,between -0.00016276260500000002 and 0.02356751225
0.65004997,2.0722034,-1.744306,-0.77939562,1.1391622,-0.53754229,-0.82355141,-1.1420506,-0.88448596,2.031727,1.2648235,0.30250882,-12.796782,24.477524,-56.254007,-11.0985,67.511136,2.2698737,0.26780414,2.4841438,1.5050712,0.48240918,0.35106116,2.2849126,1.0264511,2.313822,0.90717523,2.3940915,2.2455535,1.0175691,1.5343474,2.0272267,less than -0.023711622
-0.25657159,-0.36276432,0.85146367,-0.97549827,-0.79811942,2.1782927,0.015547696,2.1287365,1.2178969,-1.4248013,1.7246626,0.49898322,-52.245541,9.1865524,48.38559,66.604083,-35.180861,1.6039859,2.4414731,2.0888527,2.098141,0.70494684,1.0414976,0.94989014,0.30358222,0.80644613,1.4400336,0.89545377,1.1415165,1.2185196,1.6594744,1.2870049,less than -0.023711622
-1.7010698,0.18349134,2.0365684,-2.188078,0.45685623,1.9010488,0.92996833,-1.0165927,1.2490213,-1.3922256,-2.1235913,0.43510351,-26.833548,58.554428,-25.72676,60.337756,-53.335547,1.2168662,0.87011902,0.59036019,1.1837007,1.4575284,2.4296326,1.0855409,0.93517728,0.52448355,0.99510511,1.9815073,2.4431488,1.0010505,0.65635949,1.1838911,less than -0.023711622
-2.0814933,1.1186057,-2.0261173,-1.2306119,-0.21877392,-1.2698787,-0.44195411,-1.1976911,1.7307966,-0.07815531,1.2002363,-1.3651786,2.0991393,30.235041,-39.67287,-31.92038,64.16967,1.3695634,2.2517936,2.3943236,1.6472881,1.2218567,1.4948586,2.0880454,2.0298522,0.47565674,1.6129036,1.5715668,2.0732767,1.3118592,2.1677922,1.3340975,between -0.00016276260500000002 and 0.02356751225
-0.49158204,-1.2013841,0.9235916,0.19468219,1.6256507,-0.11978362,-1.0131716,2.1980765,-2.0584119,-2.0813655,-1.4459874,-0.92044803,25.559909,-14.601386,-5.4958048,32.008414,65.416787,0.77411049,2.4750368,1.4429187,2.1338908,0.80313553,2.0487921,1.5481215,1.7776958,1.4835779,1.4945084,0.70283099,1.4804577,0.80251244,0.57657584,1.2601319,between -0.023711622 and -0.00016276260500000002
1.6143809,-1.0364675,1.7922762,1.1951225,2.221238,0.80218708,0.21334629,-0.41693523,-0.10804571,-1.6545336,0.060603799,0.69203507,27.291002,-20.137449,-50.106558,-40.914926,-57.156365,0.9695118,1.5848964,1.1033746,1.4170488,1.589614,1.6424859,1.5110208,1.4764836,1.5106552,2.0813555,2.0913164,0.75546106,1.7841075,1.2440717,1.3627884,less than -0.023711622
0.28361752,-2.1779373,1.2452933,1.9247081,-1.9813854,1.3087179,-1.8105634,-2.2434262,-1.4403619,-0.62062017,-2.2463077,1.9669481,34.6514,-63.92271,-48.979755,-2.7370291,48.752375,0.34250643,0.255554,1.3461471,2.4437094,1.423328,1.3739185,1.1986575,0.83690692,0.39452413,1.5170958,2.3288352,1.2340414,1.5339979,0.65203198,0.45147322,less than -0.023711622
-0.68107628,-0.45616625,0.27070721,2.3206443,-1.374151,0.062346819,1.7126397,1.0627172,1.1330172,-0.1435174,0.64614941,-2.223455,-11.553362,72.640858,24.898574,-29.662662,59.633869,0.87147852,0.93952351,1.5715625,2.00173,0.32628446,2.1128381,2.469254,1.0019679,0.32464933,1.6313113,0.44977696,0.90130296,0.4487756,2.0715196,1.0297259,greater than 0.02356751225
-0.56238988,0.96550465,-2.2310596,-0.93927684,0.077220349,1.9354392,-0.69381474,2.2184644,1.3103943,-1.9091096,0.25128597,1.0627713,65.045321,16.707414,1.5151305,-35.20127,-27.749949,0.72417868,0.27111932,1.9524614,0.26942562,0.48634421,1.2371646,2.2748245,2.4754318,1.3323055,1.5591642,0.62194251,0.9877824,0.40885515,1.628509,0.60159657,greater than 0.02356751225
0.67737398,-0.50722938,-0.29254852,-1.8412236,0.81324628,2.3021113,-1.8411688,1.735158,-2.1742331,2.2408859,1.1571726,0.57136302,-30.253289,32.974676,-44.613817,25.585216,-39.277349,1.6090125,1.4236465,2.2275425,2.056868,2.2797518,2.0379413,1.429464,1.0007634,0.33024062,1.1041393,0.76879631,0.90959509,0.31470763,1.0411784,2.3355597,less than -0.023711622
-0.30580231,1.5970016,-0.96150852,-1.2918232,-1.6967469,2.1532804,-0.96330752,1.4591295,0.31755857,-1.9297812,1.5415452,0.035471006,-73.599877,56.870029,14.582045,-19.57479,-43.500277,1.2376637,1.6635223,1.8194219,0.77470294,1.1823914,1.9517464,1.7511278,0.45426696,2.1147167,0.29384074,1.3313859,1.8524331,2.0937913,1.8508841,0.80823721,between -0.023711622 and -0.00016276260500000002
-0.65815138,-1.5732826,-0.94561527,1.9321406,0.41523161,-0.25036238,0.32286216,-2.3278443,-1.8252218,1.1494666,-1.7095155,-0.39144266,-15.334135,-20.805549,-28.859544,57.650839,-62.347075,1.8657247,0.48535727,0.39966798,2.4697357,2.3481747,2.2726521,1.963805,1.9209489,1.6375266,1.4099299,1.1920119,1.6443024,0.54091638,0.43155801,0.69541375,less than -0.023711622
0.85465294,0.79029059,-1.8106003,1.8483679,1.4513433,1.4021418,-0.85978091,-2.1531121,-0.91994791,-0.21633842,1.9644892,2.173034,37.148376,52.748407,42.476349,49.994616,-40.488286,2.325729,0.77732371,2.4796143,1.8778033,0.99042481,2.0698517,2.2467278,0.50407191,2.1865668,1.8785142,1.6883734,0.99163574,2.1718358,1.7936823,2.4191075,between -0.023711622 and -0.00016276260500000002
-1.445948,-0.25758768,1.4093139,1.871352,1.3297531,-1.7014201,-0.99163843,1.2526718,-1.2984446,0.11539779,-2.0135871,2.0200915,-34.512253,2.5662836,-68.472236,-12.866472,53.203449,1.980561,2.2893344,1.0938672,1.3765294,2.3298245,2.1099439,1.0778975,0.7235064,2.4719865,1.9277367,0.97003427,1.3659829,0.57456444,1.2045838,1.4398429,greater than 0.02356751225
-1.7816338,-1.3989046,-1.2810454,0.37531732,-1.9307312,-0.28898254,1.5434828,-0.38512542,2.0195738,-0.36061877,-0.78742563,-1.8742385,63.479902,-43.284606,15.62169,53.736876,5.6790341,2.0878817,1.5284471,1.8598927,1.4671554,2.2304509,1.4375529,1.9508903,0.86245549,2.2894103,2.3694343,1.8327388,1.8409531,0.39905776,1.2137445,2.4033115,greater than 0.02356751225
0.93127416,2.0810458,0.7852355,-1.9485335,2.1008553,-0.85636936,-1.3638249,-0.745907,-1.5042115,0.68483347,2.3421744,2.339688,-55.717835,0.34976701,28.534065,22.026973,7.331412,2.4106217,1.0696037,0.82980445,0.27337094,1.5453184,1.9166254,0.97306317,0.52269175,2.3802262,0.96226259,1.2474155,1.3126508,1.971853,2.1832377,2.1752705,greater than 0.02356751225
1.2783071,0.72593472,0.40973327,1.5866889,0.070870506,-1.1138101,-2.1975212,1.9660128,-0.49419292,2.0413203,2.277767,-1.0172982,-37.678467,38.005534,59.014747,60.857608,-16.178435,1.960641,0.49304135,1.2959368,2.3100594,0.66879287,0.9017774,1.6727208,1.1690804,0.9847776,1.6570729,1.4235836,1.1687815,0.46046571,0.54725857,1.274782,less than -0.023711622
-1.9817085,0.59050552,0.33503105,-0.43800281,-0.76166166,2.3132791,2.0734957,1.1252979,2.0642367,1.0177741,-0.24212395,2.126932,-26.628308,58.019244,-20.563559,-11.729839,-43.407912,2.0232743,2.4205622,1.6389224,2.3692742,1.3906419,1.0185477,2.2304411,1.2733282,0.32771275,1.3681772,1.4543671,1.0481081,1.8026525,2.4302488,2.4412714,between -0.00016276260500000002 and 0.02356751225
1.5841114,-0.83667546,-0.23574203,1.0028067,-2.0435365,-1.8276966,1.9675778,2.2462478,1.7392931,1.3505346,-1.1434301,-0.50760584,-60.713547,37.413292,5.2066626,58.3786,19.136385,1.7532788,0.60627598,0.93047711,0.27872608,1.5491617,1.2600282,1.7932119,1.261884,1.483968,1.3006736,0.9210341,1.3200711,0.68532498,2.0068905,1.5584373,between -0.00016276260500000002 and 0.02356751225
-0.75295985,-2.2317528,1.5462192,-1.5193121,1.357582,-0.50639445,-0.396977,0.75028411,-0.32794663,1.6960759,0.70648294,-1.3614112,67.582144,53.088384,56.463544,-67.22434,-39.484295,1.1869148,1.4766689,2.3734566,1.9346781,0.63512638,2.0690563,2.3793615,2.1786479,1.5356069,0.69570268,0.92497036,2.2267598,2.4025041,1.8867699,0.94143028,between -0.00016276260500000002 and 0.02356751225
0.95986008,1.860859,-0.66807612,1.2675081,-1.7020301,-1.8192333,-1.8743506,0.11010871,-1.3717043,-1.2278398,-0.7525396,0.11891862,19.48878,-52.07317,56.227877,21.926485,-31.570117,0.64074955,2.0777538,2.3078506,1.7944494,1.8114092,1.1049153,0.31155221,2.0079492,1.3515215,0.52179322,0.7786402,2.1058618,2.2188277,1.8377193,2.2978053,between -0.023711622 and -0.00016276260500000002
1.0350344,-2.3173921,-0.51459436,-1.5537134,-1.9131786,-2.1634405,-0.15056656,-0.019321424,0.41967299,-1.0023159,0.86724479,0.36399931,33.597989,-68.604548,13.363837,56.002247,-20.227649,0.38359226,2.2851591,0.66881727,1.3118283,1.6478239,1.2265289,1.2704645,1.6973262,0.71171243,2.2508811,0.55900895,0.76349777,1.8570255,0.52772476,1.4700279,between -0.00016276260500000002 and 0.02356751225
-0.023836965,-0.074800254,1.0399879,0.82626655,-0.34836863,-2.2444211,0.68853895,-1.3532679,2.3279223,-1.5751662,0.38335762,1.2558621,15.428964,-35.41031,58.919714,-36.363874,-67.635158,0.71347389,0.35570573,1.5961781,1.7158769,1.9930151,2.3554101,2.3768093,2.0342198,1.8824768,0.786845,0.50387999,1.2109424,0.30932214,0.52714003,0.64240122,greater than 0.02356751225
-1.9845668,-0.32488986,1.2349962,-1.4918616,0.90352152,2.168959,-1.3480287,0.84755243,-0.73815634,1.5266401,-0.71804468,0.25121943,-1.7687872,-28.007159,-16.320324,54.322583,-50.342278,2.085085,1.7729094,2.0377977,1.2664045,0.96088749,0.63597883,0.64620158,1.4598966,1.7326899,1.0686968,1.3364985,2.2807024,2.2655563,1.955105,1.9498804,less than -0.023711622
-1.6682571,0.31730473,-1.4837374,0.78853082,1.5996722,1.5113733,1.8749508,0.55369809,-0.96442658,1.5004979,-1.8376863,-0.9956213,9.1048375,25.004529,-48.881515,-1.6262984,-33.196863,2.2797711,2.3631152,1.3772546,1.0184926,1.3052468,1.2837029,1.4445495,0.29283188,2.3753964,0.78789631,2.4233467,1.1877442,1.9166554,1.476919,2.0768391,between -0.00016276260500000002 and 0.02356751225
-1.8655604,1.7628438,1.3262605,0.86044472,-0.82743621,-0.4604783,-1.5160051,0.38938382,-1.1344888,-1.027088,-0.78731155,0.043051797,-68.001936,-58.542662,73.485415,-30.622507,-22.481898,1.3260734,0.31608208,1.6415388,1.3431542,1.6432017,2.2914691,0.970977,1.4603657,0.61666904,2.3564985,0.41947024,2.286247,0.95260308,0.90000366,1.1115149,greater than 0.02356751225
0.6083527,-1.3002236,-1.5104961,-1.2678731,0.28013028,0.47295801,-0.79486309,0.35880965,-1.3440316,2.0544664,1.7427016,2.0875984,-69.482818,-47.722302,-18.734275,-16.964027,35.601692,1.4895381,0.4171591,1.6930215,0.36243839,2.2521004,0.8014627,0.93355836,0.31528514,1.7473887,0.61253477,0.37192796,1.9932436,1.6948957,0.3624144,1.8488996,greater than 0.02356751225
1.386713,-0.99010764,-1.2936963,-0.19170458,1.2951065,0.33049316,-1.3080342,-0.83661848,0.7219442,-0.68543159,1.7424035,1.7913035,-32.341972,28.478997,-3.5041944,55.004288,7.0690431,1.5161011,1.3608007,1.2272997,0.72667056,1.6521657,2.1981695,1.1343495,2.2624027,0.70278013,0.62568317,0.85702036,0.94120033,0.50401107,1.1639754,0.68399987,between -0.023711622 and -0.00016276260500000002
0.42524687,-1.5699636,-1.7122963,-0.0037622058,-1.9703363,-1.4848533,0.88322897,0.40406605,0.5855339,1.6000472,-1.6111971,-2.0022242,-6.7567393,-10.51719,-62.40832,53.368591,-34.088801,2.4179141,2.132184,1.3664086,0.97935883,0.58377974,0.8360444,1.6481708,0.30669654,1.3988261,1.3204369,2.3323374,1.5939517,0.29631302,2.382856,2.4103447,greater than 0.02356751225
1.254701,-0.18040689,-2.0324325,1.0154303,-1.9357556,0.089859402,2.3024929,-0.13978547,2.1076584,0.38721575,0.12592876,0.6219497,32.781808,13.844128,28.262724,-38.395264,-9.2044957,0.62560799,1.8434276,1.4878068,0.56902538,0.3595634,1.1820262,0.3136267,0.87387832,0.77293858,0.77870087,0.87551247,1.2380182,0.87151613,1.5715928,0.26063967,less than -0.023711622
0.75195817,-0.46625045,0.43154755,0.65296927,-0.69935376,-1.3405344,-0.43061241,0.92665772,-0.10921109,2.3209631,-0.72995862,-2.0660041,72.064354,-64.398578,53.09932,-59.734957,-15.423577,1.0142039,1.2241629,2.0060774,1.3923815,1.0062882,0.93496409,1.4414778,0.41723971,0.79774254,1.4089526,0.5165564,0.51334825,0.59405269,2.493561,2.2793216,greater than 0.02356751225
1.8861797,0.78122558,1.3425529,1.367528,1.7223585,-0.52677224,1.1178807,-0.074693524,-1.878588,-0.42280065,0.27206885,1.6438488,-18.149137,67.459839,-52.493415,43.17576,-45.009286,1.0590437,1.0980356,1.6842308,1.1169302,1.9957435,0.96123454,1.9689816,1.1741269,0.30103524,0.74932508,2.1566991,1.6417678,0.69197285,1.2376192,0.91549554,less than -0.023711622
1.070543,0.71498241,0.11747358,-0.11245729,-0.40173754,0.8505953,-1.433024,0.18576635,-2.1388476,-1.5087,0.64421653,-1.7226795,-4.9655569,-56.114693,-69.646825,45.817531,-44.755649,2.0021515,0.66048303,0.7383005,1.3665479,1.0712061,0.76132132,1.2774795,0.34855813,0.71650301,1.7660949,2.2574848,1.2969585,1.4808123,2.2617741,1.3878684,less than -0.023711622
-0.42361888,0.65716096,-0.93555861,1.3085188,-0.44371428,2.2058322,1.0572657,-0.95410198,0.66764452,0.90331391,-1.3204902,1.8738911,50.685308,17.966483,12.684386,36.475641,-3.9012148,1.1092442,1.0670735,1.0544679,0.69232959,0.48345545,2.1857565,1.7601621,1.544737,1.144697,0.67328105,2.0845509,1.7973454,0.98411032,1.6922183,0.36353039,less than -0.023711622
-0.68269667,0.58420741,-1.8446774,-0.68618253,-1.4538669,-1.4037823,1.5620305,0.32781414,0.7895921,0.58708229,-0.65046246,0.41981432,43.702717,-38.438605,12.362055,19.062448,-17.430804,1.2321892,1.9033247,2.4288419,1.2964656,2.198017,0.82136425,2.4188883,0.50516371,0.28649328,1.5925372,1.2726422,2.2978097,1.7873468,1.6875442,0.55529435,between -0.023711622 and -0.00016276260500000002
-1.7668382,2.2249099,1.2547823,1.1853665,-1.5264608,-0.98124884,1.5122306,2.1460436,-0.069779761,0.59642001,0.77968397,-1.0052908,-63.893191,-2.8626855,36.845371,60.148713,69.422282,0.32942622,0.91644164,0.63458807,2.0216991,0.69665901,1.2479399,1.1259272,2.4579655,0.27546281,0.70349203,1.3405895,1.2883069,2.3241402,1.0737948,1.5199277,less than -0.023711622
-0.14980972,-1.4362672,2.2251333,0.29653663,-1.8164589,2.3440672,1.1656148,1.087472,-2.215105,-1.3961802,2.0968199,2.0070093,16.686208,-54.897726,-16.07331,5.8772895,-70.395882,2.2212431,1.9322807,0.8420895,1.9982515,0.36233757,0.55760732,1.9562985,1.7585459,1.3812348,0.4132412,1.0948835,0.4567879,1.7342459,2.4705957,1.0524946,less than -0.023711622
2.1591935,-0.54281158,0.15081259,-0.55805523,-1.5801881,0.8021047,-1.1712363,-1.3200291,0.19823202,0.026598553,-0.63507171,-0.0891524,4.9437129,-11.01755,-71.956745,72.980163,27.594666,1.1282714,1.3575929,1.3144844,1.2894674,1.5791331,0.98958762,1.4990806,1.0481722,0.63027309,1.499836,2.4936897,2.1929273,0.77861605,1.6999139,1.4524101,between -0.023711622 and -0.00016276260500000002
1.4047308,0.24138976,-0.32915405,0.25254562,-1.3282483,-1.2824661,0.058947222,1.1242796,-0.91206988,0.24280201,-0.15543926,-1.8042141,25.346092,-8.2267499,33.014064,17.381975,-61.143358,1.5787317,0.9940693,0.32274674,1.1544923,1.0515063,0.41578759,1.1420905,1.8646293,2.3248899,2.4250848,1.150497,1.4039053,1.1861761,0.31115732,2.1211332,between -0.023711622 and -0.00016276260500000002
-0.55198389,1.5006006,-0.11162344,-0.52427455,0.68510109,2.1277426,-1.3496218,2.3469457,-2.2913,-0.23686988,0.89654083,-2.0582538,18.342131,26.194162,-4.711963,6.0383503,-63.447284,1.2475801,1.8281258,0.80967564,1.7184539,0.30466112,0.9393728,1.2886892,1.9998554,0.32014518,2.4300307,1.0267168,2.2788792,0.87260883,1.9366809,0.54624273,between -0.023711622 and -0.00016276260500000002
-0.26636359,-0.0034003355,-0.60077044,1.5007614,-2.1210484,0.76199665,-1.3956149,2.1725977,-1.4529989,-0.95263699,1.7277916,1.2533504,21.680885,40.631338,-59.094296,-47.831964,-61.824279,0.91524426,0.760275,1.6918861,1.5293474,1.2425064,2.0551173,2.1063385,1.2309324,1.0306507,0.89550668,2.0307349,1.8118173,1.2138729,2.3123563,1.0229717,less than -0.023711622
2.3112373,0.74372476,-2.1858999,-0.63564258,-0.25905024,0.3899939,-0.30552932,1.4727068,2.3157619,1.3890409,0.43495728,1.411719,-3.7145145,-29.845825,-18.785911,15.189452,-10.881033,0.96206459,2.4196042,1.2874434,1.3108291,0.60389314,1.3820867,1.2305252,0.93780556,1.9481239,1.6181695,2.3246724,1.0196519,0.53905573,0.65958761,1.4389966,between -0.023711622 and -0.00016276260500000002
1.9385482,-0.2784199,-0.00091988179,-1.3232863,2.0026677,-1.7589534,-1.9131227,-1.2230514,-0.38372579,1.9811128,-1.1775263,1.3492583,30.805208,-56.869907,-12.519405,36.358855,-16.717058,1.1709703,1.248559,0.2809814,1.2044261,1.0395506,1.97677,1.5735631,1.8753209,2.0180562,2.4699138,0.84081007,0.7447756,2.193498,1.3704186,0.87461743,between -0.00016276260500000002 and 0.02356751225
-1.372728,0.41718369,-0.42857755,2.1398481,-0.52526944,-1.8989402,1.5220145,1.6502941,-0.62851313,1.7558557,1.6870375,-0.40538758,24.364853,0.092556921,55.604177,39.402938,-4.8266984,1.7902067,0.25362145,0.36575395,1.7266517,0.83566533,2.0271325,2.0162186,0.83640522,0.96250737,0.86144826,1.1109795,0.982334,1.0875349,0.6995903,1.0141107,between -0.023711622 and -0.00016276260500000002
2.1098793,0.01500084,-2.3498889,-0.050242721,-0.91178042,0.39540894,1.1695514,1.2760675,0.78473577,-0.92264204,1.6272892,-0.85647998,47.406665,-36.189338,15.794088,-48.768652,-54.742137,2.1084911,1.4095491,1.5420063,2.4995861,2.2942967,1.2448277,0.56978719,1.9132902,1.1690237,2.2804927,0.99148899,1.9554377,0.7908958,1.0856736,0.91575121,between -0.023711622 and -0.00016276260500000002
1.0843324,1.5661098,-1.7967295,-0.64365348,1.7610232,-0.9989689,0.5716066,-1.568934,1.4557909,0.75470875,-1.361117,2.3552778,34.584832,17.273152,59.861147,36.298426,17.646002,1.7704334,0.92444844,2.454971,1.6982066,2.0083577,1.4675581,2.2485267,1.4886766,1.6880101,1.6355651,2.1918288,0.31614835,0.50538184,1.7025094,2.3259525,between -0.00016276260500000002 and 0.02356751225
0.25405718,0.51465898,-2.0727545,1.9067419,-2.3458129,-2.2316198,-0.93004417,-0.25812172,1.8584619,1.4546599,0.59437551,-0.59545045,43.87999,-59.014961,-64.454608,11.411004,-65.248813,1.5729492,0.55672846,0.68531003,1.7556229,1.7548645,0.25785733,1.808095,1.6519002,2.2364581,1.1513203,1.7410885,0.47502229,2.1996086,0.57136414,1.4170765,between -0.00016276260500000002 and 0.02356751225
1.2615776,2.2975081,0.90258067,0.49325722,1.0818896,-1.7909977,1.4422055,-1.3803227,0.0079737663,2.0681986,1.632971,0.39019113,-54.21019,-10.662541,44.666823,-34.706864,31.739911,2.1652973,2.1520193,1.7390049,1.4553637,2.0471879,1.5869153,1.2849879,0.54154848,2.0553553,1.6072841,1.6239913,1.1720286,1.0347227,1.8348577,1.4538173,between -0.023711622 and -0.00016276260500000002
0.34050248,1.9849169,1.4975855,1.0498244,1.2150684,-1.8386903,0.97926494,-1.8688253,-1.2744508,-1.8872537,0.016569984,0.46077311,55.979196,42.34242,49.049031,-32.928146,-73.356975,0.46479777,1.3561538,1.8761315,2.1418319,1.5192374,2.322237,0.58787174,2.1103249,0.73089674,0.68142665,1.7376419,1.0481424,2.3791291,0.52353228,0.75699492,between -0.00016276260500000002 and 0.02356751225
-1.9249784,2.1514125,0.62995388,-1.103095,-1.1787016,0.44481605,2.1744563,1.5108601,-2.0382167,-1.9520665,-0.73037959,0.28350587,20.942078,73.509139,68.105571,0.32618473,-67.813232,0.82021065,1.0303283,2.2270451,0.44771861,2.3066808,2.3834378,0.93980982,1.8836644,0.49730325,0.92567599,0.58632718,0.90093115,0.94987563,2.3097634,2.4439632,between -0.00016276260500000002 and 0.02356751225
-1.5004754,2.2158999,0.61871222,-1.5462282,1.3685061,-0.68849685,2.0607173,-1.5840615,1.6754946,-1.1993994,1.2942379,-0.13075754,-53.115456,-61.469869,-74.087612,-40.495351,-55.370698,1.1452045,2.4526774,1.3991274,1.8844226,1.9900842,0.34503276,2.215648,2.395302,2.3407052,0.48203462,0.8059367,1.8780952,1.3967542,2.4975097,1.1452972,between -0.023711622 and -0.00016276260500000002
1.9822993,-0.085950422,2.1346774,2.1065589,0.75726668,-0.78162659,1.3423151,2.0833187,1.2868765,-1.331364,-1.8110853,-1.590585,13.368719,-11.933575,-17.596295,59.072559,-17.499431,1.9309864,1.5884907,0.76324059,2.0346568,2.4763601,1.1847714,1.4524683,0.63554546,2.3625069,2.40333,2.2668319,0.89293329,1.5297531,1.3101349,2.4377467,less than -0.023711622
0.95921641,0.46754809,-2.1840851,1.5920369,0.41879728,-1.5832082,1.8798698,-1.596017,-1.3390729,0.57115226,0.21961756,1.3117199,48.388255,-38.595432,-73.420193,-73.188431,72.048378,0.88130953,1.9191954,1.4173958,0.67097912,1.6461291,1.9917457,1.2705788,1.3671131,1.569415,1.9085009,1.6750819,0.35172507,2.193294,2.4427095,0.36819771,greater than 0.02356751225
1.1399474,-1.4776919,-1.2775633,2.3509154,-1.54702,2.1967959,-0.01824025,-0.25859158,-1.3260866,2.0616287,-0.40271134,-1.3788731,25.748786,9.8385531,56.561816,-65.565372,-57.211474,0.57647176,1.7608562,1.9597388,1.0808264,0.4491757,2.0459419,0.89595187,0.51313329,1.4812872,1.2432562,1.1563192,0.25710775,0.45997466,1.294135,1.2770114,between -0.00016276260500000002 and 0.02356751225
0.57004095,0.39150743,1.5703126,-1.8469808,-1.7007631,0.62653532,-2.0101797,-1.9733422,-0.16828434,-0.92144177,-1.7616537,-0.17438437,7.2544054,-25.207974,-70.423213,47.060375,-6.2856646,0.72752766,0.30744353,0.45332809,2.0852243,1.8644221,1.0920989,0.90571214,0.30398167,0.7699859,0.65296518,0.38578722,0.92584433,1.165636,1.5938383,0.64100103,between -0.00016276260500000002 and 0.02356751225
0.9960616,-2.3107368,-1.755749,0.10633297,1.1428117,-0.46198047,1.5112531,-0.14612227,-0.72237088,-1.7733378,1.3721823,-0.16295122,-26.203227,2.3595545,57.031871,34.662508,-27.230932,1.0708926,2.2410951,0.33593955,2.3860266,1.6988916,2.2714086,1.3146462,1.7581896,2.1430938,2.4775104,0.26724567,2.0979126,1.3676799,2.0968554,1.5993192,between -0.023711622 and -0.00016276260500000002
-1.6909501,0.62001088,1.4307729,-0.32099569,0.71079469,0.42021157,-1.375268,0.13915774,1.4791749,-2.0712595,-1.2403792,0.55620088,-41.747355,52.21033,-0.98333369,-26.889376,20.254148,2.2970181,1.9825288,1.612123,1.9520694,0.43114102,0.43705857,0.89330885,1.0918706,1.5683748,2.4254994,1.3689671,1.2300945,0.44757071,2.0708948,1.7786656,between -0.00016276260500000002 and 0.02356751225
0.4977543,1.2661207,-1.4576631,0.76704059,-1.4450736,0.30139739,-0.23216136,-0.077847603,1.659471,-1.9007775,-1.0824402,1.9618425,3.2070486,50.865048,38.865971,-29.624012,-40.77083,0.84482356,0.69962418,1.5835964,1.7550904,1.8049926,1.259844,0.9472802,1.4382637,0.39743008,0.85743771,1.2055603,2.102021,0.6671767,0.73878587,0.52410567,between -0.00016276260500000002 and 0.02356751225
0.40970848,1.1701192,1.3935576,0.94967814,0.37902424,-0.88944313,-1.1728221,0.30273079,-1.3836509,0.61835352,1.849851,-1.8971843,-62.173629,-52.180043,60.023304,61.667558,-53.349802,2.1232772,2.4202796,1.3892985,0.93986366,0.53853746,0.94906168,2.1296202,1.026605,0.39976989,1.9325601,1.0377232,0.51423045,1.9211269,2.3791582,1.0123321,less than -0.023711622
-1.1306084,-1.7833441,-1.8712009,1.2104924,1.3632305,0.18005585,0.84498446,-1.4865244,1.0715433,-1.3226382,-1.2420585,0.60613807,-26.177226,-10.639074,-10.914689,6.818178,-6.8822157,1.0839987,2.0166195,0.82475654,0.93311177,1.8095544,1.430888,2.4347847,2.1772593,0.69678095,1.0474723,2.3670816,0.54061661,2.1434228,1.2569812,2.332249,between -0.00016276260500000002 and 0.02356751225
1.3995813,-1.4821269,-0.4187289,-1.9798245,-0.73179194,0.10813144,-1.6169556,0.17428507,-1.8968382,-0.84792792,-0.86025548,-0.70452868,38.831558,-8.0001354,-58.275509,63.519635,24.508177,1.5089919,1.1268773,0.42753301,0.5473732,0.95143653,1.5437395,2.379628,2.1573171,0.77813856,0.42484875,0.43290154,0.77624609,2.3679773,2.0948159,1.0714009,less than -0.023711622
-2.2619139,-1.1448303,-0.47788561,-1.9125684,-1.3310511,-1.2651068,-0.35018959,0.13735387,-0.56406315,1.1173069,-0.29345855,1.7133452,-38.7237,20.780959,65.569723,-19.667541,47.636059,2.4136149,1.8750244,1.5345099,0.25755347,1.2012305,1.3314966,1.4627181,1.9025751,1.0801405,2.4220197,1.3848751,0.84659704,1.2565159,1.2620332,1.742382,between -0.023711622 and -0.00016276260500000002
-1.3591839,1.8583748,-0.0088847378,1.4706589,0.88423656,-1.5110363,-0.92228663,-1.8241113,0.96400457,0.83149362,-2.0324317,1.0279329,27.079514,25.390947,-4.3501657,-63.235487,-48.836524,1.4431629,1.7391893,2.3052927,1.5537335,1.5988715,1.9837787,2.3678888,0.60680987,0.90347012,0.87225007,0.40699951,1.9408169,0.30985101,0.41594282,1.5010537,greater than 0.02356751225
1.5836488,0.81313012,0.34985795,-0.99895915,0.73554219,1.6612593,-0.11976259,-0.65977889,-0.65251366,-1.0678806,1.6205181,-1.5606451,-19.260261,-7.2132054,-32.343831,-2.7716959,66.10775,1.7192914,0.88138409,0.92241628,2.0503356,0.49001157,2.1244537,1.9439381,1.0171671,1.5274183,0.31879773,2.2833747,2.1791231,0.52238937,1.7981205,0.51165176,between -0.00016276260500000002 and 0.02356751225
-1.4900943,2.3332459,-1.6374287,0.086999712,1.3635675,1.1319456,0.6947365,-0.86355275,0.42694125,-1.3668241,0.68396004,1.7997488,-14.205608,46.345567,-20.059097,66.753247,71.818481,1.4231907,1.3156346,0.37092038,0.80889601,2.1152276,2.129587,0.468037,1.7978301,2.380715,2.4278078,1.9164963,1.0539986,1.804899,1.9374892,0.63083774,less than -0.023711622
-1.9298341,0.65120348,-2.1027452,2.0793466,0.50092113,-2.0577341,-0.11411403,0.02788848,2.1951803,1.1012798,-1.0540674,-1.8399588,-47.436289,-11.713317,-65.722852,-3.9819445,-24.540648,2.0549585,1.6870809,1.7686772,0.65726547,0.66083793,2.2031267,1.2012079,0.95058913,0.80145359,0.78044522,0.94288236,1.7737666,0.69601636,1.696887,2.3304621,between -0.00016276260500000002 and 0.02356751225
-1.0522643,0.18933834,1.3469863,0.4814018,-0.25190483,-2.0391437,1.3164171,0.35650068,2.2605051,1.0290922,1.4856815,-1.0999229,9.4743646,-64.353536,60.127974,20.859666,38.401438,0.81962663,2.4646935,0.85448513,1.081656,0.8921382,1.6666482,0.35703659,1.4638847,1.2607411,0.27570996,0.35723382,0.27877083,2.3012914,1.8045443,0.47588546,between -0.00016276260500000002 and 0.02356751225
-1.6330615,-1.9118232,1.7687389,1.445292,-1.342662,1.5112534,-0.14000004,-1.4986294,0.25526785,2.0126992,1.9074906,0.81306027,-26.229502,10.763321,-0.85698684,-3.3778231,-71.0721,0.4931101,2.4514963,1.7987099,1.4168123,2.1144308,2.2389411,2.3834622,1.3488394,0.44308611,0.94825713,2.1075207,0.85045605,0.86488622,0.39265285,1.5664611,between -0.023711622 and -0.00016276260500000002
1.2786877,-2.3026632,1.9908439,2.1513162,-0.9890437,-2.2615128,0.88328089,1.2765943,0.21321696,2.1217675,1.8986894,-1.0253332,13.707783,-13.287629,24.812431,22.523984,-39.408975,2.1752499,0.67537736,1.3172648,0.77008826,2.373344,2.2921857,1.7654599,0.58499766,1.0556236,2.1161611,2.0695007,0.84881701,0.31750061,0.73268858,1.5470099,between -0.023711622 and -0.00016276260500000002
-0.93395263,0.025800781,0.093934757,0.111158,2.1265038,1.3908074,1.8511464,1.0247904,-0.12909206,-1.9512532,-1.1967941,-2.0418489,-55.318822,-43.438292,-17.365437,39.097254,-42.459321,0.41790104,0.66276978,0.92163356,2.3952498,1.4626687,1.0733517,0.8226423,1.3991198,1.7567725,0.82587513,1.7333264,0.51733376,2.328468,1.8116364,0.42258301,less than -0.023711622
-2.232113,0.20475657,1.2997684,-1.4284626,1.4513454,1.4363673,-0.54373325,-1.2024395,2.0362394,1.7062989,-1.8331077,0.55858762,35.116964,-39.191901,-48.272536,33.483803,-37.729294,0.38137168,0.96389049,1.6075083,0.89180701,0.60033877,2.3936645,1.8186066,0.57066385,0.89728149,0.35993762,0.72160368,1.9930367,0.46830315,1.7709699,0.94179936,between -0.023711622 and -0.00016276260500000002
0.48031632,0.35403631,-1.459031,1.3376561,-0.82257509,1.1297202,0.99145621,0.3971644,-2.3130814,1.2495468,-1.9839551,0.53106642,11.731228,66.750841,31.388632,-1.2701679,-47.711354,1.6041604,0.87439522,0.46053716,1.7481269,1.7685725,1.1477587,0.38126761,1.4647028,1.5105116,1.9190004,0.38984148,1.5656783,2.1046816,0.38422337,1.64221,between -0.023711622 and -0.00016276260500000002
-0.3563256,0.68211098,-1.0031619,0.7849453,-2.1135693,-0.77090455,-2.2354483,0.69715434,2.073924,-1.1011774,-1.937164,-0.01909253,-14.187281,54.366808,-57.061815,62.078078,-53.736927,1.2769068,1.9734212,1.5394753,0.46137719,2.3664783,1.6511111,2.4741138,1.6814755,2.0579472,2.418331,2.3897644,1.5198096,0.68944981,1.582889,1.1146539,between -0.00016276260500000002 and 0.02356751225
1.6518874,-2.123702,-1.4255008,-0.60678773,-0.67168773,1.8283261,-0.8110422,1.7550756,-1.9986424,-1.2746675,-0.81574684,-1.9176088,-38.9442,64.825673,-74.90918,-48.582115,-69.605051,1.3437346,2.3971333,1.6201074,1.1446794,0.3772682,1.7465589,2.4150467,1.1894956,2.1033813,1.0297055,0.76030543,2.2032963,1.8003448,1.8944826,2.3186628,greater than 0.02356751225
-2.2812428,-0.85023882,-2.0004892,0.67257678,-1.0232348,-2.0007064,1.735306,0.31301455,1.8093837,1.2652222,2.2908992,-1.7869262,-25.896429,58.723809,-28.938944,73.164094,-31.063827,2.2788849,0.9678401,0.48848705,1.2518032,0.80644296,1.3868006,1.7083033,0.7030163,2.3449848,0.40991738,1.4813593,2.4560812,2.3569655,1.5192697,0.61564338,less than -0.023711622
2.1477919,1.0381957,-1.0218347,-2.0303529,-1.7321725,0.51607331,-1.8640397,-0.9541354,0.10598535,0.012787218,-1.8551187,-1.8152453,-26.153475,-61.450805,-53.684664,-28.140337,-4.6458877,2.3734916,0.2725128,0.62262492,1.2070037,1.6114452,1.8094663,2.2006124,1.6933042,0.61442198,0.59015402,2.2185718,2.0360591,1.2954281,0.51030668,1.2244294,between -0.023711622 and -0.00016276260500000002
-1.6892916,0.21955765,0.30479764,0.36707853,0.97165009,2.0952708,-0.46670886,2.1517588,1.7363745,-0.57790528,-0.62028978,-1.4059089,-37.982671,25.247852,-9.3433504,16.309962,71.527005,2.1904744,2.3039927,2.2059952,2.161576,0.35747983,2.1635298,1.6945676,1.5968198,1.2503946,1.8820184,2.0824458,2.4163961,1.3698911,1.0103796,2.2007393,between -0.023711622 and -0.00016276260500000002
0.76778831,1.6971663,0.1843352,2.0821714,0.85450981,-1.6152659,0.29945837,0.16538451,-0.69210897,-2.0994469,0.96425174,0.27333191,-21.956512,-23.09687,10.910973,-69.280822,47.218156,0.5581507,2.0888496,2.0458412,1.4536776,0.70893202,0.52038356,1.8365182,2.3616835,2.0643858,0.3819833,2.2432845,1.1332425,1.6568416,2.0370986,0.76587416,greater than 0.02356751225
2.2043885,0.35456823,-1.9438797,0.20595653,-2.0944485,0.14944073,-0.053050883,-0.9846686,0.58489827,0.34179407,0.1308463,-1.5519223,-2.7312406,-3.9607679,31.373277,40.668611,-32.661135,2.3396054,2.248471,0.55129672,1.6440486,0.77491511,2.498228,1.968589,1.3257169,1.0747362,1.5910838,1.595137,2.2170974,2.0067194,0.9334499,0.74242004,between -0.00016276260500000002 and 0.02356751225
-1.6128378,-1.3032939,-1.2760495,-0.48186985,1.8100614,-1.4816487,-1.8065695,-1.0908747,1.574411,1.0607325,0.76425182,-1.1920821,55.809815,45.555778,55.953361,58.140932,74.6393,1.565803,1.9506851,1.9138794,2.070363,1.8404863,1.5525336,1.6829124,1.4585105,0.93575649,1.2593619,1.8449982,0.88405285,0.77630506,1.1091009,0.9087686,greater than 0.02356751225
1.3485315,-1.8227695,-0.046858151,-0.57598078,-1.2619872,0.24433576,2.0603339,1.3970706,-1.2681248,0.76157972,1.0218665,-2.1471156,28.748647,28.511844,-51.438759,68.772787,-35.767843,2.1229001,0.58192424,1.1506239,1.2852683,0.75355888,1.314156,0.27021009,2.4209433,1.2935065,1.9635965,0.66637506,0.7656051,1.2749015,2.0201129,1.036678,between -0.023711622 and -0.00016276260500000002
0.87391919,-0.55666034,-1.6981644,1.8914941,0.56454271,2.230329,-1.9152552,0.63494732,-2.0014043,-0.56992195,1.6086542,1.6758843,20.307017,50.027661,64.894747,36.018826,-31.585894,1.1632772,2.4494059,0.41573521,0.26164154,2.4094232,1.176255,2.3172062,1.5350145,1.9881015,0.77270232,1.3079553,1.8038935,0.78867725,2.0484966,1.0830474,less than -0.023711622
-0.12603518,2.3018265,-1.9163258,1.4909778,-1.6204306,-1.6811181,0.93165792,-0.89389041,-0.52007815,0.52811641,-2.0883588,-1.1731345,-7.5045041,21.799659,-63.138526,-69.199785,59.211849,2.4782084,0.74937429,0.73365088,1.9704231,0.65042795,0.492521,1.5505268,1.7038768,0.55811913,1.5581748,1.9945784,1.6292008,0.97808681,1.7050836,0.58993006,between -0.023711622 and -0.00016276260500000002
-1.1150872,-0.099962871,2.2468852,-1.6848955,-1.2930644,1.0052525,1.3635446,0.74705653,1.9748237,1.5061077,-1.8009667,-1.173096,13.060846,63.645562,40.966606,25.75187,61.681597,1.8640172,1.0364447,1.5258986,1.7779073,0.5382679,0.91865631,1.85654,1.3684765,1.9851416,0.52525094,0.3925488,2.0677489,0.65594542,0.97466592,0.46014297,between -0.00016276260500000002 and 0.02356751225
0.82611135,1.7554714,-0.058897915,-0.29556589,-0.71794746,1.8852644,-0.46440803,-1.5895323,-0.73540202,0.69447107,-0.61216634,-1.5345456,-6.4508734,30.170065,68.277435,38.849289,-10.000952,2.3351075,0.90173695,0.99289501,0.83642006,1.2118731,2.4513385,1.3966566,0.85749988,2.2504452,2.2319249,1.4614336,0.56526124,2.3456299,2.2517182,1.1283184,less than -0.023711622
-1.5873758,-2.190772,2.3028811,1.6716873,0.78510122,0.50711344,-1.6561274,1.5485271,-0.42875689,-0.87435376,-2.0348803,2.2867339,-35.25005,52.41361,-34.463228,-73.468474,15.363039,2.2239652,0.43322404,1.6963629,0.27123582,1.6604782,2.4063389,1.0870616,1.7444694,1.0478148,1.3725857,1.2984793,2.2917597,1.3553475,1.8258747,1.2256057,greater than 0.02356751225
-1.1583578,-1.6403678,-2.1858708,-0.14623309,2.1275328,-0.16312026,1.0481074,0.63032228,0.37615469,-1.994185,-1.7572798,-2.0598722,52.494856,-18.960582,-70.49731,1.7108886,-45.095029,1.9428329,0.44312668,1.6301785,1.6594239,0.43668556,1.3741934,1.3180076,2.0040649,1.318238,1.3758108,1.5026058,1.7956287,1.3807815,1.7950045,2.1397938,between -0.023711622 and -0.00016276260500000002
0.25601528,0.4376081,-1.1598268,1.9440501,-2.0552078,-0.065856061,0.56859845,-0.29075804,-0.022959001,0.54396875,0.44821891,-1.8946939,70.185909,14.565892,8.9527219,18.39618,34.593799,1.6446071,1.1611111,2.0436993,1.4539188,0.26353327,0.45363355,0.46908381,1.3915415,0.38749649,0.4034249,0.36232332,0.31796194,1.7363411,1.684679,1.8995328,between -0.023711622 and -0.00016276260500000002
-1.1921325,0.90638414,-1.5553793,-1.6380098,-0.2545787,0.14493142,-0.4427455,-0.36147191,-0.98892417,-0.2526473,-0.38066492,1.5890004,38.892267,-37.663853,-16.374823,38.342717,26.047248,0.26652697,1.2687217,1.655842,0.98719825,1.8409841,0.91902608,1.3213131,1.3097075,2.0038969,0.74532138,2.3663921,2.4521273,1.1535948,1.7176176,1.9992102,less than -0.023711622
0.44266587,-0.9769727,-2.016965,1.7947871,0.9841446,0.032942952,2.3226761,-0.21240946,2.0250343,1.8779703,-0.53502066,-0.85407104,-13.848589,46.770833,-72.616023,-57.495214,-22.059188,2.1435174,0.59682198,1.7869946,0.2684846,0.42073504,1.0437381,0.3558769,2.2230145,2.454887,0.28636089,1.6175278,0.53985538,0.59932826,1.1601164,1.0766332,greater than 0.02356751225
-0.3095057,0.61512865,-0.51414602,1.269218,-1.2384377,0.19937153,0.32870196,1.5739932,-1.2477841,-1.3757168,2.0200221,-2.2506296,0.45311119,-34.560197,-53.227304,8.7058896,69.886714,0.41501154,1.598912,0.41323469,0.98538867,0.67736288,0.93798572,0.47592506,1.6224596,2.4279793,0.29882683,1.882536,1.7831809,1.4219996,1.5464845,1.2643667,between -0.023711622 and -0.00016276260500000002
-0.81591882,-0.095723219,-1.8954922,-1.7876474,1.2024419,-1.9949696,-0.80724612,-0.41773884,0.52289445,-0.31843698,1.3034884,-0.16614728,63.958924,57.631014,54.444471,48.231007,18.537499,1.5211932,1.4435925,2.2093672,0.3340552,2.2156979,0.98482685,2.4848171,1.5704398,1.1322755,1.1536934,1.1249726,2.1646852,0.8648948,0.53682044,1.3411721,between -0.00016276260500000002 and 0.02356751225
-0.20280022,-1.4060658,0.88306612,-2.3330497,0.22292949,0.42672496,-0.28956376,1.1997285,-0.47622587,-2.2916675,-1.7012565,1.7578693,-69.079638,-21.47453,-22.42902,-14.547019,8.2465024,1.3594789,1.5113856,0.8572074,1.8346948,0.96565437,2.0029576,0.70874999,1.9610441,0.51782637,1.6078295,1.7898417,0.86972802,0.76891011,0.57219734,1.9207207,greater than 0.02356751225
1.2682394,1.1644882,1.0018594,0.8858273,1.6626813,0.21737145,1.2604314,1.8828442,1.2696402,1.1455741,-1.1579483,0.52881278,6.0743479,-58.435286,-71.858707,70.716946,-60.295041,1.6937201,0.85407605,0.95625124,1.4646723,0.99704115,0.77068036,1.0747642,2.0624856,2.1949613,1.2146666,2.1507905,1.3360773,1.9516105,1.7185006,1.0902838,between -0.00016276260500000002 and 0.02356751225
-0.25126935,-0.78336166,0.45544062,1.6707218,-1.3039247,2.2584867,0.093283058,-1.4171739,-2.0277003,0.43788032,-1.2971037,-0.91091803,23.954247,-0.96897815,64.384283,6.6483621,-10.977904,1.2904585,2.4854998,1.7943276,2.0142717,1.864324,1.6941296,0.98692954,1.824807,1.2816448,0.60366044,1.9710191,1.6674254,2.1679477,1.6970228,2.3630011,between -0.00016276260500000002 and 0.02356751225
-1.4626283,2.1388638,1.7804384,0.15888312,-1.5759272,1.7307461,-0.92785428,-1.1517219,1.5045813,0.81809371,-1.0499947,0.63532612,-11.057325,9.5378803,-46.846552,0.008466735,-7.6995845,2.021247,2.0979862,0.35443608,0.50717342,0.31365512,1.3516723,0.80625138,0.41691688,2.1220788,0.27828676,0.91562207,0.36012926,1.6924559,2.1070625,2.1491913,between -0.023711622 and -0.00016276260500000002
-2.2022753,2.1748276,-1.6738546,0.48792958,1.0755905,0.72608218,-1.8241857,-0.28677415,0.96086242,-0.14227799,-2.084949,-0.41261444,58.114178,74.98269,-65.936668,2.4173448,-21.686746,1.5379134,1.2098975,0.74655037,0.52211956,1.7635241,1.8000861,2.0463338,0.731824,0.51589575,0.6598023,0.54730695,2.0878753,1.4197447,1.8986688,0.67593408,between -0.00016276260500000002 and 0.02356751225
1.2785216,-0.38060904,-2.1842165,-0.61705507,1.1236095,1.9624458,0.81674568,-0.14453761,2.3491128,1.144075,1.9216807,-1.0261755,13.126096,-39.711055,-73.698312,52.466354,-47.993078,0.33002376,1.9592895,0.279329,0.43257435,2.027169,0.37997424,2.2270581,0.66528189,0.3927689,1.2668882,2.3401646,0.3969054,1.0389842,1.457201,1.4268752,between -0.023711622 and -0.00016276260500000002
-0.23201214,-2.2822988,0.25108651,-2.2894809,2.0636493,0.57126957,2.1913072,1.9794273,-1.2312613,-1.7087128,-1.0376146,1.362528,-70.117506,-64.918424,16.052559,-54.63713,13.749978,0.56313013,0.27807489,1.8546808,1.6201731,2.2489958,0.37225077,0.66873124,2.1159613,0.96222898,0.68249058,1.6191426,0.67958498,2.2847526,0.58734781,2.3046206,less than -0.023711622
0.43964122,0.02404328,-1.1700469,-0.17836897,-0.76786697,1.6933007,1.1872508,1.8688678,1.9885756,1.7279364,-1.0257108,-1.2029535,-60.176494,63.666311,-60.313467,11.555055,-44.197093,1.0669265,0.83298073,1.9070963,0.56766081,2.175259,0.82745154,1.2280262,1.6871038,2.1540574,2.2423759,1.6114095,1.2089353,0.32593709,0.7746229,2.0871618,between -0.023711622 and -0.00016276260500000002
0.79762998,-0.97950361,-2.1424516,-0.819979,2.35068,-0.79080791,-2.1715713,-0.14691928,0.019433258,1.459925,-0.44987779,2.288361,-64.787956,-41.174868,74.000352,73.909277,43.212324,0.91797561,1.6660924,2.2645646,1.0371514,2.1534451,0.95151816,0.66570007,0.67100502,2.0813965,0.53160221,1.3883753,1.1735251,1.4357073,2.4331282,1.334935,greater than 0.02356751225
-1.7167167,1.1002195,-0.025692438,1.7269857,1.8454918,0.23710206,-1.7067097,-0.35820144,2.1414947,-1.1251746,0.0081746681,0.73236633,3.846762,2.5296078,65.119008,55.170478,-49.775293,1.0248307,2.0793014,1.3189453,2.014099,1.2118309,1.7413655,0.6304363,1.9928943,0.32440267,1.9855994,1.4693663,1.139379,1.2934068,0.28861456,1.2449167,greater than 0.02356751225
-0.57553754,1.4751592,1.1222032,1.8879775,-1.9887946,-0.6954864,-2.3151992,-1.3579627,-1.1796833,-1.9161696,-0.59641337,-0.66819302,-22.190568,-56.87346,-72.234994,46.458434,-73.105673,0.81938411,0.63866174,0.73788676,1.1628169,1.4635565,2.4936497,1.520603,0.52492561,1.6747107,0.8628272,1.7868311,2.0205485,1.6090956,0.57004887,1.8114319,between -0.00016276260500000002 and 0.02356751225
1.5525392,1.028062,-1.691921,-1.5603322,-0.057920203,1.9996611,-0.45348559,-1.7992584,-0.73664797,-1.3966509,-1.1013377,0.081333722,12.193365,33.880355,27.128895,-44.660159,-3.298966,2.1891662,0.56699987,2.3168352,2.0497793,2.3913235,0.72383216,1.1971149,1.910108,1.6855062,2.3026982,0.69829344,1.7178797,1.9037089,2.1349509,0.61981623,greater than 0.02356751225
2.001737,1.4494145,1.9701143,-2.2463132,1.8737501,-0.77745609,0.75020957,-1.5806063,-1.5129398,0.071402035,-1.6051867,0.053386278,60.773839,-74.094915,-13.240605,65.152069,10.829391,2.2685295,2.4250327,0.27422153,2.3412247,2.4640792,1.7784616,0.85378001,0.48059394,1.3424024,0.25762639,2.4267343,1.8733596,0.55550196,0.32145756,1.9871616,greater than 0.02356751225
-1.9623059,1.5344852,-0.81174889,-0.69741775,-1.7886809,-2.030445,1.4316614,0.47531795,1.1694743,-0.019853402,0.90348904,1.6229373,44.547894,66.459167,-70.776715,-44.24802,23.53089,0.37997657,2.2661684,0.99249369,0.84146524,0.50625997,0.71124179,1.0906993,2.1326926,0.91390735,0.79083929,2.3859671,0.6997734,1.8416054,2.3614121,2.0030232,less than -0.023711622
-0.24024776,0.67322792,0.49569242,-0.40125792,-0.51316205,-1.0427597,-0.2870425,1.1630497,0.38715978,-0.81475538,0.60864013,-1.181879,-35.695598,64.089109,-4.3462368,2.7983293,-68.479734,1.5416413,0.86454811,1.4600514,2.083095,2.0772608,0.77206169,1.7908356,1.8233934,2.2722728,2.3381531,0.33894483,1.1457683,0.67774765,0.65483637,0.33488988,between -0.023711622 and -0.00016276260500000002
0.77959918,2.282131,1.6423849,-1.6112516,1.7930107,-0.59734466,-2.183094,-0.60099989,-2.3555789,-1.4340001,-2.0828696,1.5491844,37.974188,-17.816517,-42.19747,-12.881461,-48.722681,0.8933962,0.30996046,2.2555192,2.0108501,0.60733863,0.79040633,1.8591401,2.3176158,1.6694176,1.9011394,1.6995286,1.7273007,0.49214525,1.9852573,2.4687928,between -0.023711622 and -0.00016276260500000002
-1.6604662,-0.68839028,-0.86044035,0.90075543,-1.9092745,2.1916699,-1.3485328,1.8001984,-2.3146441,-1.4525009,-2.0078488,-0.49668087,-66.035769,-13.165908,-29.415342,16.348109,-37.334869,0.81781147,1.207426,1.9580407,1.7907852,0.97673674,1.5143514,1.204398,0.56767335,2.386025,1.6729707,0.86825429,0.74981906,1.4589527,1.6180035,1.7846853,between -0.00016276260500000002 and 0.02356751225
-2.102251,0.96073653,-2.2582088,-0.13393203,1.5263217,-1.3568893,-1.9889119,2.0451023,-0.13008939,0.13611983,2.2572828,-1.2921598,65.924896,-50.273438,4.326035,-42.329707,14.616719,0.82296694,2.3553534,1.4240389,2.071198,2.3739607,1.4077598,0.71954829,1.1980376,1.6683111,1.3048056,0.61689928,1.7261665,1.6805553,2.3428517,0.55916878,less than -0.023711622
2.3062574,1.8687041,-0.76248107,-2.0336384,-0.40272591,-1.6237254,-0.50760399,-1.876208,1.8795502,-2.2562525,-0.24244231,1.4886037,28.295452,61.656838,66.468003,-72.265488,-16.064662,1.393353,1.5835893,1.6347483,1.9641932,1.6946072,2.2635267,1.5928376,1.8215015,1.9758965,0.39224138,1.4008367,1.3618623,1.0690913,1.2182606,1.8052856,greater than 0.02356751225
-1.3658497,-1.7891133,0.1260672,-1.7636235,-0.29405619,1.0936111,2.003902,0.13684733,0.34731313,-1.3582337,-1.021753,-0.65794096,62.489095,-45.785448,-16.027858,19.794714,-10.240135,0.53568724,0.29539528,0.45845569,0.51479632,2.4316799,1.7443142,0.68842889,2.4244098,1.0558089,0.73060017,2.4471056,2.2530406,0.85363595,0.30948705,1.0487959,between -0.023711622 and -0.00016276260500000002
-1.0936451,2.135616,-0.9684107,0.51284086,0.35685498,-1.2095571,0.21949448,-0.75689272,2.3542587,-1.9048394,1.3349378,0.61495695,41.778084,14.265474,59.81403,-5.5896597,-45.410789,1.0880744,0.76573667,1.236158,1.1081215,2.447707,1.111677,1.455024,0.83870068,1.2923148,2.1856241,1.7838496,1.4109084,1.8879295,2.4308037,0.51789494,between -0.00016276260500000002 and 0.02356751225
-2.0867567,2.1918474,1.6341728,1.7393063,1.5722625,-2.0614868,-1.9251064,-0.00077215852,1.1594987,1.9666651,1.043433,2.1783193,14.717368,4.8052918,62.538621,36.599403,-23.840099,0.91696726,0.46874912,0.26639922,1.3716864,1.9340385,1.1345419,0.99501803,0.51810147,1.7313706,1.3954852,1.4200919,0.9847708,1.5428235,0.48495224,0.34228808,less than -0.023711622
-0.9372481,1.1874762,0.94462632,0.2960436,-0.67793315,0.53409112,-0.63154656,-2.103004,-2.2708658,-0.80311401,-1.6551494,-0.86343461,-73.205454,-64.060986,27.012373,-53.044321,-65.911353,1.0433571,0.70307138,1.0206545,1.6404634,1.2675459,2.1444221,2.3015459,1.581252,0.60290961,0.60176757,1.6576322,1.8241311,1.1716717,1.7870551,1.2847543,greater than 0.02356751225
-1.8232106,1.9657448,-0.28621533,0.9281735,1.8045444,0.041988694,-1.1543651,-0.50843268,-1.6668902,-0.27149301,-1.3905632,2.2531442,-5.2070654,-65.148801,44.099982,38.397451,45.951647,0.76504204,0.81161193,0.51165949,1.4611219,2.0764501,0.64677152,2.03895,0.38233655,1.4303761,0.5808657,1.3598641,1.2358258,2.2749423,2.2046325,1.7591268,between -0.023711622 and -0.00016276260500000002
-0.59843968,-1.7376586,-2.1530264,0.51966099,1.8854925,-1.3429172,1.9338779,1.3383231,0.96384932,-1.7778667,0.65339949,1.8189045,33.756957,53.168825,58.441049,18.718244,47.526004,1.6681419,0.71075775,1.9554526,1.0413181,2.4331652,1.9581468,1.3235715,1.0154579,2.0508062,1.6499117,0.31540975,1.5917369,1.3219486,0.73955534,2.2065215,between -0.023711622 and -0.00016276260500000002
-1.2563602,0.56924263,1.1113305,-1.7773783,-0.56250234,-0.92460441,1.6326067,-1.0201281,-1.6221187,-1.7786308,1.9482327,2.2677731,21.029928,50.005746,-3.4349299,19.13367,-20.402496,1.3038097,1.879019,1.1724786,1.8470322,1.3209134,1.3413428,0.44791898,1.1743068,1.074258,0.3040091,1.2308925,0.36061561,0.86661927,0.2700885,0.37739803,less than -0.023711622
2.1366192,1.7554461,-0.4847985,-0.28791993,0.55316901,-0.43192776,-2.3307857,0.57494474,-2.0135341,-1.8019189,1.673839,-0.75022651,41.250499,-2.8696314,70.104899,3.0394333,-66.245176,2.3849841,2.1772905,1.2209227,1.5475665,1.4500157,2.1632642,1.7312713,1.9773885,0.71900265,1.0276088,1.5210056,0.54150468,1.3192325,2.3404292,0.34310295,between -0.00016276260500000002 and 0.02356751225
-0.18234994,-1.7025262,-0.73123441,0.053682795,2.1804455,-1.5023354,-0.77049338,-0.037353143,-1.0465344,2.243738,1.9673837,-1.0155355,5.3352439,-30.556188,42.155873,63.755809,-56.123254,0.42216848,0.3856447,0.78046466,1.2696235,1.0619994,1.2737113,2.2665822,1.196665,1.0981155,0.77673096,1.5171882,1.6324889,2.2409391,2.2134347,1.1976333,greater than 0.02356751225
-0.83081532,-0.70459203,0.15525167,-1.3486968,-0.95635352,0.52522341,1.1252159,0.6868827,-0.91541745,0.52899868,-1.3971188,0.45818345,20.553353,-9.7991306,6.0127361,-43.943768,37.084513,1.8162438,1.3603021,1.8476883,1.0980525,1.9675473,1.8177454,1.8473083,1.4606727,1.2761678,0.80141179,2.3279034,1.3217919,0.35641449,2.2582741,1.0630535,greater than 0.02356751225
-1.1774764,2.1875241,-0.34044768,-1.0638903,-2.0009473,-2.3141057,-1.8288829,0.87839916,-0.65995266,1.1393509,-2.0780635,2.2130823,12.326111,14.940309,1.7797522,62.29585,6.3483989,2.0880991,0.68194298,1.4157315,1.9491558,0.9617227,1.1733626,0.95455295,2.171391,1.0679579,2.4184865,0.50205577,2.0513893,2.4505961,2.41791,2.0627328,between -0.00016276260500000002 and 0.02356751225
1.4192719,-0.40988166,0.63155572,2.2570555,-0.39945148,1.5732636,0.62596854,-2.1112578,0.37961899,-0.31839178,2.0632718,-1.0616259,-52.254695,5.3361768,-14.876839,14.960639,43.458294,2.1782656,1.86042,1.328153,1.5182265,1.0832301,0.34829118,0.72992726,2.3875128,1.928062,1.9377315,2.4532244,1.5927829,0.90299881,1.95108,1.8016286,between -0.023711622 and -0.00016276260500000002
0.91650946,-1.0251454,-1.1245203,1.5800998,-2.2872615,1.6651383,-0.89818415,-1.99913,-0.044898412,-0.62537098,-1.982651,-1.1132626,72.972554,49.722749,40.246071,65.722313,-5.0798172,0.9776897,1.780707,0.34209039,2.2631353,1.7643262,1.7800288,2.4441869,0.44863967,2.0368674,1.3803401,1.1258588,1.3087277,1.2864607,0.5456716,1.6025802,greater than 0.02356751225
-0.70429622,0.41462879,-0.95724607,-0.3387298,-0.46586705,2.162915,0.74377134,-1.4029923,0.70346146,-0.30721295,1.4502836,-2.2709924,56.718818,23.17994,35.245996,29.460585,-5.9443327,1.2790094,1.3114917,0.4910377,1.3705569,0.94985913,2.0323989,0.52763586,2.2259114,1.6425561,0.43968374,2.2646847,0.80558572,0.47919834,0.38642157,0.33736085,between -0.00016276260500000002 and 0.02356751225
1.588532,-1.9378911,1.897405,0.95014932,-1.1266877,-1.8608074,1.535773,1.9818804,2.2977481,0.22481422,-0.88336491,2.0235514,16.465557,-13.38758,-5.0649028,74.179123,-71.482214,0.60131525,0.80540231,1.8967026,1.3802991,0.43625979,0.96825438,0.70141016,2.350585,2.2825655,2.0782571,1.7670561,0.41237295,2.2521543,1.707181,2.0913979,less than -0.023711622
-1.44558,1.2149496,0.87715137,1.9304082,-0.42738577,-1.3917501,1.1550773,-1.6589287,1.5903385,0.14960408,-2.0199522,-1.2861439,-15.672883,-14.15226,42.968083,64.563073,11.566795,1.421908,2.2574466,0.65428832,2.3738011,0.97513677,1.6236354,1.9396635,1.1738796,0.64394768,1.8287394,2.1224394,1.8384323,0.78188824,0.44563261,0.99720744,less than -0.023711622
-2.0878455,-1.9708438,-0.59018404,0.35570503,-1.687103,-0.6948802,-1.5516296,0.12160748,-1.3198468,-1.4499077,-0.83516603,1.5712432,-10.90618,-0.1682286,22.581861,33.333982,-5.7696866,0.30814759,1.0366047,1.9653365,0.66034926,0.73997636,0.28269022,0.67446988,1.8153479,2.0529683,1.9888261,1.7008577,1.5651242,1.7928499,1.9279306,1.9797503,greater than 0.02356751225
0.43440352,1.5294553,-0.5266213,-1.0576928,-1.5109371,0.74377097,-1.4092251,-0.37985172,1.1192298,-0.96185772,2.2639133,1.7625417,30.598919,-73.974576,59.296697,-0.40924478,21.822964,1.8034162,1.7664648,1.7245119,0.8710724,0.86390034,1.8230826,1.5486761,2.0987549,2.0229229,1.0156429,0.66026185,1.5208299,2.0879445,0.33240074,1.4092086,less than -0.023711622
1.2564463,0.8780375,-2.0260886,-0.74820977,2.2046612,0.22684346,0.23533663,1.6083732,1.6655638,1.5409277,-0.91799836,-0.43689286,-30.439025,61.311076,-44.750872,-27.911308,-55.349475,1.9954827,1.0784834,1.570697,0.95490834,1.3944584,2.1619087,1.4502737,2.000777,2.308256,1.8589435,1.2631545,0.33720108,1.0885942,0.50285269,1.9451696,between -0.00016276260500000002 and 0.02356751225
1.3550768,-0.19934186,0.16996464,0.88791658,-0.92198173,-1.4119735,0.55208012,0.11666359,0.4110857,0.7551042,0.57280035,-0.35528231,-20.148253,68.31424,57.439254,-18.456346,4.1892043,2.2443438,0.93636403,2.4702204,1.4943216,2.063281,2.0638596,0.53861257,2.2114922,2.2996522,1.2542003,0.59463727,1.0685991,1.9445341,2.0342878,0.77456513,greater than 0.02356751225
-1.5743975,-0.83527962,-0.33778571,1.2643446,1.6785106,-2.3448041,0.58661522,0.92425361,1.8963543,2.1400257,-2.2534038,0.51222612,-17.515164,72.641701,39.061172,-48.881238,3.0249129,1.2206595,1.6234158,0.49971624,0.98079254,2.1801591,2.1844781,0.52322142,2.2823593,0.86265274,1.1046662,0.62514511,0.8139246,1.1308235,1.500401,0.73929244,between -0.023711622 and -0.00016276260500000002
1.1633368,0.50015662,-0.76957636,1.2379327,0.73752633,2.0219478,1.8393507,0.69496778,-1.6888428,-1.6619706,2.3019501,0.16231839,-12.349072,49.154727,-56.498852,73.795761,-64.64832,2.2103135,0.4893487,2.2335232,1.3240628,0.2737586,1.3108237,0.51313465,1.5041265,0.35340641,1.2015507,2.2128552,0.45796524,1.2717805,1.3149627,0.32828544,less than -0.023711622
-1.9740053,-1.8894296,1.146798,0.5622993,2.2243672,1.5573287,1.4156482,-0.052461758,-0.50803235,0.34919775,2.0422582,-0.80730794,-46.365016,-6.8182152,6.2564975,2.9539228,-3.4201461,0.88907275,1.8957788,1.6036414,1.150856,0.68670355,0.42652602,1.6227636,0.78766126,0.72283419,2.4241921,1.8959737,0.37915302,1.9247941,1.0151619,1.5763639,between -0.023711622 and -0.00016276260500000002
-0.37621731,0.94160425,1.3403578,2.1734623,-1.0590189,-0.23822005,1.7662235,1.5798158,-2.3485882,-1.7520322,1.3143596,-1.2379644,-40.450413,-50.092411,46.848607,34.539866,11.534674,2.3240635,2.0351616,1.961381,1.6800891,1.2573687,2.0952713,1.9750852,0.25686106,0.81385772,2.2566438,0.6625121,1.0908123,1.7830739,1.8736643,1.1750627,less than -0.023711622
0.45551802,-1.7406935,-1.32524,2.153591,-0.45616453,0.29954807,1.672928,-1.9237948,-1.519116,-0.059314473,2.1281115,0.13818421,-23.737012,52.035979,68.701924,-26.759673,-49.818699,1.3320051,1.0096885,1.8352549,1.3789687,0.57686479,1.6165212,1.6215675,0.93520137,0.92941012,0.3458414,2.306371,1.6776618,0.96195519,0.58096112,0.71352824,greater than 0.02356751225
-0.54756134,0.43228274,-1.1277328,-0.57717979,2.1481991,-1.5415617,-0.31307351,1.9119787,0.84637479,-1.681176,-0.040043052,0.868052,-6.5681825,8.5565993,-39.23514,-24.994358,69.819985,1.5924304,1.7275118,1.7911122,1.9723976,2.33611,2.0004327,1.0230097,0.7246014,0.62569189,1.0036709,1.9462746,2.0365384,0.35014735,0.4264945,1.0931101,less than -0.023711622
-0.099572106,-0.61029023,1.7229222,-0.47614721,-0.96974558,1.6395465,-2.19317,-0.30089729,-0.78731282,0.021623997,0.58056089,-1.8707082,2.1264183,38.712752,-54.774987,-53.200075,16.345397,2.3813123,1.215866,2.0601109,0.5344167,1.4415283,1.2659742,0.47894662,0.65592071,0.5594379,1.222793,1.4824936,1.2704887,2.1029748,0.94680968,0.28033581,greater than 0.02356751225
-0.81778317,1.5569533,-0.18180471,-1.9636185,-1.6755662,-0.0047987374,-0.54176677,-1.1386422,-0.14775409,0.12596396,1.2135562,1.018842,-36.409872,59.277652,-20.506965,39.441688,46.443837,1.098505,0.57351036,1.4886989,2.0624197,1.0875809,1.4726399,2.1591345,2.073636,0.60050377,0.66686993,2.3328795,1.7050371,2.0583399,2.2688013,2.4933862,greater than 0.02356751225
-0.37764675,0.47911204,-1.0366805,-1.7873467,1.5429939,0.82181436,0.22183584,0.89524788,-0.22686488,-0.59533106,-1.3272795,0.86239748,-31.639908,-21.929862,-25.185931,0.064194307,28.913722,0.668774,0.58461574,1.3867408,0.70229981,1.5528439,2.3979685,2.1572974,0.44747055,0.3875308,0.98023614,1.8288473,1.685813,0.70971398,2.4128435,2.4105243,between -0.023711622 and -0.00016276260500000002
1.6835444,2.1470357,-2.2449662,0.95243421,-0.42367693,-0.31848627,0.47510663,2.3301961,-1.0591047,-1.6795255,-0.57470586,1.3159626,68.16878,12.685374,53.08711,35.054119,-45.420695,0.84064862,0.28138903,1.3054243,2.0164242,2.0411798,1.8594829,1.3298115,2.3920891,2.3420268,2.4437578,2.2369143,2.0689161,2.2721236,2.082046,2.4463057,less than -0.023711622
1.7166556,-2.1278688,-0.77036588,2.1056113,-1.0315488,-0.36105322,1.335525,1.05947,-1.6065011,1.5254815,-1.3410856,-0.27002054,-6.5154573,-5.2902191,37.287831,-3.4203102,-35.152771,1.935684,1.7906123,0.32024625,1.878662,1.9224865,0.48020574,1.5679164,1.4715052,1.0885638,2.2416186,2.3837725,2.0651986,0.54291475,0.26825733,1.1009366,greater than 0.02356751225
-0.27296508,2.1428115,2.1562045,1.0582935,2.1821939,-0.39085626,-0.050979634,0.84008082,0.92095129,-1.7695383,-0.74390932,-0.91596785,22.382365,-19.597657,22.184295,-48.550082,18.767369,0.97255004,0.89850436,0.6628442,2.1724243,0.43570633,0.66624864,0.89081041,1.8506074,0.65888081,0.80972439,0.28776323,0.43666622,1.0492308,0.42173723,2.1376793,less than -0.023711622
-0.77393544,-1.3392847,1.7234652,-0.77541125,2.1309868,1.338337,1.197121,-1.8885607,1.6131382,1.6402315,-0.10450661,1.2785294,-7.979317,-8.3816272,-20.008959,9.4278166,53.313202,0.39969756,0.71689995,1.6875132,2.2840405,2.1194479,1.06013,1.3556187,1.8838915,2.0640024,0.68901089,0.95611135,1.363404,2.2308871,2.0193386,1.5242806,between -0.00016276260500000002 and 0.02356751225
0.31382111,1.2280483,-0.45575854,-2.3017478,-1.4733667,0.72965993,1.7583867,1.8146263,-0.15787163,-0.27356404,1.5008013,-1.450775,-40.580636,11.245034,-4.7194315,30.515518,24.314472,2.1748837,1.2700005,0.64919254,2.2290244,2.2137872,0.37209895,0.36708637,1.6207019,2.1367244,1.1773418,0.33438644,1.0328879,2.4962001,1.635694,2.1086569,less than -0.023711622
1.992543,-2.2790081,-0.99202189,-0.47972828,0.10430702,0.079431456,1.3984036,2.2855459,-2.2245104,0.74740158,-1.6507284,-1.9580485,-73.515662,-27.734221,70.952621,0.7020526,-50.601974,1.8643501,2.1324787,1.8197901,2.4621992,1.6815462,0.99705247,0.96082591,1.8510961,2.121591,1.0792415,0.8110831,0.62370194,1.3085506,0.55933922,1.8143286,less than -0.023711622
2.1381249,-1.2131715,0.73439581,1.2436449,-2.2173911,-2.1206187,-1.4409855,-1.6762496,-2.0659121,-0.90196766,0.38486447,-1.6928766,39.067295,54.031213,2.593212,-65.885432,-36.461724,0.44196608,2.3738825,2.3425894,0.64924645,0.88507734,2.2448672,0.73354548,2.4488716,0.43420167,2.3775062,2.4972775,1.7435097,0.66831926,1.9417435,2.3835784,less than -0.023711622
-0.24778638,1.2061036,-1.7139812,-0.048830202,-0.73352929,-0.81713602,-1.7036316,-0.46153641,-0.45012231,-1.8213879,-0.38766875,1.6853045,-40.022242,-53.825706,1.3608094,71.123913,29.60694,2.1826835,1.8618363,0.382693,0.6711937,0.75252005,1.8545221,1.2030462,0.3479034,0.96241456,1.5515609,1.0842335,1.463258,1.9771035,0.42915901,0.87550504,less than -0.023711622
1.7216311,1.3857791,2.1624594,-2.2014202,-2.3028331,-0.86598723,1.9222594,-0.7245022,0.10472412,-2.3351733,2.2307015,-0.36648507,-13.437044,63.603284,-69.599242,-54.455883,59.972857,0.83216724,1.7347892,0.35251295,1.9352291,0.89488734,0.62156011,1.3107112,0.87358302,0.3097839,1.5380476,1.2155999,2.0876579,2.2657733,1.1019094,1.5409103,less than -0.023711622
1.2568382,-1.9594067,-1.574274,1.241373,2.0101007,0.64644129,-2.0302422,0.12843184,0.27986026,0.64718959,1.1216974,-1.8997949,41.20569,-5.973753,-50.865859,-52.496767,-13.164707,1.2364214,1.0351425,2.1394902,0.41240055,0.46607211,0.27399544,0.79137767,2.4344866,1.6658374,2.4797037,1.1306364,0.60669519,1.2261289,1.2976975,0.40134246,between -0.023711622 and -0.00016276260500000002
-2.2430119,0.81087864,0.20843261,1.821921,-0.078186299,0.67940432,0.62983885,1.6758868,0.68048741,-0.01608118,-1.6702208,0.30030932,10.507817,54.87642,-42.006563,45.701796,-39.910508,1.7364685,1.5765195,2.0631295,1.7668636,1.6767993,2.215549,0.73268181,1.4331832,0.50969683,2.2245486,1.2385221,0.34038922,0.67156916,0.31285898,1.4707996,less than -0.023711622
-2.0412929,-1.8184892,1.2061507,-0.92236968,1.4925202,0.73973124,1.3808711,-0.21459299,-1.6868737,-1.5545064,-1.1037718,1.5823684,-59.10732,33.266444,59.125804,-22.610847,-70.509033,0.69530694,1.0238204,0.85019093,0.90889788,2.0966313,2.3315388,1.6721726,0.95441696,2.1358935,0.71249095,1.8353711,1.0826183,1.3156922,1.3394688,0.45209877,between -0.00016276260500000002 and 0.02356751225
0.72033429,0.53119588,-2.1679793,-1.0372313,-1.6189361,-0.12551306,1.6523045,0.17419289,1.2663687,-2.0014781,-1.810079,1.1861221,55.660434,-65.093392,-74.641122,-43.345173,47.679102,2.0150304,1.1161562,2.4869384,1.2238054,0.49805544,2.3177844,2.2522306,0.74009121,2.212937,1.8324263,1.0894809,1.9049426,0.37046624,2.1760787,1.1052385,between -0.00016276260500000002 and 0.02356751225
-1.0098274,1.8558208,-0.52191576,-2.0822392,-1.9937976,0.042206666,-2.2033009,-0.92514058,2.0458327,-1.9919663,-2.1670395,0.62216912,0.16560716,-66.640407,24.687666,25.60839,50.205831,2.2659501,1.823572,0.77464605,2.4761695,2.4805599,2.0206646,1.3104736,1.3800333,0.46993477,2.1936991,0.25075853,1.7485744,0.29020445,0.96616054,1.510131,greater than 0.02356751225
-0.56190039,-0.23236243,1.255108,1.9466188,-1.2941896,0.94276423,1.9866706,-2.0160642,-1.9138332,0.97186007,0.91205165,-0.54924538,12.825533,8.7366015,-13.938015,43.780401,67.204055,1.3534091,0.74655234,0.55513706,0.93856786,1.2600391,1.9765778,0.59360683,1.7499631,1.129277,0.25783124,1.3695874,0.40539942,2.0480582,0.46375374,1.80916,between -0.023711622 and -0.00016276260500000002
-1.5469345,-1.0777175,1.2246351,-1.2731858,0.52443693,2.0441221,2.2446964,-0.77355564,0.33163492,-0.96809102,1.1734452,0.74640762,15.703198,73.657116,5.1547151,-64.702588,43.60406,0.67650899,2.33661,1.4043978,0.4643401,0.41408108,1.710664,2.1291631,2.3442526,1.6042352,2.1317014,2.2562024,2.2431375,0.91226599,2.454449,1.9245512,greater than 0.02356751225
0.20353464,-0.38772903,0.67207564,-0.021057808,-0.48940376,-2.2902317,-1.1316991,-1.2645526,-0.46073409,-1.1026747,1.172523,-0.61606466,-34.384895,43.069667,-28.106647,-38.411985,9.7693675,0.53138504,2.2384189,0.35565099,0.67621386,1.8763785,1.7931084,1.7730154,1.569545,1.8434843,2.4407357,0.94568746,1.6690872,0.84877649,1.886495,0.82070665,between -0.00016276260500000002 and 0.02356751225
0.52446825,-2.1419396,-1.6393743,0.37416105,2.197895,-0.3967369,0.073329032,-2.2048768,0.86266132,-1.2720852,0.17286334,-2.2299153,-17.739073,59.402088,-29.104266,-5.3910866,-7.991797,0.35301645,1.3974987,1.5098549,2.1317888,1.4745036,1.9818022,0.64896034,0.5763741,2.3695785,2.0057651,0.64420222,1.6066974,0.76262517,0.69128803,0.97786118,less than -0.023711622
0.53863887,0.40433825,0.44799881,-0.88153254,-0.16644289,1.7533817,-2.195254,-2.3411418,0.87800404,2.1240142,1.9608577,-2.3133049,70.233956,72.09576,13.432896,16.683723,53.328246,1.9424305,0.42864312,1.2048995,2.2451469,0.93398655,0.7619369,0.37356012,2.4249007,0.30558672,0.74596633,1.9561327,1.2217637,2.1817839,2.4925353,0.79050871,between -0.023711622 and -0.00016276260500000002
2.0383185,-1.049307,-1.9434048,-1.2367628,0.075193091,0.85004115,-1.3218525,-2.1737992,0.10790373,-0.73169724,1.6998003,2.0413798,-45.618838,-65.816722,68.359366,65.857872,23.249451,1.4277916,2.143718,1.7188151,1.8759005,0.51045366,1.4447368,1.1911689,0.97604615,1.1576717,0.48786593,2.0626397,0.28541714,1.5058174,1.7730878,0.53723027,less than -0.023711622
-1.2062111,-0.092039371,-1.2421174,-0.38341325,-2.1908297,1.3320653,-0.53935287,1.7327808,0.2836396,-1.8068786,-1.5741926,-2.1036936,8.7771366,67.334124,-65.375976,-24.027915,-37.160682,1.9812387,2.4292257,0.99655221,1.5530396,1.1864406,0.25781272,1.0583425,0.5619872,1.3189011,1.2713198,0.32208712,1.3181506,2.1577033,0.51950141,0.51016603,less than -0.023711622
2.196094,2.3208386,1.891136,-0.74059222,-1.714182,1.2892887,1.5106281,-1.2249129,1.3159739,2.3314114,0.51631165,2.1418157,-14.111529,-22.475051,-38.183621,-52.11145,12.866279,0.52827607,1.7359345,1.6011668,2.3109623,2.3440211,2.2129958,0.56958782,0.81242828,0.73214571,1.4228936,0.82284343,0.27954784,1.8605296,0.92148019,2.0675079,between -0.00016276260500000002 and 0.02356751225
2.1922369,-1.2440617,-0.074565947,0.26559352,1.1979175,2.0732465,1.6503036,-0.468155,1.4085661,-1.2726213,0.58785963,-1.7229407,5.2738801,-11.897128,-5.0287208,-67.710812,34.387178,1.3044455,1.3161219,1.8106327,1.5546226,0.79230816,2.32321,1.1908296,2.0238631,1.0667596,0.27858914,1.4976221,1.28498,0.40808736,2.2243386,2.208626,greater than 0.02356751225
1.9470561,1.3420875,-1.7412303,-0.92149241,2.0996717,-1.8991149,-1.413963,0.10132849,1.8554626,-1.8305175,1.6801165,1.0839817,12.250405,-57.434804,-56.742738,24.797863,-72.309109,1.3871614,1.0224285,2.2062477,1.9057945,1.188261,1.6018415,2.3998218,1.8045585,0.71500256,1.2980188,1.3015255,1.7392162,0.50695439,1.1323717,0.52091673,between -0.00016276260500000002 and 0.02356751225
1.9591863,-2.1296376,-2.2240259,-0.53466459,0.41809238,0.70659777,0.5684186,1.3988727,0.74461276,-1.3985115,0.61403636,-0.022830709,-64.050809,48.054151,46.123543,-1.6171755,-29.868898,2.0264972,0.33793802,2.2242227,0.26101645,0.90341471,2.1909806,1.8111661,1.5190223,0.95734077,1.7764041,2.2737736,0.56207554,0.55363186,0.39068622,2.2632541,between -0.023711622 and -0.00016276260500000002
-1.9742269,-0.90108907,1.0141077,-0.60358647,1.2956921,0.74775118,-0.4874005,-1.6081262,-2.2270448,0.56323751,-0.85665091,-1.3835131,-56.59045,34.30823,18.427421,-40.33587,-74.973449,2.4436941,1.1659853,0.7141377,0.26225576,1.4825941,0.70860716,1.8106105,1.1812872,1.3938537,0.99922934,1.5475741,1.5779122,0.72091358,1.6445453,2.3731819,between -0.00016276260500000002 and 0.02356751225
1.5564684,1.0936229,2.2029851,0.3299629,-0.79530356,-2.3317561,-1.5987966,-0.93273074,1.7126343,0.97313346,-1.2480936,-1.8650832,11.392008,65.482279,10.667099,31.93494,30.538983,0.90537807,1.4391585,1.9367495,1.6991961,0.63820471,2.056503,0.64508353,0.66885643,1.9700827,1.6794557,1.862264,0.82177275,0.28455505,0.51673673,1.2941782,between -0.023711622 and -0.00016276260500000002
2.0035322,-1.3663749,-1.1913353,0.16782552,-2.0774852,-2.2038663,-1.0037213,0.80819271,2.1897735,-0.23516562,1.2657181,1.2009457,36.023748,51.140395,16.613376,71.003729,-40.326529,0.35543496,1.5452931,1.4912896,0.60465985,0.76804908,1.8508317,2.1775946,1.8319957,0.60241569,1.3005177,0.55111786,0.88780126,0.77569358,2.0819785,1.3118774,greater than 0.02356751225
0.63839297,-0.63906181,-1.1774205,-1.5853978,-1.9328706,1.4542797,-1.0829245,-1.4666363,0.75045893,-2.1021452,-1.9750259,-0.19262527,-1.326072,62.707581,26.312964,41.979537,-49.914528,1.9229541,1.5895318,0.26168547,0.89771204,0.84619277,1.2118675,2.3572343,1.536292,0.9591058,2.1912589,1.9886622,1.1961772,1.9007959,0.42627427,1.8917345,between -0.00016276260500000002 and 0.02356751225
-0.20441027,-0.19190934,-2.1462499,1.3153276,0.89447032,0.8418884,-1.6857234,-1.070322,-1.7124325,-2.2930701,-1.7117365,-0.020076008,59.668219,-56.247361,-49.397819,20.861741,73.278479,0.4959595,0.84135701,0.93721609,1.0408326,1.0236881,0.87578026,1.2387518,1.951957,0.79104349,1.3179553,1.1244788,0.61507304,0.28266263,2.4609043,2.417734,between -0.023711622 and -0.00016276260500000002
1.6959545,-1.3337314,0.81146058,0.56421017,1.3537501,1.0631961,-0.24217321,1.2989559,-0.94655812,0.22295105,0.78907977,1.401093,11.532128,20.473182,-7.2299073,-13.051826,-62.042137,2.2419527,1.2490536,1.8433956,0.94959522,2.0968726,1.8871614,0.77110391,1.4434771,0.26959372,1.0617261,1.1809866,0.84097949,1.3422572,2.3171492,0.57710209,between -0.00016276260500000002 and 0.02356751225
1.9339851,-1.5709957,-0.20989118,1.9383082,0.40034234,-0.73770864,-0.37366054,1.5018428,1.9167641,1.1628915,-2.2721741,0.76977669,67.769288,48.417751,7.141276,23.425703,-34.210751,0.9236073,1.8178657,1.6182432,1.3127493,1.3769716,0.76178972,2.399907,0.98658452,0.52601916,2.0540447,2.0800891,1.0580981,0.95459318,0.59750122,1.9530534,less than -0.023711622
-0.047772436,-1.8052024,-1.6761688,-0.70703544,1.5004277,1.6953623,-1.8620009,0.3266208,-0.4173841,1.7726712,1.5610109,2.0404403,51.76038,-63.301069,48.940283,-60.656944,-61.249653,1.7812395,0.29169821,1.3217483,1.8734613,2.2642234,2.0523206,2.3526498,0.98463983,1.5916572,2.232037,1.0954207,0.48623643,1.6756047,2.3874252,0.45600997,between -0.00016276260500000002 and 0.02356751225
1.6083152,0.69120744,1.0846509,2.2062822,-0.803683,-1.7934034,-1.2912092,-0.80136493,-0.53264288,1.4102187,-1.7711408,0.59767062,-56.123581,-69.027952,-52.790979,-7.9798532,-17.392909,1.7857266,1.4568976,0.82826957,1.4767402,1.3227929,1.4299465,2.3615155,1.4912227,1.7291242,1.8912384,1.7937295,0.96150973,2.09409,2.3702125,1.4113649,between -0.00016276260500000002 and 0.02356751225
-1.547627,1.420945,-0.5651507,1.6884324,-0.52233114,0.36128014,-2.2340974,-0.15877174,-1.2644613,1.0733637,0.9982761,1.9217082,-17.976824,-36.483786,17.016842,-47.928238,-29.897557,1.5514592,1.624209,0.33135321,1.8033292,0.30392186,2.0147749,1.3209939,0.44380981,1.8615502,2.32443,1.4449055,1.7775391,1.0989227,0.84369902,2.0494766,greater than 0.02356751225
0.26046052,-0.24939816,-2.3211173,-1.8626209,-0.66885591,2.298901,0.75233367,1.1323089,2.088865,0.25674241,-1.4786682,1.1634606,-67.843783,49.535348,40.587157,-51.65982,-46.594099,2.0197918,2.3914784,1.0775654,1.8921233,0.91683445,0.48660795,1.1698029,1.8778552,1.8618754,1.0394858,0.88814357,2.0289613,1.2529182,1.5459935,2.0122996,between -0.00016276260500000002 and 0.02356751225
-1.5332411,-1.8397974,1.2218186,-1.4858157,-1.1553808,1.2702472,1.9224946,-1.4847343,-1.8302892,0.80481601,1.9863025,1.2223491,-63.476006,-41.235684,-48.1403,5.9715346,13.58221,1.0180708,0.96625853,0.90711411,1.3667983,0.77971293,2.1351751,2.1387061,0.73326039,2.1573374,1.1199357,0.75890143,1.1063351,1.6741325,2.3951532,2.0898808,between -0.023711622 and -0.00016276260500000002
1.4430152,-1.9089552,-1.8661631,1.0569928,-0.82888512,-1.2503622,-2.295286,-1.2550274,-0.59283176,-1.7330992,-0.92126719,1.1724797,-42.779131,-38.852914,-50.926159,-15.957193,7.4583801,0.66991243,1.7181574,2.0718016,1.2694534,0.45347671,2.3331255,1.3396904,1.9258559,0.86040496,1.5761185,2.0739505,1.3861381,1.8234303,0.64338907,1.4400957,between -0.023711622 and -0.00016276260500000002
0.48697857,-0.77083286,-1.0305863,1.6773352,1.4625895,1.920217,-2.0649686,0.81810179,-0.91427303,0.91364154,-2.1023373,-0.48975224,40.6685,-34.52068,10.928566,-73.593157,19.815103,1.8616145,1.154375,1.3312158,1.2447381,1.3133265,2.0792551,0.53967961,2.1451869,1.6566039,0.29171751,1.6461826,0.640931,0.62724965,2.4348894,1.6857095,between -0.00016276260500000002 and 0.02356751225
-2.3325697,-1.1350376,-0.82559523,2.2066001,-0.17273085,-0.25582643,-1.9759903,-2.2633214,-1.2389192,1.5321489,2.3335468,-1.2917872,-34.737479,-32.809432,-28.117658,-73.469617,-3.846393,1.4301036,0.50097811,1.9391184,1.0130478,2.0448549,0.62646484,0.49449685,1.0085199,2.4431381,0.82247431,0.82576298,2.0983532,2.0225973,2.2922226,2.3860127,greater than 0.02356751225
0.85198385,-1.6575491,1.21545,-0.13811838,1.8520734,-2.244689,0.89743857,-1.107151,1.3369639,1.6812876,1.9168012,1.7870269,-70.227237,40.832879,28.196669,51.41156,74.087811,2.032476,1.8239468,0.32302824,1.3855912,1.6309722,1.5000944,2.3367142,0.90539925,1.7952192,1.2484211,2.4633293,0.42595656,1.051969,1.4432655,1.2136711,greater than 0.02356751225
-0.646565,-0.049028998,0.63770866,1.9969083,0.40302482,1.9351783,-0.36689625,2.0919353,0.022701546,-0.15863093,1.1021858,0.03600262,60.804904,-1.9852998,-66.933113,55.164216,-5.029785,2.3410597,1.9398524,2.0985073,2.3629122,2.4656933,1.9074143,1.4116701,1.1892967,1.0091581,1.9197563,1.8449208,1.8346251,2.0442641,1.9462462,1.5600651,less than -0.023711622
1.8142268,-2.1596129,-1.7946934,0.58989517,-0.49824348,-0.062869035,-1.0647405,-2.1526198,-2.0706443,-0.32651988,2.1134628,-1.0196261,66.945046,-4.6091987,-66.803263,-12.439803,24.231287,1.4537027,1.1307459,2.4467822,1.3187659,1.2485187,1.853797,0.26576923,2.0334423,2.3154552,1.3555788,1.2127647,1.6855936,1.521422,0.78999865,1.7572614,between -0.00016276260500000002 and 0.02356751225
0.10562372,-1.3527217,2.0825044,1.738428,0.94814577,-1.8136246,-1.8561452,-0.21801944,1.9858806,-1.1560199,-0.046462118,1.3677469,21.907639,-48.303281,-33.236184,-0.53898072,-58.648904,0.44297836,1.3873488,1.9206423,0.98517729,1.624786,1.0290406,0.835653,1.8199763,1.0925043,0.96913204,1.9521655,2.0454412,1.4802766,2.2583874,0.71734414,between -0.00016276260500000002 and 0.02356751225
2.0336927,1.3163395,-0.94882488,-0.17549725,0.37327637,1.4662704,-2.1877012,2.076659,-2.2578245,1.6113026,-0.93600928,-1.5534694,69.620819,-32.902254,61.824766,38.837548,-57.338157,2.3890271,0.37919763,0.42459945,0.74295497,0.84425684,2.4247724,0.39890153,0.83806998,1.942114,1.860185,1.8788556,0.675916,1.3702746,0.70595823,2.2899959,between -0.023711622 and -0.00016276260500000002
0.54602797,2.0706766,0.86933292,-2.2399155,1.015536,-0.15861269,1.4086661,0.4083731,2.2883053,1.7405725,-0.70911021,-0.3835893,-13.915674,-30.726446,30.626699,-57.071387,51.200406,1.00331,0.38197321,2.0737067,1.7882179,0.57852296,2.4853651,1.7817575,2.2487551,0.82700007,0.39025364,1.7428544,0.90461611,2.1330368,2.1991889,0.26710143,greater than 0.02356751225
0.90471126,-1.3971229,0.38965875,-1.2261071,0.094171555,-0.62137658,-0.82224387,1.9842074,-1.0027424,-1.588906,0.36455826,1.024999,-42.525842,18.173466,41.445259,-29.53569,-56.346503,0.38975355,2.3379032,0.63952444,1.7372865,1.8243002,1.7629373,0.93681811,1.1019107,1.5628692,2.1419878,1.888414,1.5741859,1.0928002,1.4427995,2.3809527,between -0.00016276260500000002 and 0.02356751225
1.222197,0.16175835,-0.37588502,1.8140156,-0.99612508,1.2438462,1.1660623,-0.81677489,-0.34649464,0.97730914,-1.753197,0.58598678,-6.7856558,-46.517111,-13.091987,12.972255,74.68155,0.96715892,0.28999192,1.8941606,1.4072802,1.6579966,1.1993608,1.4061841,1.2364178,0.97400287,0.56628926,1.6236236,1.7412415,0.79633678,0.28221407,1.6719447,between -0.00016276260500000002 and 0.02356751225
-1.8604195,-1.3694214,-0.55828006,-0.64643139,2.196575,0.9809801,-1.3165712,1.7660011,-2.1572886,-0.4284535,-0.48766379,-1.3208916,-5.1155923,-27.759129,-47.679871,-55.585725,-29.286186,0.43100134,0.33954106,2.1666398,2.2143795,1.3259669,0.77582946,2.1157678,2.2092221,2.3954622,0.5337882,2.1282014,1.930824,1.1084281,0.85102485,1.4246221,less than -0.023711622
1.9692458,2.0057839,-1.220155,1.1709999,2.0592391,1.8473375,-1.7294678,-1.1495671,0.020886787,2.3274432,-0.20288934,1.8084425,-13.250279,52.553378,64.627375,42.296039,19.52387,0.44023154,2.4714944,0.40629939,1.4238394,0.96922661,1.2916013,1.4431063,0.78724653,0.50239189,0.95048028,1.2220378,2.2895823,0.75991794,2.440767,1.4710795,between -0.023711622 and -0.00016276260500000002
-0.037706192,-2.2678391,-1.7696095,-1.9395511,2.2717097,0.84952839,-0.51495983,1.7286251,1.1237691,-0.067374271,-1.3860211,-1.517185,-18.826079,-59.9159,-56.524489,-57.083434,-1.2669843,1.4619278,2.1201034,0.82798899,1.260891,0.54470712,1.14261,1.5966739,1.0474148,1.4007696,2.4843368,2.498798,0.29850523,0.97740477,1.4919023,1.901628,less than -0.023711622
0.54818318,0.5942108,1.3485847,-0.92796523,1.6958584,1.7629056,-2.3481894,0.23827607,-0.82469108,-1.446957,1.6335789,1.1828598,-39.616781,10.765797,40.751514,10.695951,66.843083,0.35051807,2.1571864,0.83220218,2.3220604,2.1192907,0.66959327,0.85416155,2.3931374,1.9606553,0.73397221,0.62097591,0.49210054,1.2337791,1.6247975,1.2217924,between -0.00016276260500000002 and 0.02356751225
1.1870535,-1.4469092,-2.2753966,-1.5542045,-0.74348857,1.4431493,0.34483635,-0.57386856,1.2513286,-0.3125871,0.66229401,0.51271593,-55.474234,44.556752,65.337842,-16.894204,9.1144996,1.9359315,1.4498834,2.1898749,1.2268066,1.4392088,0.53234959,0.44951599,1.0152413,0.66000662,1.7312497,1.6141433,2.1556416,1.8677898,1.4424327,0.71571467,between -0.00016276260500000002 and 0.02356751225
-0.038674215,0.31215201,1.4499611,1.733179,2.2627729,1.4452802,-1.5400854,0.93737904,1.01317,-2.2250733,0.71226653,1.5955377,-63.757276,31.456103,-67.278568,-50.897474,16.149893,0.34369337,2.2045486,0.34796788,2.0461984,0.70715629,2.1758431,1.6455516,1.2849895,0.56884295,1.7933915,2.0308453,1.4163264,0.69776908,1.904885,1.6529568,less than -0.023711622
1.6438605,-0.37378117,-0.52564758,1.1704848,-1.885941,-1.4821532,-0.86122589,1.8354098,0.43379063,0.65343582,-2.2828844,-0.16650343,23.425964,-29.821332,-57.124367,60.769331,0.14269977,1.3503258,0.67586639,0.53638478,0.76905381,0.73742272,2.3636795,1.8611472,2.3001733,1.0118136,1.551116,0.35687144,0.93835484,2.1797451,1.976556,2.4770862,less than -0.023711622
-0.24023186,0.94043001,0.45457728,1.2978378,-0.88918343,-1.5204307,1.4061422,0.40079476,2.1537105,1.5530329,-0.098071707,1.044967,-9.9532529,-34.321003,66.894879,52.230214,33.205373,0.36553844,0.35460608,1.1144282,0.44511933,1.3705019,2.2757391,2.0963349,1.851303,1.1002967,1.4358887,0.98162029,0.34225247,0.48726352,0.93801406,0.95232789,less than -0.023711622
0.94167483,-2.1856834,-1.7093992,1.5629498,1.6410504,-0.47816564,-1.9066612,-1.0094697,-1.5571866,0.97264799,0.01733932,-0.74617289,-40.126364,-3.8081334,46.701767,-33.403154,43.188751,1.7251963,1.1233816,2.4253742,1.5144408,0.45578719,0.66522182,1.6331203,1.602991,1.4699695,2.2779865,1.6187546,0.90840954,0.63911586,1.6202286,0.93188531,less than -0.023711622
-2.1238974,0.0022017733,-0.69390853,0.64210118,0.42380159,-2.2987359,2.0234332,-1.4690137,-1.5075242,1.5569569,-0.12076682,1.3116774,25.686306,9.7425014,-57.778284,20.373899,-25.877184,0.3576328,2.4844216,1.6741325,2.394713,1.4408803,1.6246031,2.4545219,0.89942105,0.31959993,2.2660293,0.9048198,1.0564492,2.4913629,1.3360373,1.2790222,between -0.023711622 and -0.00016276260500000002
-0.13459692,-0.22366439,1.3590667,0.88468496,1.3129277,-1.7410994,1.2783055,0.69967552,2.0359544,1.6291503,2.1495339,2.0422038,-54.790372,-11.78488,-68.482411,-33.878902,-2.6977095,0.76894775,1.2047949,0.48859854,0.87570014,2.1423248,0.80261375,2.2793277,1.660547,1.3140643,0.97879492,2.3562618,0.9418922,0.88213898,2.3598159,2.175419,greater than 0.02356751225
-0.78168067,0.43349602,0.41430631,-1.6647261,-1.5978536,0.77948308,0.33079969,-0.86853081,1.5837857,-1.599108,-1.4538885,-1.7664691,-31.670315,67.023878,-29.676103,-16.264497,-57.400616,2.3927459,2.130383,0.34649718,2.0780688,0.85221915,1.2471814,1.8774584,1.9435212,0.75997413,1.1351378,2.0111702,1.487447,1.2724918,2.0203953,1.2830794,between -0.00016276260500000002 and 0.02356751225
-0.34818356,0.86596618,-2.276021,2.0889091,0.99679447,0.58185633,1.0522255,-0.84231461,-0.76519036,-0.444784,-1.6358108,-0.99534441,7.2380504,-0.087280653,33.074065,-24.186824,-7.9491064,2.1155401,0.63243274,1.797034,2.4998424,2.101046,2.2796517,0.35572193,1.868436,1.0537975,0.67425967,0.53221181,0.38388899,0.52217441,0.43530216,0.62346688,between -0.00016276260500000002 and 0.02356751225
-1.4645311,-1.5665225,-0.42685042,-1.8189908,2.2006196,-1.7267243,-2.1631532,-0.035246222,1.3777508,-0.82121528,0.42209216,1.9575844,-24.78999,54.63736,-9.8888384,-1.7075615,-48.985954,2.020958,1.7405756,0.85372283,1.7696704,1.5998898,1.097266,2.2488742,0.57875837,1.9418648,2.1717176,2.0575083,1.7921169,0.85923518,2.1656352,1.0811518,between -0.00016276260500000002 and 0.02356751225
-2.292822,-2.2552196,-1.7308695,-1.1470281,0.28264826,0.3812161,-1.7500717,1.2761443,2.0749402,1.8409037,-1.4782395,-1.0564498,16.846623,-58.807041,-19.934558,59.889878,69.18267,0.67204315,1.529197,0.9636304,1.736168,1.0256175,1.80368,1.6989799,1.5058224,1.8567322,2.347341,1.760978,1.7570877,1.6229379,1.467942,1.9505151,less than -0.023711622
-2.0231823,0.9732176,0.16599377,0.12294639,2.3336237,-0.00043949095,2.0382536,-2.1393219,-0.055285193,-0.83761156,-1.8316704,1.1530397,57.111338,20.260988,26.428626,35.918178,-73.174606,1.4409116,2.1512454,2.2309394,0.64825555,2.2309647,1.0730102,1.8326872,0.97395771,2.0573095,0.70065836,0.96500969,2.4178307,0.73063974,0.86219237,2.3671615,between -0.00016276260500000002 and 0.02356751225
-0.36993342,-1.829917,2.3485703,1.4516373,1.6295432,-0.67219905,-2.0529763,-0.26012065,1.2492699,-1.9257877,-2.0264061,-1.3714538,-55.056391,17.244762,32.708153,-24.069524,13.505875,2.0236256,1.5749708,0.78474234,1.1644711,2.2664183,0.69163233,2.2645867,1.4079159,1.0917361,1.5591505,0.39238727,1.6029184,2.4991498,1.7114896,0.25575603,between -0.00016276260500000002 and 0.02356751225
-1.9829173,-0.87566962,-0.58852791,-0.084173874,-0.99360374,1.208569,2.0220775,-0.6923078,-0.72876219,-0.80717333,0.80567425,2.273586,-19.173986,-57.18225,-12.068717,-38.921745,-7.7676264,0.61753997,1.2443075,0.82673682,0.46575078,1.6233545,1.719905,2.1926686,0.93175273,1.4681568,1.0613964,2.3899641,0.37620086,1.8077751,0.77564822,1.3196177,greater than 0.02356751225
-1.0141379,0.094666981,-1.7195177,1.1473786,0.89657529,-1.4790024,0.2581515,-1.358025,-2.2263262,-1.4962473,-2.1205817,-0.81943175,67.594854,-33.28578,65.890474,-28.811567,-36.010858,1.6075728,1.9763833,1.8241352,1.2403129,1.189226,2.0712326,0.70658304,1.5410915,0.62435111,0.96913347,1.9761494,2.392993,1.7827864,1.5417167,2.1325432,between -0.00016276260500000002 and 0.02356751225
-0.98359061,-0.14691737,0.05163028,0.67054824,-2.1300976,-0.53169669,-1.5368111,-0.58023388,-2.057968,0.66739839,1.4789572,-1.0189306,-10.996794,-23.121771,42.388833,-70.885788,72.568986,1.6293048,0.4761827,1.4525588,2.1557942,2.1832403,2.2203504,0.42900759,0.58049889,1.9448198,2.3357007,1.8724042,2.4975003,0.98831004,0.27687894,2.004334,less than -0.023711622
1.5462863,-0.39064602,-1.2298468,-1.497527,-0.067169843,2.0498032,-1.2328233,0.31247141,2.1057341,1.032048,-0.67273075,-1.5645132,11.348703,-62.351279,-37.939524,0.42357532,69.030419,0.53880864,1.0067615,2.1407365,1.1082946,0.85673324,0.61560975,0.30305996,1.028811,1.4770084,1.3298659,1.0559958,1.6212772,0.55514512,1.0741069,2.2643386,between -0.023711622 and -0.00016276260500000002
-0.4185506,1.0168958,-0.86638821,-0.10463464,-0.87324964,-2.3274813,-0.43728925,1.8063058,1.372024,1.8880385,-0.96394824,0.11531275,40.408892,-47.745413,42.848497,4.6868796,22.384878,1.7146541,1.6913236,1.075831,1.991866,1.0417073,2.2247499,2.3714506,1.9704696,1.4330747,0.93575756,1.277253,1.0403819,2.4478194,0.75050663,1.7650056,between -0.00016276260500000002 and 0.02356751225
-0.17299607,-0.00093632865,-1.5997086,-2.1240757,1.7193088,0.053174549,-1.6492606,-0.85073075,-0.84348621,-1.6066031,-0.18962771,-1.4980073,40.919475,-16.375702,23.568489,-34.412319,32.154824,1.0169236,1.9355557,1.8841384,1.7138702,2.0159871,1.4444614,1.0619928,1.1631952,1.0714758,0.79391025,2.2496026,1.5705715,1.0945181,1.0654633,0.9922722,between -0.023711622 and -0.00016276260500000002
1.9117061,0.97594361,-1.141865,2.2344577,1.5023734,1.4103769,0.88852503,-0.12053542,0.48845272,0.44332889,0.74166462,0.88839384,-74.018163,-73.259683,74.505877,20.279921,44.630408,0.67405416,1.5783001,0.48895456,2.3592979,2.4703696,1.751362,2.1418014,1.0057317,0.58199694,2.3725705,0.54320662,0.67372384,0.52655349,2.0345217,2.456623,between -0.00016276260500000002 and 0.02356751225
-2.2597604,2.0626577,-1.957266,1.417682,1.1435053,1.7707028,1.465201,-1.3116813,-0.87175883,-0.83335667,-1.0054473,0.074890305,15.071764,-38.869077,-22.570045,15.261704,3.4513771,0.73442886,1.5458091,1.1627052,1.8368244,0.75820413,0.63676194,0.30789089,1.2222482,1.3257825,2.1760413,0.47690237,2.2981616,0.95237385,1.5472582,0.76801222,greater than 0.02356751225
-0.53381415,0.5742643,0.68749391,-0.067574969,-0.046758849,1.0929904,0.99772983,2.1653189,-1.2646339,-1.8271713,1.3710906,0.33754743,-17.718112,-38.306813,-22.608351,-28.561259,-29.075981,1.674909,1.9448472,0.5464841,1.7583345,2.3275486,2.1088146,2.347557,0.89064848,1.3790149,1.3534363,1.2035497,2.0596623,1.9945415,1.0085423,0.5711048,greater than 0.02356751225
1.0892704,-0.26358968,-0.50607542,0.25248936,-2.2738745,0.46635801,1.3762433,2.1167911,-1.6281987,-0.29223063,-1.2108247,-2.2346461,1.3692447,62.895462,34.024038,42.015002,-53.864506,0.61367539,1.5423436,1.4185932,0.54652485,2.4431437,0.91689554,1.513408,1.0987628,0.40711385,1.6125584,0.2691162,2.0359918,2.4149971,0.35660952,1.0361982,greater than 0.02356751225
0.15967092,2.2398317,2.2879658,0.74744993,-0.83805784,0.092602823,1.287284,0.80469757,-0.0042701273,-1.082195,1.3702298,0.0071870338,-55.056027,23.346982,-7.2784316,71.400191,23.013736,0.50285072,1.9121345,1.9950513,0.57676727,2.2275327,1.8923968,1.0131339,1.2420954,1.8969416,0.89726917,2.4029399,2.4615295,1.6767713,1.7456264,2.4934994,less than -0.023711622
-0.30000498,0.072546602,-1.2179991,-0.29318457,1.6058311,1.3524273,-2.3191629,-2.0013366,0.56837004,0.58273533,1.6884391,-0.40973376,-50.770016,58.343772,33.774053,40.50732,-43.474394,1.0128717,1.3340044,0.86218343,2.2169187,1.2518984,2.4069903,0.78524043,0.53592941,2.1155456,0.72440627,1.8462358,1.4346875,1.0427338,1.4770339,1.7593399,greater than 0.02356751225
1.5419944,-1.8390499,-0.3519079,-0.46797182,-0.22515323,-0.10204953,0.16315817,-0.41095299,1.4753049,-1.1417,0.29621283,2.1662847,26.40322,58.923603,28.987874,-0.79660501,-38.540348,0.66067954,1.7909657,1.760842,1.7223299,2.447792,0.28952957,0.87351509,1.4181886,0.49569563,0.9063766,2.4715023,0.53949637,1.3154558,1.866205,1.8081965,between -0.023711622 and -0.00016276260500000002
-0.33562149,-0.060725102,1.9816148,-2.1645453,0.13026948,-1.8218043,2.0388116,-2.1856936,-1.8808216,-0.26375732,1.3887606,0.43691819,43.991166,9.522873,0.92678525,-23.520254,-54.902222,2.2504229,1.8583781,0.76145891,1.3399369,1.5688208,0.92105198,1.6205744,2.243123,0.66774282,1.2535652,1.1696672,1.8469009,1.3640944,0.33526002,2.2151077,greater than 0.02356751225
0.41995231,-1.0202094,1.724792,-2.0381336,-0.5561615,1.9733226,-0.16021381,-1.9393506,0.92942326,-0.75266055,-1.9139195,-0.47792796,66.46372,5.7346536,-67.677353,-3.2787993,-56.780199,1.3030134,1.9960156,1.0345539,1.2466386,1.7551383,0.35899938,0.70258879,1.909832,1.5456412,0.59211306,1.3941288,1.1225063,1.2138173,1.3765965,1.2073323,between -0.023711622 and -0.00016276260500000002
-0.6143807,-1.0521306,-2.2747174,0.43580242,1.4787867,0.82884538,0.58248606,2.2113796,0.044981925,2.0289841,2.2896215,0.29967851,-26.964443,-41.394534,-17.93908,-2.1217297,40.089003,1.0131903,2.1893189,0.88255611,0.3705131,0.7137441,0.39708171,1.7523528,0.79376572,2.0704658,1.3191943,1.6980232,1.1754921,0.74627507,0.39507419,1.761836,between -0.00016276260500000002 and 0.02356751225
0.5857602,0.69118502,0.70772809,0.71624922,-2.1532774,1.0135393,-0.7312188,0.31601661,0.4287895,1.4224408,1.0126198,-2.0478481,35.191627,15.673668,27.333431,-57.025292,-74.079432,0.57978085,1.1268108,1.5584776,0.33385111,1.0355411,2.0899639,0.52299478,0.72332016,1.591928,2.2835912,1.3164889,1.2288468,1.9775519,1.2150017,1.0336456,between -0.023711622 and -0.00016276260500000002
-0.34315266,0.59739811,-1.6308025,-1.644007,-2.0888669,-0.28831245,-1.3315492,-0.21229225,-0.71732474,-1.7859524,1.4153918,0.34969376,30.364453,35.355368,67.666934,-21.837778,22.462938,1.1439089,0.92750717,2.113088,2.1695725,2.0044109,0.38380754,1.4033131,2.4828892,0.66909501,1.4797625,0.36868621,1.5091816,2.064536,0.65691481,1.5171886,between -0.023711622 and -0.00016276260500000002
-0.97834527,-1.5237626,1.9563323,1.7390894,-2.0733403,1.4856114,-2.2780094,1.656856,1.273144,-1.2266861,-0.21111606,0.20131661,1.0487475,-73.701402,0.53526313,-3.8325234,-63.219976,2.3030091,1.4234221,0.70579993,1.8794726,2.0458396,1.4264888,0.49665601,1.2974943,1.4859599,1.0283007,1.9001725,1.1989866,1.8672581,1.5075286,1.2837211,between -0.00016276260500000002 and 0.02356751225
2.0179468,0.56800578,-0.82699382,2.2623214,-1.4307596,0.54467833,-1.7631414,-1.6158431,0.023048499,0.9602186,-1.5382443,-1.1067882,-63.341334,-27.799214,28.609437,-61.195334,40.027823,1.339195,0.35085106,1.0038192,2.1887345,2.3101594,2.3493041,1.0046831,0.95882517,1.9746701,2.2802555,1.5041378,0.54351675,1.3859625,1.1217367,1.7783198,greater than 0.02356751225
-0.76735517,0.87029102,-0.27421929,-0.087240766,-0.70258189,0.95297877,-0.69590728,0.035859691,-0.49195791,1.9060282,-0.20393621,-1.6490122,-44.216026,-38.742366,7.0519464,22.063548,22.04615,1.8197538,1.852705,2.163219,0.97137589,1.4145021,1.5369481,0.73703729,0.38566452,1.1135275,1.0575046,2.2298934,1.0680505,1.7255211,2.0832779,0.6523254,between -0.023711622 and -0.00016276260500000002
0.89574078,-1.3675297,-1.7503511,1.2940378,1.217393,-0.4693524,0.13343396,-0.47265892,1.1093034,1.8512354,-2.1911562,0.55775706,40.781893,71.270281,-60.395369,-14.971032,-68.142856,0.97026404,0.72770915,1.107679,1.7606879,1.3811873,1.8642002,1.8628652,1.9258131,2.390377,0.5667249,2.1954072,1.9593386,1.1043966,0.59350709,2.3236428,greater than 0.02356751225
0.71912697,-0.91078539,-1.7306521,-2.2050734,2.2700425,1.1038595,-0.10864471,-2.2971708,0.05321841,-0.91208523,-0.015179857,-0.65885464,23.685768,-13.304828,35.749395,-59.91219,5.8184121,1.225787,2.3024244,0.59625331,1.2294246,0.44006638,1.9456651,0.79398303,1.2227819,1.2957115,0.77252129,0.51525658,1.1674237,2.3906395,0.47879557,0.36713066,less than -0.023711622
-2.2157435,2.0087197,0.99754166,-0.99736544,-0.75326629,2.0426448,0.97801627,0.70663567,1.2054992,2.2647854,2.282433,2.0056186,22.734243,44.420971,33.254264,4.422029,71.040706,1.0921825,2.3104613,0.67292215,0.55256269,0.42115652,1.3776549,0.99597897,0.91851685,1.7627205,1.7934123,2.3811653,0.99503037,0.72539851,0.52276514,1.3636542,greater than 0.02356751225
1.7476906,1.1153797,0.30272782,-1.4336983,-1.7226601,0.17025084,0.98571849,-1.7889738,-2.2406599,-2.0705711,0.90334736,-0.75816714,-6.8538206,7.8374338,23.750699,27.99471,-42.917267,1.9673245,0.32250489,1.589748,1.6452828,1.2687244,1.7016615,1.5751789,2.0323428,1.8362234,1.9071046,0.70626385,0.67660254,1.6588063,1.3072001,0.36168659,between -0.00016276260500000002 and 0.02356751225
1.9668671,-0.2731475,-0.92317117,2.1590135,1.1447907,-0.18704007,-0.41903893,2.2341623,1.2498931,-0.87749755,1.6761133,-0.22472353,-73.362045,4.1059517,8.7293914,14.88044,45.55324,1.5744478,0.99370654,0.97586813,0.41561745,0.5324232,1.6866419,1.1407197,1.326694,1.7455781,1.6805119,1.6126632,2.0308417,1.3565251,1.3675299,1.8246182,between -0.00016276260500000002 and 0.02356751225
1.343591,-0.034229098,-0.37699334,2.0360635,-1.2493361,0.81364428,-0.43346786,0.059096872,-1.0729429,1.3618369,0.31894354,-2.2145328,-38.33645,-70.709405,37.027047,-36.421495,13.930301,1.0235547,0.88388352,2.4303026,1.0960916,0.51149096,0.87853781,0.33497857,1.9848188,1.8493407,1.8684426,1.1652469,1.8052473,1.0409012,2.1764301,0.26082697,between -0.023711622 and -0.00016276260500000002
0.84428082,0.82456192,-0.72385257,1.5981298,-0.84952613,0.55298404,1.1716598,-0.986699,-0.55331327,-1.9926592,0.3245788,-1.7506218,46.344363,-40.286349,7.3397908,59.863268,71.946755,2.2617582,1.1206644,1.7567369,2.4773164,1.5061737,1.0111936,2.381041,1.1565109,1.2287524,0.39220147,0.73006204,2.4026539,2.153742,1.4414038,1.4236688,less than -0.023711622
0.60822234,1.2212188,-2.1412137,1.1365277,2.3076967,-2.2154868,1.6111743,1.6195111,0.36482075,0.72422906,0.017136583,0.55882697,13.167322,53.175025,12.646026,-8.2477451,-19.851098,0.81383951,1.9506465,1.2651868,0.74502383,1.8655535,2.1070241,1.5040559,1.4168721,0.86921925,1.2178719,2.0227522,0.39602635,2.0148613,0.52339386,0.6805734,between -0.023711622 and -0.00016276260500000002
-1.0208368,0.60384647,-1.6382481,0.45309816,0.00014079014,-2.3461291,1.8789161,1.2236631,1.240014,-1.9812356,-0.88632866,-0.66419231,18.120287,47.662541,64.328567,-29.768893,74.208554,0.97252877,0.54098212,1.5364907,2.0489971,0.49504233,1.176501,1.9520004,1.5202107,0.68060101,1.3611371,2.3805641,2.1406379,1.7003761,2.4705375,2.3231693,between -0.00016276260500000002 and 0.02356751225
-0.53598648,1.7630223,-0.38686335,1.084496,-0.3957019,-1.3809096,-0.43192912,-2.3536518,-2.0330263,0.45905755,1.1994875,0.18619813,12.91522,16.101191,12.7117,45.539156,-73.399889,0.89592427,2.299145,1.7306326,2.4928285,1.2185856,0.51824596,1.9098734,2.2423016,0.36255573,1.9740813,1.3846744,1.9730719,2.4190879,1.6103223,0.93761691,between -0.023711622 and -0.00016276260500000002
0.64652245,-0.6662391,-0.84440935,1.7276761,-0.68887138,0.47849615,-1.9631899,0.81425687,0.43760959,-1.1348953,1.5649138,1.6637993,5.0271135,40.696924,-6.7936221,-30.406724,4.1973537,2.048842,2.388245,0.73444849,1.8757903,0.90758226,2.4851228,2.2090539,1.8186011,0.47932425,0.25264051,1.8791236,0.68057653,0.9498007,1.0503793,1.7250153,between -0.00016276260500000002 and 0.02356751225
-0.31234996,-0.064413389,1.25363,0.6679155,0.74527304,0.2740985,-1.9430157,0.59090066,2.2637851,-0.39318356,-1.4667875,-1.7900079,-24.532461,32.921658,-35.687045,57.831729,-22.137195,0.47752237,1.468536,0.68405478,0.90876414,2.0989234,0.35628187,2.2793555,2.1271415,2.1168023,1.5957949,2.0244893,0.34224404,0.34564928,1.3275065,1.9018254,less than -0.023711622
-0.46629758,-0.36054346,0.47825297,-1.337905,1.3507895,-1.5708122,-1.8368981,-1.8868299,-2.2855111,-1.9029107,0.7646049,0.029738843,9.7879865,-43.311449,14.482373,-44.753954,70.289085,0.6046888,1.2547005,2.2520362,1.972134,2.4058489,1.8520052,1.6516828,0.83239869,1.1247608,0.85550491,2.470941,2.3545578,1.55264,1.2209286,1.6473586,between -0.00016276260500000002 and 0.02356751225
-0.95752624,-0.33510925,-0.87632169,-2.1230558,0.010555067,-1.6717709,-2.1904847,-2.2928967,1.2018175,1.6468162,2.1801218,-2.2299524,-37.54957,-45.624149,-5.0760717,36.462482,74.938503,0.49641056,1.6722268,1.8651363,1.8463797,1.6036108,0.63729747,0.30858338,1.6108889,1.4597569,1.6343095,1.3399865,2.4035207,0.97211747,0.37829843,1.0616554,less than -0.023711622
